(G-CODE GENERATED BY FLATCAM v8.994 - www.flatcam.org - Version Date: 2020/11/7)

(Name: M¾dulo Patas-Edge_Cuts.gbr_panelized_cutout_cnc)
(Type: G-code from Geometry)
(Units: MM)

(Created on Sunday, 05 October 2025 at 17:32)

(This preprocessor is the default preprocessor used by FlatCAM.)
(It is made to work with MACH3 compatible motion controllers.)

(TOOL DIAMETER: 2.0 mm)
(Feedrate_XY: 25.0 mm/min)
(Feedrate_Z: 25.0 mm/min)
(Feedrate rapids 1500.0 mm/min)

(Z_Cut: -1.6 mm)
(Z_Move: 2.0 mm)
(Z Start: None mm)
(Z End: 2.5 mm)
(X,Y End: 0.0000, 0.0000 mm)
(Steps per circle: 64)
(Preprocessor Geometry: default)

(X range:  -43.1250 ...   42.1750  mm)
(Y range:  -26.1250 ...   26.1250  mm)

(Spindle Speed: 10000.0 RPM)
G21
G90
G94

G01 F25.00

M5
G00 Z15.0000
G00 X0.0000 Y0.0000
T1
M6    
(MSG, Change to Tool Dia = 2.0000)
M0
G00 Z15.0000

M03 S10000.0
G01 F25.00
G00 X19.1500 Y-26.1250
G01 F25.00
G01 Z-1.6000
G01 F25.00
G01 X1.0250 Y-26.1250
G01 X0.9172 Y-26.1197
G01 X0.8104 Y-26.1039
G01 X0.7057 Y-26.0776
G01 X0.6041 Y-26.0413
G01 X0.5065 Y-25.9951
G01 X0.4139 Y-25.9396
G01 X0.3272 Y-25.8753
G01 X0.2472 Y-25.8028
G01 X0.1747 Y-25.7228
G01 X0.1104 Y-25.6361
G01 X0.0549 Y-25.5435
G01 X0.0087 Y-25.4460
G01 X-0.0276 Y-25.3443
G01 X-0.0539 Y-25.2396
G01 X-0.0697 Y-25.1328
G01 X-0.0750 Y-25.0250
G01 X-0.0750 Y25.0250
G01 X-0.0697 Y25.1328
G01 X-0.0539 Y25.2396
G01 X-0.0276 Y25.3443
G01 X0.0087 Y25.4460
G01 X0.0549 Y25.5435
G01 X0.1104 Y25.6361
G01 X0.1747 Y25.7228
G01 X0.2472 Y25.8028
G01 X0.3272 Y25.8753
G01 X0.4139 Y25.9396
G01 X0.5065 Y25.9951
G01 X0.6041 Y26.0413
G01 X0.7057 Y26.0776
G01 X0.8104 Y26.1039
G01 X0.9172 Y26.1197
G01 X1.0250 Y26.1250
G01 X19.1500 Y26.1250
G00 Z2.0000
G00 X23.1500 Y26.1250
G01 F25.00
G01 Z-1.6000
G01 F25.00
G01 X41.0750 Y26.1250
G01 X41.1829 Y26.1197
G01 X41.2896 Y26.1039
G01 X41.3944 Y26.0776
G01 X41.4960 Y26.0413
G01 X41.5936 Y25.9951
G01 X41.6862 Y25.9396
G01 X41.7729 Y25.8753
G01 X41.8529 Y25.8028
G01 X41.9253 Y25.7228
G01 X41.9897 Y25.6361
G01 X42.0452 Y25.5435
G01 X42.0913 Y25.4460
G01 X42.1277 Y25.3443
G01 X42.1539 Y25.2396
G01 X42.1697 Y25.1328
G01 X42.1750 Y25.0250
G01 X42.1750 Y-25.0250
G01 X42.1697 Y-25.1328
G01 X42.1539 Y-25.2396
G01 X42.1277 Y-25.3443
G01 X42.0913 Y-25.4460
G01 X42.0452 Y-25.5435
G01 X41.9897 Y-25.6361
G01 X41.9253 Y-25.7228
G01 X41.8529 Y-25.8028
G01 X41.7729 Y-25.8753
G01 X41.6862 Y-25.9396
G01 X41.5936 Y-25.9951
G01 X41.4960 Y-26.0413
G01 X41.3944 Y-26.0776
G01 X41.2896 Y-26.1039
G01 X41.1829 Y-26.1197
G01 X41.0750 Y-26.1250
G01 X23.1500 Y-26.1250
G00 Z2.0000
G00 X-19.9000 Y-26.1250
G01 F25.00
G01 Z-1.6000
G01 F25.00
G01 X-1.9750 Y-26.1250
G01 X-1.8672 Y-26.1197
G01 X-1.7604 Y-26.1039
G01 X-1.6557 Y-26.0776
G01 X-1.5540 Y-26.0413
G01 X-1.4565 Y-25.9951
G01 X-1.3639 Y-25.9396
G01 X-1.2772 Y-25.8753
G01 X-1.1972 Y-25.8028
G01 X-1.1247 Y-25.7228
G01 X-1.0604 Y-25.6361
G01 X-1.0049 Y-25.5435
G01 X-0.9587 Y-25.4460
G01 X-0.9224 Y-25.3443
G01 X-0.8961 Y-25.2396
G01 X-0.8803 Y-25.1328
G01 X-0.8750 Y-25.0250
G01 X-0.8750 Y25.0250
G01 X-0.8803 Y25.1328
G01 X-0.8961 Y25.2396
G01 X-0.9224 Y25.3443
G01 X-0.9587 Y25.4460
G01 X-1.0049 Y25.5435
G01 X-1.0604 Y25.6361
G01 X-1.1247 Y25.7228
G01 X-1.1972 Y25.8028
G01 X-1.2772 Y25.8753
G01 X-1.3639 Y25.9396
G01 X-1.4565 Y25.9951
G01 X-1.5540 Y26.0413
G01 X-1.6557 Y26.0776
G01 X-1.7604 Y26.1039
G01 X-1.8672 Y26.1197
G01 X-1.9750 Y26.1250
G01 X-19.9000 Y26.1250
G00 Z2.0000
G00 X-23.9000 Y-26.1250
G01 F25.00
G01 Z-1.6000
G01 F25.00
G01 X-42.0250 Y-26.1250
G01 X-42.1328 Y-26.1197
G01 X-42.2396 Y-26.1039
G01 X-42.3443 Y-26.0776
G01 X-42.4460 Y-26.0413
G01 X-42.5435 Y-25.9951
G01 X-42.6361 Y-25.9396
G01 X-42.7228 Y-25.8753
G01 X-42.8028 Y-25.8028
G01 X-42.8753 Y-25.7228
G01 X-42.9396 Y-25.6361
G01 X-42.9951 Y-25.5435
G01 X-43.0413 Y-25.4460
G01 X-43.0776 Y-25.3443
G01 X-43.1039 Y-25.2396
G01 X-43.1197 Y-25.1328
G01 X-43.1250 Y-25.0250
G01 X-43.1250 Y25.0250
G01 X-43.1197 Y25.1328
G01 X-43.1039 Y25.2396
G01 X-43.0776 Y25.3443
G01 X-43.0413 Y25.4460
G01 X-42.9951 Y25.5435
G01 X-42.9396 Y25.6361
G01 X-42.8753 Y25.7228
G01 X-42.8028 Y25.8028
G01 X-42.7228 Y25.8753
G01 X-42.6361 Y25.9396
G01 X-42.5435 Y25.9951
G01 X-42.4460 Y26.0413
G01 X-42.3443 Y26.0776
G01 X-42.2396 Y26.1039
G01 X-42.1328 Y26.1197
G01 X-42.0250 Y26.1250
G01 X-23.9000 Y26.1250
G00 Z2.0000
M05
G00 Z2.0000
G00 Z2.50
G00 X0.0 Y0.0


