(G-CODE GENERATED BY FLATCAM v8.994 - www.flatcam.org - Version Date: 2020/11/7)

(Name: M¾dulo Patas-PTH.drl_cnc)
(Type: G-code from Geometry)
(Units: MM)

(Created on Sunday, 05 October 2025 at 00:51)

(This preprocessor is the default preprocessor used by FlatCAM.)
(It is made to work with MACH3 compatible motion controllers.)


(TOOLS DIAMETER: )
(Tool: 1 -> Dia: 1.0)

(FEEDRATE Z: )
(Tool: 1 -> Feedrate: 30.0)

(FEEDRATE RAPIDS: )
(Tool: 1 -> Feedrate Rapids: 1500.0)

(Z_CUT: )
(Tool: 1 -> Z_Cut: -2.5)

(Tools Offset: )
(Tool: 1 -> Offset Z: 0.0)

(Z_MOVE: )
(Tool: 1 -> Z_Move: 1.5)

(Z Toolchange: 15.0 mm)
(X,Y Toolchange: 0.0000, 0.0000 mm)
(Z Start: None mm)
(Z End: 2.5 mm)
(X,Y End: 0.0000, 0.0000 mm)
(Steps per circle: 64)
(Preprocessor Excellon: default)

(X range:  -36.5000 ...   -5.5600  mm)
(Y range:  -20.6200 ...   21.2400  mm)

(Spindle Speed: 10000 RPM)
G21
G90
G94

G01 F30.00

M5
G00 Z15.0000
T1
G00 X0.0000 Y0.0000                
M6
(MSG, Change to Tool Dia = 1.0000 ||| Total drills for tool T1 = 36)
M0
G00 Z15.0000

G01 F30.00
M03 S10000
G00 X-6.0600 Y20.7000
G01 Z-2.5000
G01 Z0
G00 Z1.5000
G00 X-8.6000 Y20.7000
G01 Z-2.5000
G01 Z0
G00 Z1.5000
G00 X-26.2000 Y18.1600
G01 Z-2.5000
G01 Z0
G00 Z1.5000
G00 X-26.2000 Y20.7000
G01 Z-2.5000
G01 Z0
G00 Z1.5000
G00 X-31.8000 Y20.7400
G01 Z-2.5000
G01 Z0
G00 Z1.5000
G00 X-31.8000 Y18.2000
G01 Z-2.5000
G01 Z0
G00 Z1.5000
G00 X-33.6000 Y11.2000
G01 Z-2.5000
G01 Z0
G00 Z1.5000
G00 X-33.6000 Y8.6600
G01 Z-2.5000
G01 Z0
G00 Z1.5000
G00 X-33.6000 Y6.1200
G01 Z-2.5000
G01 Z0
G00 Z1.5000
G00 X-36.0000 Y0.2000
G01 Z-2.5000
G01 Z0
G00 Z1.5000
G00 X-36.0000 Y-2.3400
G01 Z-2.5000
G01 Z0
G00 Z1.5000
G00 X-36.0000 Y-4.8800
G01 Z-2.5000
G01 Z0
G00 Z1.5000
G00 X-36.0000 Y-7.4200
G01 Z-2.5000
G01 Z0
G00 Z1.5000
G00 X-36.0000 Y-9.9600
G01 Z-2.5000
G01 Z0
G00 Z1.5000
G00 X-36.0000 Y-12.5000
G01 Z-2.5000
G01 Z0
G00 Z1.5000
G00 X-36.0000 Y-15.0400
G01 Z-2.5000
G01 Z0
G00 Z1.5000
G00 X-36.0000 Y-17.5800
G01 Z-2.5000
G01 Z0
G00 Z1.5000
G00 X-36.0000 Y-20.1200
G01 Z-2.5000
G01 Z0
G00 Z1.5000
G00 X-20.8000 Y-20.1200
G01 Z-2.5000
G01 Z0
G00 Z1.5000
G00 X-20.8000 Y-17.5800
G01 Z-2.5000
G01 Z0
G00 Z1.5000
G00 X-20.8000 Y-15.0400
G01 Z-2.5000
G01 Z0
G00 Z1.5000
G00 X-20.8000 Y-12.5000
G01 Z-2.5000
G01 Z0
G00 Z1.5000
G00 X-20.8000 Y-9.9600
G01 Z-2.5000
G01 Z0
G00 Z1.5000
G00 X-20.8000 Y-7.4200
G01 Z-2.5000
G01 Z0
G00 Z1.5000
G00 X-20.8000 Y-4.8800
G01 Z-2.5000
G01 Z0
G00 Z1.5000
G00 X-20.8000 Y-2.3400
G01 Z-2.5000
G01 Z0
G00 Z1.5000
G00 X-20.8000 Y0.2000
G01 Z-2.5000
G01 Z0
G00 Z1.5000
G00 X-25.0000 Y6.1200
G01 Z-2.5000
G01 Z0
G00 Z1.5000
G00 X-25.0000 Y8.6600
G01 Z-2.5000
G01 Z0
G00 Z1.5000
G00 X-25.0000 Y11.2000
G01 Z-2.5000
G01 Z0
G00 Z1.5000
G00 X-16.4000 Y11.1000
G01 Z-2.5000
G01 Z0
G00 Z1.5000
G00 X-16.4000 Y8.5600
G01 Z-2.5000
G01 Z0
G00 Z1.5000
G00 X-16.4000 Y6.0200
G01 Z-2.5000
G01 Z0
G00 Z1.5000
G00 X-7.8000 Y6.0200
G01 Z-2.5000
G01 Z0
G00 Z1.5000
G00 X-7.8000 Y8.5600
G01 Z-2.5000
G01 Z0
G00 Z1.5000
G00 X-7.8000 Y11.1000
G01 Z-2.5000
G01 Z0
G00 Z1.5000
M05
G00 Z2.50
G00 X0.0 Y0.0


