(G-CODE GENERATED BY FLATCAM v8.994 - www.flatcam.org - Version Date: 2020/11/7)

(Name: M¾dulo Patas-B_Cu.gbr_panelized_ncc_1_cnc)
(Type: G-code from Geometry)
(Units: MM)

(Created on Sunday, 05 October 2025 at 00:36)

(This preprocessor is the default preprocessor used by FlatCAM.)
(It is made to work with MACH3 compatible motion controllers.)

(TOOL DIAMETER: 0.25 mm)
(Feedrate_XY: 120.0 mm/min)
(Feedrate_Z: 25.0 mm/min)
(Feedrate rapids 1500.0 mm/min)

(Z_Cut: -0.2799 mm)
(Z_Move: 2.0 mm)
(Z Start: None mm)
(Z End: 2.5 mm)
(X,Y End: 0.0000, 0.0000 mm)
(Steps per circle: 64)
(Preprocessor Geometry: default)

(X range:  -36.9755 ...   37.9655  mm)
(Y range:  -24.3745 ...   24.3745  mm)

(Spindle Speed: 10000.0 RPM)
G21
G90
G94

G01 F120.00

M5
G00 Z15.0000
G00 X0.0000 Y0.0000
T1
M6    
(MSG, Change to Tool Dia = 0.2500)
M0
G00 Z15.0000

M03 S10000.0
G01 F120.00
G00 X6.0745 Y1.0624
G01 F25.00
G01 Z-0.2799
G01 F120.00
G01 X6.0818 Y1.0990
G01 X6.1095 Y1.1405
G01 X6.1511 Y1.1682
G01 X6.1877 Y1.1755
G01 X6.2255 Y1.1755
G01 X6.2344 Y1.1758
G01 X6.2463 Y1.1772
G01 X6.2579 Y1.1798
G01 X6.3278 Y1.2002
G01 X6.3395 Y1.2043
G01 X6.3508 Y1.2096
G01 X6.3588 Y1.2142
G01 X6.3665 Y1.2194
G01 X6.3762 Y1.2273
G01 X6.3870 Y1.2383
G01 X6.4348 Y1.2935
G01 X6.4423 Y1.3035
G01 X6.4487 Y1.3143
G01 X6.4551 Y1.3285
G01 X6.4598 Y1.3434
G01 X6.4723 Y1.4008
G01 X6.4742 Y1.4156
G01 X6.4745 Y1.4245
G01 X6.4745 Y7.5188
G01 X6.4966 Y7.6299
G01 X6.5400 Y7.7347
G01 X6.6030 Y7.8289
G01 X7.8811 Y9.1070
G01 X7.9753 Y9.1700
G01 X8.0801 Y9.2134
G01 X8.1913 Y9.2355
G01 X8.5488 Y9.2356
G01 X8.5635 Y9.2372
G01 X8.5752 Y9.2398
G01 X8.6480 Y9.2611
G01 X8.6595 Y9.2655
G01 X8.6705 Y9.2709
G01 X8.6809 Y9.2773
G01 X8.6883 Y9.2829
G01 X8.7089 Y9.2995
G01 X8.7165 Y9.3061
G01 X8.8145 Y9.4041
G01 X8.9388 Y9.4943
G01 X9.0756 Y9.5640
G01 X9.2216 Y9.6115
G01 X9.3733 Y9.6355
G01 X9.5268 Y9.6355
G01 X9.6785 Y9.6115
G01 X9.8245 Y9.5640
G01 X9.9613 Y9.4943
G01 X10.0855 Y9.4041
G01 X10.1833 Y9.3064
G01 X10.1946 Y9.2967
G01 X10.2045 Y9.2901
G01 X10.2737 Y9.2522
G01 X10.2877 Y9.2460
G01 X10.2994 Y9.2424
G01 X10.3114 Y9.2399
G01 X10.3439 Y9.2362
G01 X10.3539 Y9.2355
G01 X17.1488 Y9.2356
G01 X17.1606 Y9.2368
G01 X17.1752 Y9.2398
G01 X17.2451 Y9.2602
G01 X17.2595 Y9.2655
G01 X17.2678 Y9.2694
G01 X17.2758 Y9.2740
G01 X17.2883 Y9.2829
G01 X17.3089 Y9.2995
G01 X17.3165 Y9.3061
G01 X17.4145 Y9.4041
G01 X17.5388 Y9.4943
G01 X17.6756 Y9.5640
G01 X17.8216 Y9.6115
G01 X17.9733 Y9.6355
G01 X18.1268 Y9.6355
G01 X18.2785 Y9.6115
G01 X18.4245 Y9.5640
G01 X18.5613 Y9.4943
G01 X18.6855 Y9.4041
G01 X18.7941 Y9.2955
G01 X18.8375 Y9.2358
G01 X18.8473 Y9.2245
G01 X18.8582 Y9.2145
G01 X18.9209 Y9.1663
G01 X18.9287 Y9.1613
G01 X18.9397 Y9.1555
G01 X18.9483 Y9.1519
G01 X18.9601 Y9.1482
G01 X18.9691 Y9.1461
G01 X19.0170 Y9.1371
G01 X19.0314 Y9.1356
G01 X25.7488 Y9.1356
G01 X25.7606 Y9.1368
G01 X25.7752 Y9.1398
G01 X25.8451 Y9.1602
G01 X25.8538 Y9.1632
G01 X25.8623 Y9.1667
G01 X25.8758 Y9.1740
G01 X25.8883 Y9.1829
G01 X25.9089 Y9.1995
G01 X25.9165 Y9.2061
G01 X26.0145 Y9.3041
G01 X26.1388 Y9.3943
G01 X26.2756 Y9.4640
G01 X26.4216 Y9.5115
G01 X26.5733 Y9.5355
G01 X26.7268 Y9.5355
G01 X26.8785 Y9.5115
G01 X27.0245 Y9.4640
G01 X27.1613 Y9.3943
G01 X27.2855 Y9.3041
G01 X27.2956 Y9.2948
G01 X27.3051 Y9.2876
G01 X27.3153 Y9.2815
G01 X27.3766 Y9.2480
G01 X27.3907 Y9.2414
G01 X27.4024 Y9.2374
G01 X27.4145 Y9.2346
G01 X27.4268 Y9.2331
G01 X27.4423 Y9.2328
G01 X27.5214 Y9.2386
G01 X27.5306 Y9.2401
G01 X27.5397 Y9.2423
G01 X27.5545 Y9.2474
G01 X27.5630 Y9.2513
G01 X27.5712 Y9.2559
G01 X27.6181 Y9.2860
G01 X27.6278 Y9.2929
G01 X27.6389 Y9.3028
G01 X36.3416 Y18.0054
G01 X36.3496 Y18.0143
G01 X36.3567 Y18.0238
G01 X36.3629 Y18.0339
G01 X36.3964 Y18.0953
G01 X36.4005 Y18.1035
G01 X36.4040 Y18.1120
G01 X36.4077 Y18.1237
G01 X36.4102 Y18.1357
G01 X36.4138 Y18.1682
G01 X36.4145 Y18.1782
G01 X36.4145 Y19.4755
G01 X36.4140 Y19.4874
G01 X36.4123 Y19.4992
G01 X36.4095 Y19.5107
G01 X36.3889 Y19.5807
G01 X36.3832 Y19.5952
G01 X36.3758 Y19.6088
G01 X36.3668 Y19.6214
G01 X36.3563 Y19.6328
G01 X36.2989 Y19.6828
G01 X36.2865 Y19.6922
G01 X36.2730 Y19.7001
G01 X36.2616 Y19.7051
G01 X36.2467 Y19.7097
G01 X36.1921 Y19.7216
G01 X36.1833 Y19.7232
G01 X36.1685 Y19.7245
G01 X36.1277 Y19.7245
G01 X36.0911 Y19.7318
G01 X36.0495 Y19.7595
G01 X36.0218 Y19.8010
G01 X36.0145 Y19.8376
G01 X36.0145 Y21.5624
G01 X36.0218 Y21.5990
G01 X36.0495 Y21.6405
G01 X36.0911 Y21.6682
G01 X36.1277 Y21.6755
G01 X37.8524 Y21.6755
G01 X37.8890 Y21.6682
G01 X37.9305 Y21.6405
G01 X37.9582 Y21.5990
G01 X37.9655 Y21.5624
G01 X37.9655 Y19.8376
G01 X37.9582 Y19.8010
G01 X37.9305 Y19.7595
G01 X37.8890 Y19.7318
G01 X37.8524 Y19.7245
G01 X37.8086 Y19.7244
G01 X37.7967 Y19.7232
G01 X37.7851 Y19.7210
G01 X37.7064 Y19.6979
G01 X37.6977 Y19.6945
G01 X37.6893 Y19.6904
G01 X37.6812 Y19.6858
G01 X37.6735 Y19.6806
G01 X37.6639 Y19.6727
G01 X37.6551 Y19.6640
G01 X37.6073 Y19.6089
G01 X37.6014 Y19.6016
G01 X37.5945 Y19.5912
G01 X37.5873 Y19.5773
G01 X37.5828 Y19.5656
G01 X37.5796 Y19.5536
G01 X37.5673 Y19.4962
G01 X37.5661 Y19.4874
G01 X37.5655 Y19.4755
G01 X37.5655 Y17.7833
G01 X37.5434 Y17.6721
G01 X37.5000 Y17.5674
G01 X37.4370 Y17.4731
G01 X29.5245 Y9.5606
G01 X29.5146 Y9.5495
G01 X29.5061 Y9.5372
G01 X29.4682 Y9.4680
G01 X29.4643 Y9.4596
G01 X29.4610 Y9.4509
G01 X29.4583 Y9.4420
G01 X29.4558 Y9.4298
G01 X29.4546 Y9.4175
G01 X29.4545 Y9.4050
G01 X29.4597 Y9.3322
G01 X29.4617 Y9.3169
G01 X29.4657 Y9.3019
G01 X29.4690 Y9.2932
G01 X29.4728 Y9.2847
G01 X29.4807 Y9.2713
G01 X29.5281 Y9.2079
G01 X29.5384 Y9.1963
G01 X29.5501 Y9.1861
G01 X29.5603 Y9.1790
G01 X29.5740 Y9.1717
G01 X29.5826 Y9.1681
G01 X29.6539 Y9.1417
G01 X29.6688 Y9.1379
G01 X29.6841 Y9.1360
G01 X29.7005 Y9.1355
G01 X34.3458 Y9.1355
G01 X34.3577 Y9.1364
G01 X34.3723 Y9.1390
G01 X34.4451 Y9.1602
G01 X34.4595 Y9.1655
G01 X34.4678 Y9.1694
G01 X34.4758 Y9.1740
G01 X34.4883 Y9.1829
G01 X34.5089 Y9.1995
G01 X34.5165 Y9.2061
G01 X34.6145 Y9.3041
G01 X34.7388 Y9.3943
G01 X34.8756 Y9.4640
G01 X35.0216 Y9.5115
G01 X35.1733 Y9.5355
G01 X35.3268 Y9.5355
G01 X35.4785 Y9.5115
G01 X35.6245 Y9.4640
G01 X35.7613 Y9.3943
G01 X35.8855 Y9.3041
G01 X35.9941 Y9.1955
G01 X36.0843 Y9.0713
G01 X36.1541 Y8.9345
G01 X36.2015 Y8.7884
G01 X36.2255 Y8.6368
G01 X36.2255 Y8.4832
G01 X36.2015 Y8.3316
G01 X36.1541 Y8.1855
G01 X36.0843 Y8.0487
G01 X35.9941 Y7.9245
G01 X35.8855 Y7.8159
G01 X35.7613 Y7.7257
G01 X35.6245 Y7.6560
G01 X35.4785 Y7.6085
G01 X35.3268 Y7.5845
G01 X35.1733 Y7.5845
G01 X35.0216 Y7.6085
G01 X34.8756 Y7.6560
G01 X34.7388 Y7.7257
G01 X34.6145 Y7.8159
G01 X34.5168 Y7.9136
G01 X34.5078 Y7.9214
G01 X34.4981 Y7.9283
G01 X34.4904 Y7.9329
G01 X34.4291 Y7.9664
G01 X34.4208 Y7.9705
G01 X34.4123 Y7.9740
G01 X34.4006 Y7.9776
G01 X34.3886 Y7.9801
G01 X34.3562 Y7.9838
G01 X34.3462 Y7.9845
G01 X27.5543 Y7.9845
G01 X27.5424 Y7.9836
G01 X27.5278 Y7.9810
G01 X27.4550 Y7.9598
G01 X27.4462 Y7.9568
G01 X27.4378 Y7.9533
G01 X27.4243 Y7.9460
G01 X27.4118 Y7.9371
G01 X27.3911 Y7.9205
G01 X27.3836 Y7.9139
G01 X27.2855 Y7.8159
G01 X27.1613 Y7.7257
G01 X27.0245 Y7.6560
G01 X26.8785 Y7.6085
G01 X26.7268 Y7.5845
G01 X26.5733 Y7.5845
G01 X26.4216 Y7.6085
G01 X26.2756 Y7.6560
G01 X26.1388 Y7.7257
G01 X26.0145 Y7.8159
G01 X25.9168 Y7.9136
G01 X25.9054 Y7.9233
G01 X25.8956 Y7.9299
G01 X25.8264 Y7.9678
G01 X25.8123 Y7.9740
G01 X25.8006 Y7.9776
G01 X25.7886 Y7.9801
G01 X25.7495 Y7.9843
G01 X18.8572 Y7.9845
G01 X18.8424 Y7.9836
G01 X18.8336 Y7.9822
G01 X18.8249 Y7.9802
G01 X18.7520 Y7.9589
G01 X18.7434 Y7.9557
G01 X18.7323 Y7.9506
G01 X18.7243 Y7.9460
G01 X18.7166 Y7.9409
G01 X18.6868 Y7.9169
G01 X18.5613 Y7.8257
G01 X18.4245 Y7.7560
G01 X18.2785 Y7.7085
G01 X18.1268 Y7.6845
G01 X17.9733 Y7.6845
G01 X17.8216 Y7.7085
G01 X17.6756 Y7.7560
G01 X17.5388 Y7.8257
G01 X17.4145 Y7.9159
G01 X17.3168 Y8.0136
G01 X17.3054 Y8.0233
G01 X17.2956 Y8.0299
G01 X17.2264 Y8.0678
G01 X17.2123 Y8.0740
G01 X17.2006 Y8.0776
G01 X17.1886 Y8.0801
G01 X17.1495 Y8.0843
G01 X10.3572 Y8.0845
G01 X10.3483 Y8.0842
G01 X10.3394 Y8.0832
G01 X10.3307 Y8.0816
G01 X10.3220 Y8.0794
G01 X10.2491 Y8.0579
G01 X10.2378 Y8.0533
G01 X10.2243 Y8.0460
G01 X10.2118 Y8.0371
G01 X10.1911 Y8.0205
G01 X10.1836 Y8.0139
G01 X10.0855 Y7.9159
G01 X9.9613 Y7.8257
G01 X9.8245 Y7.7560
G01 X9.6785 Y7.7085
G01 X9.5268 Y7.6845
G01 X9.3733 Y7.6845
G01 X9.2216 Y7.7085
G01 X9.0756 Y7.7560
G01 X8.9388 Y7.8257
G01 X8.8145 Y7.9159
G01 X8.7422 Y7.9882
G01 X8.7357 Y7.9943
G01 X8.7287 Y7.9999
G01 X8.7214 Y8.0050
G01 X8.7137 Y8.0096
G01 X8.6524 Y8.0431
G01 X8.6412 Y8.0485
G01 X8.6296 Y8.0527
G01 X8.6176 Y8.0558
G01 X8.6053 Y8.0577
G01 X8.5929 Y8.0583
G01 X8.5836 Y8.0580
G01 X8.5139 Y8.0530
G01 X8.5046 Y8.0520
G01 X8.4954 Y8.0503
G01 X8.4863 Y8.0479
G01 X8.4775 Y8.0448
G01 X8.4689 Y8.0411
G01 X8.4606 Y8.0368
G01 X8.4084 Y8.0034
G01 X8.3989 Y7.9962
G01 X8.3922 Y7.9903
G01 X7.6964 Y7.2945
G01 X7.6868 Y7.2832
G01 X7.6786 Y7.2707
G01 X7.6436 Y7.2068
G01 X7.6383 Y7.1958
G01 X7.6332 Y7.1813
G01 X7.6304 Y7.1694
G01 X7.6291 Y7.1603
G01 X7.6257 Y7.1273
G01 X7.6257 Y1.4186
G01 X7.6273 Y1.4038
G01 X7.6298 Y1.3921
G01 X7.6503 Y1.3222
G01 X7.6544 Y1.3105
G01 X7.6611 Y1.2965
G01 X7.6676 Y1.2860
G01 X7.6773 Y1.2739
G01 X7.6860 Y1.2651
G01 X7.7412 Y1.2172
G01 X7.7485 Y1.2114
G01 X7.7615 Y1.2029
G01 X7.7699 Y1.1986
G01 X7.7785 Y1.1949
G01 X7.7934 Y1.1903
G01 X7.8538 Y1.1772
G01 X7.8626 Y1.1761
G01 X7.8715 Y1.1755
G01 X7.9124 Y1.1755
G01 X7.9490 Y1.1682
G01 X7.9905 Y1.1405
G01 X8.0182 Y1.0990
G01 X8.0255 Y1.0624
G01 X8.0255 Y-0.6624
G01 X8.0182 Y-0.6990
G01 X7.9905 Y-0.7405
G01 X7.9490 Y-0.7682
G01 X7.9124 Y-0.7755
G01 X6.1877 Y-0.7755
G01 X6.1511 Y-0.7682
G01 X6.1095 Y-0.7405
G01 X6.0818 Y-0.6990
G01 X6.0745 Y-0.6624
G01 X6.0745 Y1.0624
G00 Z2.0000
G00 X7.7941 Y-4.2445
G01 F25.00
G01 Z-0.2799
G01 F120.00
G01 X7.8843 Y-4.3687
G01 X7.9541 Y-4.5055
G01 X8.0015 Y-4.6516
G01 X8.0255 Y-4.8032
G01 X8.0255 Y-4.9568
G01 X8.0015 Y-5.1084
G01 X7.9541 Y-5.2545
G01 X7.8843 Y-5.3913
G01 X7.7941 Y-5.5155
G01 X7.6855 Y-5.6241
G01 X7.5613 Y-5.7143
G01 X7.4245 Y-5.7840
G01 X7.2785 Y-5.8315
G01 X7.1268 Y-5.8555
G01 X6.9733 Y-5.8555
G01 X6.8216 Y-5.8315
G01 X6.6756 Y-5.7840
G01 X6.5388 Y-5.7143
G01 X6.4145 Y-5.6241
G01 X6.3060 Y-5.5155
G01 X6.2157 Y-5.3913
G01 X6.1460 Y-5.2545
G01 X6.0985 Y-5.1084
G01 X6.0745 Y-4.9568
G01 X6.0745 Y-4.8032
G01 X6.0985 Y-4.6516
G01 X6.1460 Y-4.5055
G01 X6.2157 Y-4.3687
G01 X6.3060 Y-4.2445
G01 X6.4145 Y-4.1359
G01 X6.5388 Y-4.0457
G01 X6.6756 Y-3.9760
G01 X6.8216 Y-3.9285
G01 X6.9733 Y-3.9045
G01 X7.1268 Y-3.9045
G01 X7.2785 Y-3.9285
G01 X7.4245 Y-3.9760
G01 X7.5613 Y-4.0457
G01 X7.6855 Y-4.1359
G01 X7.7941 Y-4.2445
G00 Z2.0000
G00 X7.0439 Y-5.8548
G01 F25.00
G01 Z-0.2799
G01 F120.00
G01 X7.0562 Y-5.8548
G01 X7.1456 Y-5.8503
G01 X7.2402 Y-5.8363
G01 X7.3331 Y-5.8130
G01 X7.4231 Y-5.7808
G01 X7.5096 Y-5.7399
G01 X7.5917 Y-5.6907
G01 X7.6686 Y-5.6337
G01 X7.7395 Y-5.5694
G01 X7.8037 Y-5.4985
G01 X7.8607 Y-5.4217
G01 X7.9099 Y-5.3396
G01 X7.9508 Y-5.2531
G01 X7.9830 Y-5.1630
G01 X8.0063 Y-5.0702
G01 X8.0203 Y-4.9756
G01 X8.0250 Y-4.8800
G01 X8.0203 Y-4.7844
G01 X8.0063 Y-4.6898
G01 X7.9830 Y-4.5970
G01 X7.9508 Y-4.5069
G01 X7.9099 Y-4.4204
G01 X7.8607 Y-4.3383
G01 X7.8037 Y-4.2615
G01 X7.7395 Y-4.1906
G01 X7.6686 Y-4.1263
G01 X7.5917 Y-4.0693
G01 X7.5096 Y-4.0201
G01 X7.4231 Y-3.9792
G01 X7.3331 Y-3.9470
G01 X7.2402 Y-3.9237
G01 X7.1456 Y-3.9097
G01 X7.0500 Y-3.9050
G01 X6.9545 Y-3.9097
G01 X6.8598 Y-3.9237
G01 X6.7670 Y-3.9470
G01 X6.6769 Y-3.9792
G01 X6.5904 Y-4.0201
G01 X6.5083 Y-4.0693
G01 X6.4315 Y-4.1263
G01 X6.3606 Y-4.1906
G01 X6.2963 Y-4.2615
G01 X6.2393 Y-4.3383
G01 X6.1902 Y-4.4204
G01 X6.1492 Y-4.5069
G01 X6.1170 Y-4.5970
G01 X6.0938 Y-4.6898
G01 X6.0797 Y-4.7844
G01 X6.0750 Y-4.8800
G01 X6.0797 Y-4.9756
G01 X6.0938 Y-5.0702
G01 X6.1170 Y-5.1630
G01 X6.1492 Y-5.2531
G01 X6.1902 Y-5.3396
G01 X6.2393 Y-5.4217
G01 X6.2963 Y-5.4985
G01 X6.3606 Y-5.5694
G01 X6.4315 Y-5.6337
G01 X6.5083 Y-5.6907
G01 X6.5904 Y-5.7399
G01 X6.6769 Y-5.7808
G01 X6.7670 Y-5.8130
G01 X6.8598 Y-5.8363
G01 X6.9545 Y-5.8503
G01 X7.0439 Y-5.8548
G00 Z2.0000
G00 X7.7941 Y-6.7845
G01 F25.00
G01 Z-0.2799
G01 F120.00
G01 X7.8843 Y-6.9087
G01 X7.9541 Y-7.0455
G01 X8.0015 Y-7.1916
G01 X8.0255 Y-7.3432
G01 X8.0255 Y-7.4968
G01 X8.0015 Y-7.6484
G01 X7.9541 Y-7.7945
G01 X7.8843 Y-7.9313
G01 X7.7941 Y-8.0555
G01 X7.6855 Y-8.1641
G01 X7.5613 Y-8.2543
G01 X7.4245 Y-8.3240
G01 X7.2785 Y-8.3715
G01 X7.1268 Y-8.3955
G01 X6.9733 Y-8.3955
G01 X6.8216 Y-8.3715
G01 X6.6756 Y-8.3240
G01 X6.5388 Y-8.2543
G01 X6.4145 Y-8.1641
G01 X6.3060 Y-8.0555
G01 X6.2157 Y-7.9313
G01 X6.1460 Y-7.7945
G01 X6.0985 Y-7.6484
G01 X6.0745 Y-7.4968
G01 X6.0745 Y-7.3432
G01 X6.0985 Y-7.1916
G01 X6.1460 Y-7.0455
G01 X6.2157 Y-6.9087
G01 X6.3060 Y-6.7845
G01 X6.4145 Y-6.6759
G01 X6.5388 Y-6.5857
G01 X6.6756 Y-6.5160
G01 X6.8216 Y-6.4685
G01 X6.9733 Y-6.4445
G01 X7.1268 Y-6.4445
G01 X7.2785 Y-6.4685
G01 X7.4245 Y-6.5160
G01 X7.5613 Y-6.5857
G01 X7.6855 Y-6.6759
G01 X7.7941 Y-6.7845
G00 Z2.0000
G00 X7.0439 Y-8.3948
G01 F25.00
G01 Z-0.2799
G01 F120.00
G01 X7.0562 Y-8.3948
G01 X7.1456 Y-8.3903
G01 X7.2402 Y-8.3763
G01 X7.3331 Y-8.3530
G01 X7.4231 Y-8.3208
G01 X7.5096 Y-8.2799
G01 X7.5917 Y-8.2307
G01 X7.6686 Y-8.1737
G01 X7.7395 Y-8.1094
G01 X7.8037 Y-8.0385
G01 X7.8607 Y-7.9617
G01 X7.9099 Y-7.8796
G01 X7.9508 Y-7.7931
G01 X7.9830 Y-7.7030
G01 X8.0063 Y-7.6102
G01 X8.0203 Y-7.5156
G01 X8.0250 Y-7.4200
G01 X8.0203 Y-7.3244
G01 X8.0063 Y-7.2298
G01 X7.9830 Y-7.1370
G01 X7.9508 Y-7.0469
G01 X7.9099 Y-6.9604
G01 X7.8607 Y-6.8783
G01 X7.8037 Y-6.8015
G01 X7.7395 Y-6.7306
G01 X7.6686 Y-6.6663
G01 X7.5917 Y-6.6093
G01 X7.5096 Y-6.5601
G01 X7.4231 Y-6.5192
G01 X7.3331 Y-6.4870
G01 X7.2402 Y-6.4637
G01 X7.1456 Y-6.4497
G01 X7.0500 Y-6.4450
G01 X6.9545 Y-6.4497
G01 X6.8598 Y-6.4637
G01 X6.7670 Y-6.4870
G01 X6.6769 Y-6.5192
G01 X6.5904 Y-6.5601
G01 X6.5083 Y-6.6093
G01 X6.4315 Y-6.6663
G01 X6.3606 Y-6.7306
G01 X6.2963 Y-6.8015
G01 X6.2393 Y-6.8783
G01 X6.1902 Y-6.9604
G01 X6.1492 Y-7.0469
G01 X6.1170 Y-7.1370
G01 X6.0938 Y-7.2298
G01 X6.0797 Y-7.3244
G01 X6.0750 Y-7.4200
G01 X6.0797 Y-7.5156
G01 X6.0938 Y-7.6102
G01 X6.1170 Y-7.7030
G01 X6.1492 Y-7.7931
G01 X6.1902 Y-7.8796
G01 X6.2393 Y-7.9617
G01 X6.2963 Y-8.0385
G01 X6.3606 Y-8.1094
G01 X6.4315 Y-8.1737
G01 X6.5083 Y-8.2307
G01 X6.5904 Y-8.2799
G01 X6.6769 Y-8.3208
G01 X6.7670 Y-8.3530
G01 X6.8598 Y-8.3763
G01 X6.9545 Y-8.3903
G01 X7.0439 Y-8.3948
G00 Z2.0000
G00 X7.7941 Y-9.3245
G01 F25.00
G01 Z-0.2799
G01 F120.00
G01 X7.8843 Y-9.4487
G01 X7.9541 Y-9.5855
G01 X8.0015 Y-9.7316
G01 X8.0255 Y-9.8832
G01 X8.0255 Y-10.0368
G01 X8.0015 Y-10.1884
G01 X7.9541 Y-10.3345
G01 X7.8843 Y-10.4713
G01 X7.7941 Y-10.5955
G01 X7.6855 Y-10.7041
G01 X7.5613 Y-10.7943
G01 X7.4245 Y-10.8640
G01 X7.2785 Y-10.9115
G01 X7.1268 Y-10.9355
G01 X6.9733 Y-10.9355
G01 X6.8216 Y-10.9115
G01 X6.6756 Y-10.8640
G01 X6.5388 Y-10.7943
G01 X6.4145 Y-10.7041
G01 X6.3060 Y-10.5955
G01 X6.2157 Y-10.4713
G01 X6.1460 Y-10.3345
G01 X6.0985 Y-10.1884
G01 X6.0745 Y-10.0368
G01 X6.0745 Y-9.8832
G01 X6.0985 Y-9.7316
G01 X6.1460 Y-9.5855
G01 X6.2157 Y-9.4487
G01 X6.3060 Y-9.3245
G01 X6.4145 Y-9.2159
G01 X6.5388 Y-9.1257
G01 X6.6756 Y-9.0560
G01 X6.8216 Y-9.0085
G01 X6.9733 Y-8.9845
G01 X7.1268 Y-8.9845
G01 X7.2785 Y-9.0085
G01 X7.4245 Y-9.0560
G01 X7.5613 Y-9.1257
G01 X7.6855 Y-9.2159
G01 X7.7941 Y-9.3245
G00 Z2.0000
G00 X7.0439 Y-10.9348
G01 F25.00
G01 Z-0.2799
G01 F120.00
G01 X7.0562 Y-10.9348
G01 X7.1456 Y-10.9303
G01 X7.2402 Y-10.9163
G01 X7.3331 Y-10.8930
G01 X7.4231 Y-10.8608
G01 X7.5096 Y-10.8199
G01 X7.5917 Y-10.7707
G01 X7.6686 Y-10.7137
G01 X7.7395 Y-10.6494
G01 X7.8037 Y-10.5785
G01 X7.8607 Y-10.5017
G01 X7.9099 Y-10.4196
G01 X7.9508 Y-10.3331
G01 X7.9830 Y-10.2430
G01 X8.0063 Y-10.1502
G01 X8.0203 Y-10.0556
G01 X8.0250 Y-9.9600
G01 X8.0203 Y-9.8644
G01 X8.0063 Y-9.7698
G01 X7.9830 Y-9.6770
G01 X7.9508 Y-9.5869
G01 X7.9099 Y-9.5004
G01 X7.8607 Y-9.4183
G01 X7.8037 Y-9.3415
G01 X7.7395 Y-9.2706
G01 X7.6686 Y-9.2063
G01 X7.5917 Y-9.1493
G01 X7.5096 Y-9.1001
G01 X7.4231 Y-9.0592
G01 X7.3331 Y-9.0270
G01 X7.2402 Y-9.0037
G01 X7.1456 Y-8.9897
G01 X7.0500 Y-8.9850
G01 X6.9545 Y-8.9897
G01 X6.8598 Y-9.0037
G01 X6.7670 Y-9.0270
G01 X6.6769 Y-9.0592
G01 X6.5904 Y-9.1001
G01 X6.5083 Y-9.1493
G01 X6.4315 Y-9.2063
G01 X6.3606 Y-9.2706
G01 X6.2963 Y-9.3415
G01 X6.2393 Y-9.4183
G01 X6.1902 Y-9.5004
G01 X6.1492 Y-9.5869
G01 X6.1170 Y-9.6770
G01 X6.0938 Y-9.7698
G01 X6.0797 Y-9.8644
G01 X6.0750 Y-9.9600
G01 X6.0797 Y-10.0556
G01 X6.0938 Y-10.1502
G01 X6.1170 Y-10.2430
G01 X6.1492 Y-10.3331
G01 X6.1902 Y-10.4196
G01 X6.2393 Y-10.5017
G01 X6.2963 Y-10.5785
G01 X6.3606 Y-10.6494
G01 X6.4315 Y-10.7137
G01 X6.5083 Y-10.7707
G01 X6.5904 Y-10.8199
G01 X6.6769 Y-10.8608
G01 X6.7670 Y-10.8930
G01 X6.8598 Y-10.9163
G01 X6.9545 Y-10.9303
G01 X7.0439 Y-10.9348
G00 Z2.0000
G00 X7.7941 Y-11.8645
G01 F25.00
G01 Z-0.2799
G01 F120.00
G01 X7.8843 Y-11.9887
G01 X7.9541 Y-12.1255
G01 X8.0015 Y-12.2716
G01 X8.0255 Y-12.4232
G01 X8.0255 Y-12.5768
G01 X8.0015 Y-12.7284
G01 X7.9541 Y-12.8745
G01 X7.8843 Y-13.0113
G01 X7.7941 Y-13.1355
G01 X7.6855 Y-13.2441
G01 X7.5613 Y-13.3343
G01 X7.4245 Y-13.4040
G01 X7.2785 Y-13.4515
G01 X7.1268 Y-13.4755
G01 X6.9733 Y-13.4755
G01 X6.8216 Y-13.4515
G01 X6.6756 Y-13.4040
G01 X6.5388 Y-13.3343
G01 X6.4145 Y-13.2441
G01 X6.3060 Y-13.1355
G01 X6.2157 Y-13.0113
G01 X6.1460 Y-12.8745
G01 X6.0985 Y-12.7284
G01 X6.0745 Y-12.5768
G01 X6.0745 Y-12.4232
G01 X6.0985 Y-12.2716
G01 X6.1460 Y-12.1255
G01 X6.2157 Y-11.9887
G01 X6.3060 Y-11.8645
G01 X6.4145 Y-11.7559
G01 X6.5388 Y-11.6657
G01 X6.6756 Y-11.5960
G01 X6.8216 Y-11.5485
G01 X6.9733 Y-11.5245
G01 X7.1268 Y-11.5245
G01 X7.2785 Y-11.5485
G01 X7.4245 Y-11.5960
G01 X7.5613 Y-11.6657
G01 X7.6855 Y-11.7559
G01 X7.7941 Y-11.8645
G00 Z2.0000
G00 X7.0439 Y-13.4748
G01 F25.00
G01 Z-0.2799
G01 F120.00
G01 X7.0562 Y-13.4748
G01 X7.1456 Y-13.4703
G01 X7.2402 Y-13.4563
G01 X7.3331 Y-13.4330
G01 X7.4231 Y-13.4008
G01 X7.5096 Y-13.3599
G01 X7.5917 Y-13.3107
G01 X7.6686 Y-13.2537
G01 X7.7395 Y-13.1894
G01 X7.8037 Y-13.1185
G01 X7.8607 Y-13.0417
G01 X7.9099 Y-12.9596
G01 X7.9508 Y-12.8731
G01 X7.9830 Y-12.7830
G01 X8.0063 Y-12.6902
G01 X8.0203 Y-12.5956
G01 X8.0250 Y-12.5000
G01 X8.0203 Y-12.4044
G01 X8.0063 Y-12.3098
G01 X7.9830 Y-12.2170
G01 X7.9508 Y-12.1269
G01 X7.9099 Y-12.0404
G01 X7.8607 Y-11.9583
G01 X7.8037 Y-11.8815
G01 X7.7395 Y-11.8106
G01 X7.6686 Y-11.7463
G01 X7.5917 Y-11.6893
G01 X7.5096 Y-11.6401
G01 X7.4231 Y-11.5992
G01 X7.3331 Y-11.5670
G01 X7.2402 Y-11.5437
G01 X7.1456 Y-11.5297
G01 X7.0500 Y-11.5250
G01 X6.9545 Y-11.5297
G01 X6.8598 Y-11.5437
G01 X6.7670 Y-11.5670
G01 X6.6769 Y-11.5992
G01 X6.5904 Y-11.6401
G01 X6.5083 Y-11.6893
G01 X6.4315 Y-11.7463
G01 X6.3606 Y-11.8106
G01 X6.2963 Y-11.8815
G01 X6.2393 Y-11.9583
G01 X6.1902 Y-12.0404
G01 X6.1492 Y-12.1269
G01 X6.1170 Y-12.2170
G01 X6.0938 Y-12.3098
G01 X6.0797 Y-12.4044
G01 X6.0750 Y-12.5000
G01 X6.0797 Y-12.5956
G01 X6.0938 Y-12.6902
G01 X6.1170 Y-12.7830
G01 X6.1492 Y-12.8731
G01 X6.1902 Y-12.9596
G01 X6.2393 Y-13.0417
G01 X6.2963 Y-13.1185
G01 X6.3606 Y-13.1894
G01 X6.4315 Y-13.2537
G01 X6.5083 Y-13.3107
G01 X6.5904 Y-13.3599
G01 X6.6769 Y-13.4008
G01 X6.7670 Y-13.4330
G01 X6.8598 Y-13.4563
G01 X6.9545 Y-13.4703
G01 X7.0439 Y-13.4748
G00 Z2.0000
G00 X7.0439 Y-16.0148
G01 F25.00
G01 Z-0.2799
G01 F120.00
G01 X7.0562 Y-16.0148
G01 X7.1456 Y-16.0103
G01 X7.2402 Y-15.9963
G01 X7.3331 Y-15.9730
G01 X7.4231 Y-15.9408
G01 X7.5096 Y-15.8999
G01 X7.5917 Y-15.8507
G01 X7.6686 Y-15.7937
G01 X7.7395 Y-15.7294
G01 X7.8037 Y-15.6585
G01 X7.8607 Y-15.5817
G01 X7.9099 Y-15.4996
G01 X7.9508 Y-15.4131
G01 X7.9830 Y-15.3230
G01 X8.0063 Y-15.2302
G01 X8.0203 Y-15.1356
G01 X8.0250 Y-15.0400
G01 X8.0203 Y-14.9444
G01 X8.0063 Y-14.8498
G01 X7.9830 Y-14.7570
G01 X7.9508 Y-14.6669
G01 X7.9099 Y-14.5804
G01 X7.8607 Y-14.4983
G01 X7.8037 Y-14.4215
G01 X7.7395 Y-14.3506
G01 X7.6686 Y-14.2863
G01 X7.5917 Y-14.2293
G01 X7.5096 Y-14.1801
G01 X7.4231 Y-14.1392
G01 X7.3331 Y-14.1070
G01 X7.2402 Y-14.0837
G01 X7.1456 Y-14.0697
G01 X7.0500 Y-14.0650
G01 X6.9545 Y-14.0697
G01 X6.8598 Y-14.0837
G01 X6.7670 Y-14.1070
G01 X6.6769 Y-14.1392
G01 X6.5904 Y-14.1801
G01 X6.5083 Y-14.2293
G01 X6.4315 Y-14.2863
G01 X6.3606 Y-14.3506
G01 X6.2963 Y-14.4215
G01 X6.2393 Y-14.4983
G01 X6.1902 Y-14.5804
G01 X6.1492 Y-14.6669
G01 X6.1170 Y-14.7570
G01 X6.0938 Y-14.8498
G01 X6.0797 Y-14.9444
G01 X6.0750 Y-15.0400
G01 X6.0797 Y-15.1356
G01 X6.0938 Y-15.2302
G01 X6.1170 Y-15.3230
G01 X6.1492 Y-15.4131
G01 X6.1902 Y-15.4996
G01 X6.2393 Y-15.5817
G01 X6.2963 Y-15.6585
G01 X6.3606 Y-15.7294
G01 X6.4315 Y-15.7937
G01 X6.5083 Y-15.8507
G01 X6.5904 Y-15.8999
G01 X6.6769 Y-15.9408
G01 X6.7670 Y-15.9730
G01 X6.8598 Y-15.9963
G01 X6.9545 Y-16.0103
G01 X7.0439 Y-16.0148
G00 Z2.0000
G00 X7.4705 Y-16.0292
G01 F25.00
G01 Z-0.2799
G01 F120.00
G01 X7.5469 Y-15.9930
G01 X7.5579 Y-15.9875
G01 X7.6379 Y-15.9397
G01 X7.6483 Y-15.9331
G01 X7.7233 Y-15.8778
G01 X7.7329 Y-15.8702
G01 X7.8093 Y-15.8010
G01 X7.8178 Y-15.7921
G01 X7.8802 Y-15.7229
G01 X7.8878 Y-15.7133
G01 X7.9432 Y-15.6383
G01 X7.9498 Y-15.6279
G01 X7.9975 Y-15.5478
G01 X8.0031 Y-15.5369
G01 X8.0380 Y-15.4630
G01 X8.0482 Y-15.4725
G01 X8.0613 Y-15.4830
G01 X8.0751 Y-15.4925
G01 X8.0895 Y-15.5010
G01 X8.1023 Y-15.5074
G01 X8.1149 Y-15.5127
G01 X8.1254 Y-15.5165
G01 X8.1508 Y-15.5243
G01 X7.5381 Y-16.1370
G01 X7.5339 Y-16.1259
G01 X7.5283 Y-16.1134
G01 X7.5217 Y-16.1008
G01 X7.5160 Y-16.0912
G01 X7.5065 Y-16.0773
G01 X7.4705 Y-16.0292
G00 Z2.0000
G00 X7.2355 Y-16.5695
G01 F25.00
G01 Z-0.2799
G01 F120.00
G01 X7.2441 Y-16.5644
G01 X7.2516 Y-16.5590
G01 X7.2746 Y-16.5405
G01 X7.2822 Y-16.5339
G01 X7.3856 Y-16.4306
G01 X7.3917 Y-16.4240
G01 X7.3990 Y-16.4147
G01 X7.4054 Y-16.4047
G01 X7.4404 Y-16.3408
G01 X7.4458 Y-16.3296
G01 X7.4509 Y-16.3150
G01 X7.4531 Y-16.3059
G01 X7.4547 Y-16.2967
G01 X7.4556 Y-16.2844
G01 X7.4555 Y-16.2750
G01 X7.4501 Y-16.1992
G01 X7.4483 Y-16.1869
G01 X7.4453 Y-16.1748
G01 X7.4423 Y-16.1660
G01 X7.4386 Y-16.1575
G01 X7.4343 Y-16.1492
G01 X7.4293 Y-16.1413
G01 X7.3839 Y-16.0803
G01 X7.3738 Y-16.0685
G01 X7.3648 Y-16.0600
G01 X7.3549 Y-16.0524
G01 X7.3444 Y-16.0459
G01 X7.3333 Y-16.0404
G01 X7.2591 Y-16.0126
G01 X7.2471 Y-16.0092
G01 X7.2348 Y-16.0069
G01 X7.2255 Y-16.0060
G01 X7.2161 Y-16.0058
G01 X7.1791 Y-16.0075
G01 X7.1268 Y-16.0155
G01 X6.9733 Y-16.0155
G01 X6.8216 Y-15.9915
G01 X6.6756 Y-15.9440
G01 X6.5388 Y-15.8743
G01 X6.4145 Y-15.7841
G01 X6.3060 Y-15.6755
G01 X6.2157 Y-15.5513
G01 X6.1460 Y-15.4145
G01 X6.0985 Y-15.2684
G01 X6.0745 Y-15.1168
G01 X6.0745 Y-14.9632
G01 X6.0985 Y-14.8116
G01 X6.1460 Y-14.6655
G01 X6.2157 Y-14.5287
G01 X6.3060 Y-14.4045
G01 X6.4145 Y-14.2959
G01 X6.5388 Y-14.2057
G01 X6.6756 Y-14.1360
G01 X6.8216 Y-14.0885
G01 X6.9733 Y-14.0645
G01 X7.1268 Y-14.0645
G01 X7.2785 Y-14.0885
G01 X7.4245 Y-14.1360
G01 X7.5613 Y-14.2057
G01 X7.6855 Y-14.2959
G01 X7.7941 Y-14.4045
G01 X7.8843 Y-14.5287
G01 X7.9541 Y-14.6655
G01 X8.0015 Y-14.8116
G01 X8.0255 Y-14.9632
G01 X8.0255 Y-15.1168
G01 X8.0178 Y-15.1664
G01 X8.0171 Y-15.1813
G01 X8.0177 Y-15.1931
G01 X8.0270 Y-15.2654
G01 X8.0300 Y-15.2806
G01 X8.0337 Y-15.2925
G01 X8.0385 Y-15.3039
G01 X8.0445 Y-15.3148
G01 X8.0515 Y-15.3250
G01 X8.1045 Y-15.3880
G01 X8.1157 Y-15.3987
G01 X8.1282 Y-15.4079
G01 X8.1390 Y-15.4141
G01 X8.1532 Y-15.4203
G01 X8.2318 Y-15.4446
G01 X8.2440 Y-15.4470
G01 X8.2594 Y-15.4484
G01 X8.2749 Y-15.4479
G01 X8.2872 Y-15.4461
G01 X8.2963 Y-15.4439
G01 X8.3696 Y-15.4233
G01 X8.3840 Y-15.4175
G01 X8.3950 Y-15.4116
G01 X8.4078 Y-15.4026
G01 X8.4322 Y-15.3832
G01 X8.4406 Y-15.3755
G01 X14.1016 Y-9.7146
G01 X14.1115 Y-9.7034
G01 X14.1199 Y-9.6912
G01 X14.1578 Y-9.6220
G01 X14.1629 Y-9.6109
G01 X14.1660 Y-9.6022
G01 X14.1691 Y-9.5903
G01 X14.1706 Y-9.5812
G01 X14.1741 Y-9.5485
G01 X14.1745 Y-9.5385
G01 X14.1745 Y0.4785
G01 X14.1736 Y0.4933
G01 X14.1710 Y0.5080
G01 X14.1489 Y0.5837
G01 X14.1433 Y0.5980
G01 X14.1376 Y0.6088
G01 X14.1309 Y0.6191
G01 X14.1105 Y0.6446
G01 X14.1016 Y0.6546
G01 X9.6846 Y5.0716
G01 X9.6758 Y5.0796
G01 X9.6663 Y5.0867
G01 X9.6587 Y5.0914
G01 X9.5948 Y5.1264
G01 X9.5809 Y5.1329
G01 X9.5693 Y5.1368
G01 X9.5573 Y5.1396
G01 X9.5482 Y5.1409
G01 X9.5152 Y5.1443
G01 X8.5877 Y5.1445
G01 X8.5511 Y5.1518
G01 X8.5095 Y5.1795
G01 X8.4818 Y5.2210
G01 X8.4745 Y5.2576
G01 X8.4745 Y6.9824
G01 X8.4818 Y7.0190
G01 X8.5095 Y7.0605
G01 X8.5511 Y7.0882
G01 X8.5877 Y7.0955
G01 X10.3124 Y7.0955
G01 X10.3490 Y7.0882
G01 X10.3905 Y7.0605
G01 X10.4182 Y7.0190
G01 X10.4255 Y6.9824
G01 X10.4257 Y6.0556
G01 X10.4273 Y6.0408
G01 X10.4298 Y6.0292
G01 X10.4503 Y5.9593
G01 X10.4543 Y5.9477
G01 X10.4594 Y5.9365
G01 X10.4674 Y5.9234
G01 X10.4729 Y5.9160
G01 X10.4895 Y5.8954
G01 X10.4985 Y5.8855
G01 X15.1970 Y1.1869
G01 X15.2600 Y1.0926
G01 X15.3034 Y0.9879
G01 X15.3255 Y0.8767
G01 X15.3255 Y-9.9367
G01 X15.3034 Y-10.0479
G01 X15.2600 Y-10.1526
G01 X15.1970 Y-10.2469
G01 X8.0943 Y-17.3498
G01 X8.0850 Y-17.3613
G01 X8.0786 Y-17.3713
G01 X8.0436 Y-17.4353
G01 X8.0371 Y-17.4491
G01 X8.0341 Y-17.4578
G01 X8.0316 Y-17.4667
G01 X8.0291 Y-17.4818
G01 X8.0262 Y-17.5082
G01 X8.0256 Y-17.5182
G01 X8.0255 Y-17.6568
G01 X8.0015 Y-17.8084
G01 X7.9541 Y-17.9545
G01 X7.8843 Y-18.0913
G01 X7.7941 Y-18.2155
G01 X7.6855 Y-18.3241
G01 X7.5613 Y-18.4143
G01 X7.4245 Y-18.4840
G01 X7.2785 Y-18.5315
G01 X7.1268 Y-18.5555
G01 X6.9733 Y-18.5555
G01 X6.8216 Y-18.5315
G01 X6.6756 Y-18.4840
G01 X6.5388 Y-18.4143
G01 X6.4145 Y-18.3241
G01 X6.3060 Y-18.2155
G01 X6.2157 Y-18.0913
G01 X6.1460 Y-17.9545
G01 X6.0985 Y-17.8084
G01 X6.0745 Y-17.6568
G01 X6.0745 Y-17.5032
G01 X6.0985 Y-17.3516
G01 X6.1460 Y-17.2055
G01 X6.2157 Y-17.0687
G01 X6.3060 Y-16.9445
G01 X6.4145 Y-16.8359
G01 X6.5388 Y-16.7457
G01 X6.6756 Y-16.6760
G01 X6.8216 Y-16.6285
G01 X6.9733 Y-16.6045
G01 X7.1085 Y-16.6045
G01 X7.1174 Y-16.6042
G01 X7.1263 Y-16.6032
G01 X7.1409 Y-16.6002
G01 X7.1689 Y-16.5920
G01 X7.1945 Y-16.5865
G01 X7.2037 Y-16.5841
G01 X7.2126 Y-16.5811
G01 X7.2213 Y-16.5774
G01 X7.2297 Y-16.5730
G01 X7.2355 Y-16.5695
G00 Z2.0000
G00 X7.1991 Y-16.6175
G01 F25.00
G01 Z-0.2799
G01 F120.00
G01 X7.1517 Y-16.6104
G01 X7.1425 Y-16.6094
G01 X7.0562 Y-16.6052
G01 X7.0470 Y-16.6050
G01 X6.9545 Y-16.6097
G01 X6.8659 Y-16.6227
G01 X6.8568 Y-16.6244
G01 X6.7670 Y-16.6470
G01 X6.6769 Y-16.6792
G01 X6.5904 Y-16.7201
G01 X6.5135 Y-16.7660
G01 X6.5058 Y-16.7711
G01 X6.4315 Y-16.8263
G01 X6.3606 Y-16.8906
G01 X6.2963 Y-16.9615
G01 X6.2393 Y-17.0383
G01 X6.1902 Y-17.1204
G01 X6.1492 Y-17.2069
G01 X6.1170 Y-17.2970
G01 X6.0951 Y-17.3838
G01 X6.0932 Y-17.3928
G01 X6.0797 Y-17.4844
G01 X6.0750 Y-17.5800
G01 X6.0797 Y-17.6756
G01 X6.0938 Y-17.7702
G01 X6.1170 Y-17.8630
G01 X6.1492 Y-17.9531
G01 X6.1902 Y-18.0396
G01 X6.2393 Y-18.1217
G01 X6.2963 Y-18.1985
G01 X6.3606 Y-18.2694
G01 X6.4315 Y-18.3337
G01 X6.5083 Y-18.3907
G01 X6.5904 Y-18.4399
G01 X6.6769 Y-18.4808
G01 X6.7670 Y-18.5130
G01 X6.8538 Y-18.5349
G01 X6.8628 Y-18.5368
G01 X6.9484 Y-18.5496
G01 X6.9606 Y-18.5508
G01 X7.0500 Y-18.5550
G01 X7.1395 Y-18.5508
G01 X7.1517 Y-18.5496
G01 X7.2402 Y-18.5363
G01 X7.3331 Y-18.5130
G01 X7.4231 Y-18.4808
G01 X7.5042 Y-18.4426
G01 X7.5150 Y-18.4368
G01 X7.5917 Y-18.3907
G01 X7.6637 Y-18.3375
G01 X7.6732 Y-18.3297
G01 X7.7395 Y-18.2694
G01 X7.8037 Y-18.1985
G01 X7.8572 Y-18.1267
G01 X7.8640 Y-18.1165
G01 X7.9099 Y-18.0396
G01 X7.9483 Y-17.9587
G01 X7.9530 Y-17.9474
G01 X7.9821 Y-17.8660
G01 X7.9847 Y-17.8571
G01 X8.0063 Y-17.7702
G01 X8.0196 Y-17.6817
G01 X8.0206 Y-17.6725
G01 X8.0249 Y-17.5861
G01 X8.0250 Y-17.5769
G01 X8.0206 Y-17.4875
G01 X8.0196 Y-17.4783
G01 X8.0126 Y-17.4310
G01 X15.1589 Y-10.2845
G01 X15.1947 Y-10.2449
G01 X15.2248 Y-10.2046
G01 X15.2316 Y-10.1944
G01 X15.2543 Y-10.1565
G01 X15.2601 Y-10.1457
G01 X15.2815 Y-10.1001
G01 X15.3005 Y-10.0470
G01 X15.3142 Y-9.9922
G01 X15.3221 Y-9.9394
G01 X15.3229 Y-9.9303
G01 X15.3252 Y-9.8800
G01 X15.3252 Y0.8200
G01 X15.3229 Y0.8703
G01 X15.3217 Y0.8825
G01 X15.3142 Y0.9322
G01 X15.3005 Y0.9870
G01 X15.2837 Y1.0344
G01 X15.2790 Y1.0457
G01 X15.2573 Y1.0912
G01 X15.2316 Y1.1344
G01 X15.2248 Y1.1446
G01 X15.1947 Y1.1849
G01 X15.1568 Y1.2267
G01 X10.4250 Y5.9585
G01 X10.4250 Y6.9700
G01 X10.4244 Y6.9823
G01 X10.4232 Y6.9914
G01 X10.4213 Y7.0004
G01 X10.4177 Y7.0121
G01 X10.4143 Y7.0207
G01 X10.4103 Y7.0289
G01 X10.4040 Y7.0394
G01 X10.3986 Y7.0469
G01 X10.3906 Y7.0562
G01 X10.3840 Y7.0626
G01 X10.3745 Y7.0704
G01 X10.3643 Y7.0772
G01 X10.3562 Y7.0817
G01 X10.3479 Y7.0855
G01 X10.3363 Y7.0896
G01 X10.3274 Y7.0920
G01 X10.3153 Y7.0941
G01 X10.3000 Y7.0950
G01 X8.5970 Y7.0950
G01 X8.5847 Y7.0941
G01 X8.5726 Y7.0920
G01 X8.5608 Y7.0887
G01 X8.5494 Y7.0843
G01 X8.5384 Y7.0788
G01 X8.5280 Y7.0722
G01 X8.5184 Y7.0647
G01 X8.5095 Y7.0562
G01 X8.5015 Y7.0469
G01 X8.4944 Y7.0369
G01 X8.4898 Y7.0289
G01 X8.4845 Y7.0178
G01 X8.4804 Y7.0063
G01 X8.4774 Y6.9944
G01 X8.4756 Y6.9823
G01 X8.4750 Y6.9700
G01 X8.4750 Y5.2700
G01 X8.4754 Y5.2608
G01 X8.4764 Y5.2517
G01 X8.4796 Y5.2367
G01 X8.4845 Y5.2222
G01 X8.4884 Y5.2138
G01 X8.4928 Y5.2057
G01 X8.5015 Y5.1931
G01 X8.5116 Y5.1816
G01 X8.5231 Y5.1715
G01 X8.5358 Y5.1628
G01 X8.5494 Y5.1557
G01 X8.5637 Y5.1504
G01 X8.5787 Y5.1468
G01 X8.5939 Y5.1452
G01 X9.6115 Y5.1450
G01 X14.1748 Y0.5817
G01 X14.1748 Y-9.6417
G01 X7.1991 Y-16.6175
G00 Z2.0000
G00 X7.8360 Y-20.6952
G01 F25.00
G01 Z-0.2799
G01 F120.00
G01 X11.3331 Y-20.6952
G01 X11.3864 Y-20.6925
G01 X11.4362 Y-20.6852
G01 X11.4482 Y-20.6828
G01 X11.4970 Y-20.6705
G01 X11.5444 Y-20.6536
G01 X11.5558 Y-20.6490
G01 X11.6012 Y-20.6273
G01 X11.6496 Y-20.5983
G01 X11.6949 Y-20.5647
G01 X11.7368 Y-20.5267
G01 X18.4568 Y-13.8067
G01 X18.4947 Y-13.7649
G01 X18.5283 Y-13.7196
G01 X18.5573 Y-13.6712
G01 X18.5815 Y-13.6201
G01 X18.6005 Y-13.5670
G01 X18.6142 Y-13.5122
G01 X18.6225 Y-13.4564
G01 X18.6252 Y-13.4000
G01 X18.6252 Y5.1450
G01 X18.9031 Y5.1450
G01 X18.9153 Y5.1459
G01 X18.9304 Y5.1487
G01 X18.9392 Y5.1513
G01 X18.9479 Y5.1545
G01 X18.9562 Y5.1583
G01 X18.9643 Y5.1628
G01 X18.9720 Y5.1678
G01 X18.9793 Y5.1734
G01 X18.9862 Y5.1795
G01 X18.9926 Y5.1861
G01 X18.9986 Y5.1931
G01 X19.0040 Y5.2006
G01 X19.0117 Y5.2138
G01 X19.0155 Y5.2222
G01 X19.0187 Y5.2308
G01 X19.0213 Y5.2396
G01 X19.0232 Y5.2486
G01 X19.0244 Y5.2577
G01 X19.0250 Y5.2700
G01 X19.0249 Y6.9761
G01 X19.0232 Y6.9914
G01 X19.0213 Y7.0004
G01 X19.0187 Y7.0092
G01 X19.0155 Y7.0178
G01 X19.0117 Y7.0262
G01 X19.0072 Y7.0343
G01 X19.0022 Y7.0420
G01 X18.9967 Y7.0493
G01 X18.9906 Y7.0562
G01 X18.9840 Y7.0626
G01 X18.9769 Y7.0685
G01 X18.9643 Y7.0772
G01 X18.9562 Y7.0817
G01 X18.9479 Y7.0855
G01 X18.9363 Y7.0896
G01 X18.9244 Y7.0926
G01 X18.9123 Y7.0944
G01 X18.9000 Y7.0950
G01 X17.1939 Y7.0948
G01 X17.1817 Y7.0936
G01 X17.1697 Y7.0913
G01 X17.1579 Y7.0877
G01 X17.1494 Y7.0843
G01 X17.1411 Y7.0802
G01 X17.1306 Y7.0739
G01 X17.1207 Y7.0666
G01 X17.1116 Y7.0584
G01 X17.1054 Y7.0516
G01 X17.0978 Y7.0420
G01 X17.0913 Y7.0316
G01 X17.0870 Y7.0234
G01 X17.0834 Y7.0150
G01 X17.0796 Y7.0033
G01 X17.0769 Y6.9914
G01 X17.0754 Y6.9792
G01 X17.0750 Y6.9700
G01 X17.0750 Y5.2700
G01 X17.0756 Y5.2577
G01 X17.0781 Y5.2426
G01 X17.0804 Y5.2337
G01 X17.0834 Y5.2250
G01 X17.0898 Y5.2111
G01 X17.0978 Y5.1980
G01 X17.1034 Y5.1907
G01 X17.1095 Y5.1838
G01 X17.1161 Y5.1774
G01 X17.1231 Y5.1715
G01 X17.1358 Y5.1628
G01 X17.1438 Y5.1583
G01 X17.1522 Y5.1545
G01 X17.1608 Y5.1513
G01 X17.1697 Y5.1487
G01 X17.1817 Y5.1464
G01 X17.1970 Y5.1450
G01 X17.4748 Y5.1450
G01 X17.4748 Y-13.1617
G01 X11.0918 Y-19.5448
G01 X7.8360 Y-19.5448
G01 X7.8075 Y-19.5063
G01 X7.8017 Y-19.4991
G01 X7.7416 Y-19.4328
G01 X7.7350 Y-19.4263
G01 X7.6709 Y-19.3683
G01 X7.6637 Y-19.3625
G01 X7.5917 Y-19.3093
G01 X7.5150 Y-19.2632
G01 X7.5069 Y-19.2587
G01 X7.4288 Y-19.2217
G01 X7.4174 Y-19.2170
G01 X7.3331 Y-19.1870
G01 X7.2462 Y-19.1651
G01 X7.2342 Y-19.1627
G01 X7.1456 Y-19.1497
G01 X7.0500 Y-19.1450
G01 X6.9545 Y-19.1497
G01 X6.8659 Y-19.1627
G01 X6.8538 Y-19.1651
G01 X6.7670 Y-19.1870
G01 X6.6826 Y-19.2170
G01 X6.6713 Y-19.2217
G01 X6.5904 Y-19.2601
G01 X6.5083 Y-19.3093
G01 X6.4363 Y-19.3625
G01 X6.4268 Y-19.3703
G01 X6.3606 Y-19.4306
G01 X6.3003 Y-19.4968
G01 X6.2926 Y-19.5063
G01 X6.2411 Y-19.5758
G01 X6.2361 Y-19.5835
G01 X6.1902 Y-19.6604
G01 X6.1492 Y-19.7469
G01 X6.1170 Y-19.8370
G01 X6.0938 Y-19.9298
G01 X6.0797 Y-20.0244
G01 X6.0750 Y-20.1200
G01 X6.0797 Y-20.2156
G01 X6.0938 Y-20.3102
G01 X6.1170 Y-20.4030
G01 X6.1492 Y-20.4931
G01 X6.1902 Y-20.5796
G01 X6.2393 Y-20.6617
G01 X6.2963 Y-20.7385
G01 X6.3606 Y-20.8094
G01 X6.4315 Y-20.8737
G01 X6.5058 Y-20.9289
G01 X6.5135 Y-20.9340
G01 X6.5904 Y-20.9799
G01 X6.6769 Y-21.0208
G01 X6.7670 Y-21.0530
G01 X6.8598 Y-21.0763
G01 X6.9545 Y-21.0903
G01 X7.0500 Y-21.0950
G01 X7.1456 Y-21.0903
G01 X7.2372 Y-21.0768
G01 X7.2462 Y-21.0749
G01 X7.3331 Y-21.0530
G01 X7.4231 Y-21.0208
G01 X7.5096 Y-20.9799
G01 X7.5891 Y-20.9324
G01 X7.5967 Y-20.9272
G01 X7.6686 Y-20.8737
G01 X7.7373 Y-20.8116
G01 X7.7437 Y-20.8050
G01 X7.8017 Y-20.7409
G01 X7.8075 Y-20.7337
G01 X7.8360 Y-20.6952
G00 Z2.0000
G00 X11.4831 Y-20.6763
G01 F25.00
G01 Z-0.2799
G01 F120.00
G01 X11.3867 Y-20.6955
G01 X7.9572 Y-20.6955
G01 X7.9453 Y-20.6961
G01 X7.9336 Y-20.6978
G01 X7.9249 Y-20.6998
G01 X7.8520 Y-20.7211
G01 X7.8378 Y-20.7267
G01 X7.8243 Y-20.7340
G01 X7.8118 Y-20.7429
G01 X7.7911 Y-20.7595
G01 X7.7836 Y-20.7661
G01 X7.6855 Y-20.8641
G01 X7.5613 Y-20.9543
G01 X7.4245 Y-21.0240
G01 X7.2785 Y-21.0715
G01 X7.1268 Y-21.0955
G01 X6.9733 Y-21.0955
G01 X6.8216 Y-21.0715
G01 X6.6756 Y-21.0240
G01 X6.5388 Y-20.9543
G01 X6.4145 Y-20.8641
G01 X6.3060 Y-20.7555
G01 X6.2157 Y-20.6313
G01 X6.1460 Y-20.4945
G01 X6.0985 Y-20.3484
G01 X6.0745 Y-20.1968
G01 X6.0745 Y-20.0432
G01 X6.0985 Y-19.8916
G01 X6.1460 Y-19.7455
G01 X6.2157 Y-19.6087
G01 X6.3060 Y-19.4845
G01 X6.4145 Y-19.3759
G01 X6.5388 Y-19.2857
G01 X6.6756 Y-19.2160
G01 X6.8216 Y-19.1685
G01 X6.9733 Y-19.1445
G01 X7.1268 Y-19.1445
G01 X7.2785 Y-19.1685
G01 X7.4245 Y-19.2160
G01 X7.5613 Y-19.2857
G01 X7.6855 Y-19.3759
G01 X7.7833 Y-19.4736
G01 X7.7923 Y-19.4814
G01 X7.8020 Y-19.4883
G01 X7.8096 Y-19.4929
G01 X7.8710 Y-19.5264
G01 X7.8848 Y-19.5329
G01 X7.8965 Y-19.5368
G01 X7.9084 Y-19.5396
G01 X7.9175 Y-19.5409
G01 X7.9472 Y-19.5441
G01 X7.9572 Y-19.5445
G01 X10.9915 Y-19.5445
G01 X11.0063 Y-19.5432
G01 X11.0180 Y-19.5410
G01 X11.0908 Y-19.5198
G01 X11.0995 Y-19.5168
G01 X11.1080 Y-19.5133
G01 X11.1215 Y-19.5060
G01 X11.1340 Y-19.4971
G01 X11.1572 Y-19.4784
G01 X11.1646 Y-19.4716
G01 X17.4016 Y-13.2346
G01 X17.4115 Y-13.2234
G01 X17.4199 Y-13.2112
G01 X17.4592 Y-13.1393
G01 X17.4629 Y-13.1309
G01 X17.4660 Y-13.1222
G01 X17.4697 Y-13.1073
G01 X17.4710 Y-13.0982
G01 X17.4738 Y-13.0718
G01 X17.4745 Y-13.0585
G01 X17.4745 Y4.8985
G01 X17.4733 Y4.9133
G01 X17.4703 Y4.9279
G01 X17.4498 Y4.9978
G01 X17.4468 Y5.0066
G01 X17.4405 Y5.0207
G01 X17.4324 Y5.0340
G01 X17.4228 Y5.0461
G01 X17.4140 Y5.0549
G01 X17.3589 Y5.1028
G01 X17.3516 Y5.1086
G01 X17.3439 Y5.1139
G01 X17.3358 Y5.1186
G01 X17.3216 Y5.1251
G01 X17.3067 Y5.1297
G01 X17.2463 Y5.1428
G01 X17.2374 Y5.1439
G01 X17.2285 Y5.1445
G01 X17.1877 Y5.1445
G01 X17.1511 Y5.1518
G01 X17.1095 Y5.1795
G01 X17.0818 Y5.2210
G01 X17.0745 Y5.2576
G01 X17.0745 Y6.9824
G01 X17.0818 Y7.0190
G01 X17.1095 Y7.0605
G01 X17.1511 Y7.0882
G01 X17.1877 Y7.0955
G01 X18.9124 Y7.0955
G01 X18.9490 Y7.0882
G01 X18.9905 Y7.0605
G01 X19.0182 Y7.0190
G01 X19.0255 Y6.9824
G01 X19.0255 Y5.2576
G01 X19.0182 Y5.2210
G01 X18.9905 Y5.1795
G01 X18.9490 Y5.1518
G01 X18.9124 Y5.1445
G01 X18.8745 Y5.1445
G01 X18.8656 Y5.1442
G01 X18.8538 Y5.1428
G01 X18.8422 Y5.1402
G01 X18.7723 Y5.1198
G01 X18.7605 Y5.1157
G01 X18.7493 Y5.1104
G01 X18.7412 Y5.1058
G01 X18.7335 Y5.1006
G01 X18.7239 Y5.0927
G01 X18.7130 Y5.0817
G01 X18.6652 Y5.0265
G01 X18.6578 Y5.0165
G01 X18.6500 Y5.0030
G01 X18.6439 Y4.9886
G01 X18.6403 Y4.9766
G01 X18.6278 Y4.9192
G01 X18.6264 Y4.9103
G01 X18.6256 Y4.8985
G01 X18.6255 Y-13.4567
G01 X18.6034 Y-13.5679
G01 X18.5600 Y-13.6726
G01 X18.4970 Y-13.7669
G01 X11.6969 Y-20.5670
G01 X11.6026 Y-20.6300
G01 X11.4979 Y-20.6734
G01 X11.4831 Y-20.6763
G00 Z2.0000
G00 X22.2439 Y-21.0948
G01 F25.00
G01 Z-0.2799
G01 F120.00
G01 X22.2562 Y-21.0948
G01 X22.3456 Y-21.0903
G01 X22.4402 Y-21.0763
G01 X22.5331 Y-21.0530
G01 X22.6231 Y-21.0208
G01 X22.7096 Y-20.9799
G01 X22.7917 Y-20.9307
G01 X22.8686 Y-20.8737
G01 X22.9395 Y-20.8094
G01 X23.0037 Y-20.7385
G01 X23.0607 Y-20.6617
G01 X23.1099 Y-20.5796
G01 X23.1508 Y-20.4931
G01 X23.1830 Y-20.4030
G01 X23.2063 Y-20.3102
G01 X23.2203 Y-20.2156
G01 X23.2250 Y-20.1200
G01 X23.2203 Y-20.0244
G01 X23.2063 Y-19.9298
G01 X23.1830 Y-19.8370
G01 X23.1508 Y-19.7469
G01 X23.1099 Y-19.6604
G01 X23.0607 Y-19.5783
G01 X23.0037 Y-19.5015
G01 X22.9395 Y-19.4306
G01 X22.8686 Y-19.3663
G01 X22.7917 Y-19.3093
G01 X22.7096 Y-19.2601
G01 X22.6231 Y-19.2192
G01 X22.5331 Y-19.1870
G01 X22.4402 Y-19.1637
G01 X22.3456 Y-19.1497
G01 X22.2500 Y-19.1450
G01 X22.1545 Y-19.1497
G01 X22.0598 Y-19.1637
G01 X21.9670 Y-19.1870
G01 X21.8769 Y-19.2192
G01 X21.7904 Y-19.2601
G01 X21.7083 Y-19.3093
G01 X21.6315 Y-19.3663
G01 X21.5606 Y-19.4306
G01 X21.4963 Y-19.5015
G01 X21.4393 Y-19.5783
G01 X21.3902 Y-19.6604
G01 X21.3492 Y-19.7469
G01 X21.3170 Y-19.8370
G01 X21.2938 Y-19.9298
G01 X21.2797 Y-20.0244
G01 X21.2750 Y-20.1200
G01 X21.2797 Y-20.2156
G01 X21.2938 Y-20.3102
G01 X21.3170 Y-20.4030
G01 X21.3492 Y-20.4931
G01 X21.3902 Y-20.5796
G01 X21.4393 Y-20.6617
G01 X21.4963 Y-20.7385
G01 X21.5606 Y-20.8094
G01 X21.6315 Y-20.8737
G01 X21.7083 Y-20.9307
G01 X21.7904 Y-20.9799
G01 X21.8769 Y-21.0208
G01 X21.9670 Y-21.0530
G01 X22.0598 Y-21.0763
G01 X22.1545 Y-21.0903
G01 X22.2439 Y-21.0948
G00 Z2.0000
G00 X22.9941 Y-19.4845
G01 F25.00
G01 Z-0.2799
G01 F120.00
G01 X23.0843 Y-19.6087
G01 X23.1541 Y-19.7455
G01 X23.2015 Y-19.8916
G01 X23.2255 Y-20.0432
G01 X23.2255 Y-20.1968
G01 X23.2015 Y-20.3484
G01 X23.1541 Y-20.4945
G01 X23.0843 Y-20.6313
G01 X22.9941 Y-20.7555
G01 X22.8855 Y-20.8641
G01 X22.7613 Y-20.9543
G01 X22.6245 Y-21.0240
G01 X22.4785 Y-21.0715
G01 X22.3268 Y-21.0955
G01 X22.1733 Y-21.0955
G01 X22.0216 Y-21.0715
G01 X21.8756 Y-21.0240
G01 X21.7388 Y-20.9543
G01 X21.6145 Y-20.8641
G01 X21.5060 Y-20.7555
G01 X21.4157 Y-20.6313
G01 X21.3460 Y-20.4945
G01 X21.2985 Y-20.3484
G01 X21.2745 Y-20.1968
G01 X21.2745 Y-20.0432
G01 X21.2985 Y-19.8916
G01 X21.3460 Y-19.7455
G01 X21.4157 Y-19.6087
G01 X21.5060 Y-19.4845
G01 X21.6145 Y-19.3759
G01 X21.7388 Y-19.2857
G01 X21.8756 Y-19.2160
G01 X22.0216 Y-19.1685
G01 X22.1733 Y-19.1445
G01 X22.3268 Y-19.1445
G01 X22.4785 Y-19.1685
G01 X22.6245 Y-19.2160
G01 X22.7613 Y-19.2857
G01 X22.8855 Y-19.3759
G01 X22.9941 Y-19.4845
G00 Z2.0000
G00 X22.2439 Y-18.5548
G01 F25.00
G01 Z-0.2799
G01 F120.00
G01 X22.2562 Y-18.5548
G01 X22.3456 Y-18.5503
G01 X22.4402 Y-18.5363
G01 X22.5331 Y-18.5130
G01 X22.6231 Y-18.4808
G01 X22.7096 Y-18.4399
G01 X22.7917 Y-18.3907
G01 X22.8686 Y-18.3337
G01 X22.9395 Y-18.2694
G01 X23.0037 Y-18.1985
G01 X23.0607 Y-18.1217
G01 X23.1099 Y-18.0396
G01 X23.1508 Y-17.9531
G01 X23.1830 Y-17.8630
G01 X23.2063 Y-17.7702
G01 X23.2203 Y-17.6756
G01 X23.2250 Y-17.5800
G01 X23.2203 Y-17.4844
G01 X23.2063 Y-17.3898
G01 X23.1830 Y-17.2970
G01 X23.1508 Y-17.2069
G01 X23.1099 Y-17.1204
G01 X23.0607 Y-17.0383
G01 X23.0037 Y-16.9615
G01 X22.9395 Y-16.8906
G01 X22.8686 Y-16.8263
G01 X22.7917 Y-16.7693
G01 X22.7096 Y-16.7201
G01 X22.6231 Y-16.6792
G01 X22.5331 Y-16.6470
G01 X22.4402 Y-16.6237
G01 X22.3456 Y-16.6097
G01 X22.2500 Y-16.6050
G01 X22.1545 Y-16.6097
G01 X22.0598 Y-16.6237
G01 X21.9670 Y-16.6470
G01 X21.8769 Y-16.6792
G01 X21.7904 Y-16.7201
G01 X21.7083 Y-16.7693
G01 X21.6315 Y-16.8263
G01 X21.5606 Y-16.8906
G01 X21.4963 Y-16.9615
G01 X21.4393 Y-17.0383
G01 X21.3902 Y-17.1204
G01 X21.3492 Y-17.2069
G01 X21.3170 Y-17.2970
G01 X21.2938 Y-17.3898
G01 X21.2797 Y-17.4844
G01 X21.2750 Y-17.5800
G01 X21.2797 Y-17.6756
G01 X21.2938 Y-17.7702
G01 X21.3170 Y-17.8630
G01 X21.3492 Y-17.9531
G01 X21.3902 Y-18.0396
G01 X21.4393 Y-18.1217
G01 X21.4963 Y-18.1985
G01 X21.5606 Y-18.2694
G01 X21.6315 Y-18.3337
G01 X21.7083 Y-18.3907
G01 X21.7904 Y-18.4399
G01 X21.8769 Y-18.4808
G01 X21.9670 Y-18.5130
G01 X22.0598 Y-18.5363
G01 X22.1545 Y-18.5503
G01 X22.2439 Y-18.5548
G00 Z2.0000
G00 X22.9941 Y-16.9445
G01 F25.00
G01 Z-0.2799
G01 F120.00
G01 X23.0843 Y-17.0687
G01 X23.1541 Y-17.2055
G01 X23.2015 Y-17.3516
G01 X23.2255 Y-17.5032
G01 X23.2255 Y-17.6568
G01 X23.2015 Y-17.8084
G01 X23.1541 Y-17.9545
G01 X23.0843 Y-18.0913
G01 X22.9941 Y-18.2155
G01 X22.8855 Y-18.3241
G01 X22.7613 Y-18.4143
G01 X22.6245 Y-18.4840
G01 X22.4785 Y-18.5315
G01 X22.3268 Y-18.5555
G01 X22.1733 Y-18.5555
G01 X22.0216 Y-18.5315
G01 X21.8756 Y-18.4840
G01 X21.7388 Y-18.4143
G01 X21.6145 Y-18.3241
G01 X21.5060 Y-18.2155
G01 X21.4157 Y-18.0913
G01 X21.3460 Y-17.9545
G01 X21.2985 Y-17.8084
G01 X21.2745 Y-17.6568
G01 X21.2745 Y-17.5032
G01 X21.2985 Y-17.3516
G01 X21.3460 Y-17.2055
G01 X21.4157 Y-17.0687
G01 X21.5060 Y-16.9445
G01 X21.6145 Y-16.8359
G01 X21.7388 Y-16.7457
G01 X21.8756 Y-16.6760
G01 X22.0216 Y-16.6285
G01 X22.1733 Y-16.6045
G01 X22.3268 Y-16.6045
G01 X22.4785 Y-16.6285
G01 X22.6245 Y-16.6760
G01 X22.7613 Y-16.7457
G01 X22.8855 Y-16.8359
G01 X22.9941 Y-16.9445
G00 Z2.0000
G00 X22.2439 Y-16.0148
G01 F25.00
G01 Z-0.2799
G01 F120.00
G01 X22.2562 Y-16.0148
G01 X22.3456 Y-16.0103
G01 X22.4402 Y-15.9963
G01 X22.5331 Y-15.9730
G01 X22.6231 Y-15.9408
G01 X22.7096 Y-15.8999
G01 X22.7917 Y-15.8507
G01 X22.8686 Y-15.7937
G01 X22.9395 Y-15.7294
G01 X23.0037 Y-15.6585
G01 X23.0607 Y-15.5817
G01 X23.1099 Y-15.4996
G01 X23.1508 Y-15.4131
G01 X23.1830 Y-15.3230
G01 X23.2063 Y-15.2302
G01 X23.2203 Y-15.1356
G01 X23.2250 Y-15.0400
G01 X23.2203 Y-14.9444
G01 X23.2063 Y-14.8498
G01 X23.1830 Y-14.7570
G01 X23.1508 Y-14.6669
G01 X23.1099 Y-14.5804
G01 X23.0607 Y-14.4983
G01 X23.0037 Y-14.4215
G01 X22.9395 Y-14.3506
G01 X22.8686 Y-14.2863
G01 X22.7917 Y-14.2293
G01 X22.7096 Y-14.1801
G01 X22.6231 Y-14.1392
G01 X22.5331 Y-14.1070
G01 X22.4402 Y-14.0837
G01 X22.3456 Y-14.0697
G01 X22.2500 Y-14.0650
G01 X22.1545 Y-14.0697
G01 X22.0598 Y-14.0837
G01 X21.9670 Y-14.1070
G01 X21.8769 Y-14.1392
G01 X21.7904 Y-14.1801
G01 X21.7083 Y-14.2293
G01 X21.6315 Y-14.2863
G01 X21.5606 Y-14.3506
G01 X21.4963 Y-14.4215
G01 X21.4393 Y-14.4983
G01 X21.3902 Y-14.5804
G01 X21.3492 Y-14.6669
G01 X21.3170 Y-14.7570
G01 X21.2938 Y-14.8498
G01 X21.2797 Y-14.9444
G01 X21.2750 Y-15.0400
G01 X21.2797 Y-15.1356
G01 X21.2938 Y-15.2302
G01 X21.3170 Y-15.3230
G01 X21.3492 Y-15.4131
G01 X21.3902 Y-15.4996
G01 X21.4393 Y-15.5817
G01 X21.4963 Y-15.6585
G01 X21.5606 Y-15.7294
G01 X21.6315 Y-15.7937
G01 X21.7083 Y-15.8507
G01 X21.7904 Y-15.8999
G01 X21.8769 Y-15.9408
G01 X21.9670 Y-15.9730
G01 X22.0598 Y-15.9963
G01 X22.1545 Y-16.0103
G01 X22.2439 Y-16.0148
G00 Z2.0000
G00 X22.9941 Y-14.4045
G01 F25.00
G01 Z-0.2799
G01 F120.00
G01 X23.0843 Y-14.5287
G01 X23.1541 Y-14.6655
G01 X23.2015 Y-14.8116
G01 X23.2255 Y-14.9632
G01 X23.2255 Y-15.1168
G01 X23.2015 Y-15.2684
G01 X23.1541 Y-15.4145
G01 X23.0843 Y-15.5513
G01 X22.9941 Y-15.6755
G01 X22.8855 Y-15.7841
G01 X22.7613 Y-15.8743
G01 X22.6245 Y-15.9440
G01 X22.4785 Y-15.9915
G01 X22.3268 Y-16.0155
G01 X22.1733 Y-16.0155
G01 X22.0216 Y-15.9915
G01 X21.8756 Y-15.9440
G01 X21.7388 Y-15.8743
G01 X21.6145 Y-15.7841
G01 X21.5060 Y-15.6755
G01 X21.4157 Y-15.5513
G01 X21.3460 Y-15.4145
G01 X21.2985 Y-15.2684
G01 X21.2745 Y-15.1168
G01 X21.2745 Y-14.9632
G01 X21.2985 Y-14.8116
G01 X21.3460 Y-14.6655
G01 X21.4157 Y-14.5287
G01 X21.5060 Y-14.4045
G01 X21.6145 Y-14.2959
G01 X21.7388 Y-14.2057
G01 X21.8756 Y-14.1360
G01 X22.0216 Y-14.0885
G01 X22.1733 Y-14.0645
G01 X22.3268 Y-14.0645
G01 X22.4785 Y-14.0885
G01 X22.6245 Y-14.1360
G01 X22.7613 Y-14.2057
G01 X22.8855 Y-14.2959
G01 X22.9941 Y-14.4045
G00 Z2.0000
G00 X22.2439 Y-13.4748
G01 F25.00
G01 Z-0.2799
G01 F120.00
G01 X22.2562 Y-13.4748
G01 X22.3456 Y-13.4703
G01 X22.4402 Y-13.4563
G01 X22.5331 Y-13.4330
G01 X22.6231 Y-13.4008
G01 X22.7096 Y-13.3599
G01 X22.7917 Y-13.3107
G01 X22.8686 Y-13.2537
G01 X22.9395 Y-13.1894
G01 X23.0037 Y-13.1185
G01 X23.0607 Y-13.0417
G01 X23.1099 Y-12.9596
G01 X23.1508 Y-12.8731
G01 X23.1830 Y-12.7830
G01 X23.2063 Y-12.6902
G01 X23.2203 Y-12.5956
G01 X23.2250 Y-12.5000
G01 X23.2203 Y-12.4044
G01 X23.2063 Y-12.3098
G01 X23.1830 Y-12.2170
G01 X23.1508 Y-12.1269
G01 X23.1099 Y-12.0404
G01 X23.0607 Y-11.9583
G01 X23.0037 Y-11.8815
G01 X22.9395 Y-11.8106
G01 X22.8686 Y-11.7463
G01 X22.7917 Y-11.6893
G01 X22.7096 Y-11.6401
G01 X22.6231 Y-11.5992
G01 X22.5331 Y-11.5670
G01 X22.4402 Y-11.5437
G01 X22.3456 Y-11.5297
G01 X22.2500 Y-11.5250
G01 X22.1545 Y-11.5297
G01 X22.0598 Y-11.5437
G01 X21.9670 Y-11.5670
G01 X21.8769 Y-11.5992
G01 X21.7904 Y-11.6401
G01 X21.7083 Y-11.6893
G01 X21.6315 Y-11.7463
G01 X21.5606 Y-11.8106
G01 X21.4963 Y-11.8815
G01 X21.4393 Y-11.9583
G01 X21.3902 Y-12.0404
G01 X21.3492 Y-12.1269
G01 X21.3170 Y-12.2170
G01 X21.2938 Y-12.3098
G01 X21.2797 Y-12.4044
G01 X21.2750 Y-12.5000
G01 X21.2797 Y-12.5956
G01 X21.2938 Y-12.6902
G01 X21.3170 Y-12.7830
G01 X21.3492 Y-12.8731
G01 X21.3902 Y-12.9596
G01 X21.4393 Y-13.0417
G01 X21.4963 Y-13.1185
G01 X21.5606 Y-13.1894
G01 X21.6315 Y-13.2537
G01 X21.7083 Y-13.3107
G01 X21.7904 Y-13.3599
G01 X21.8769 Y-13.4008
G01 X21.9670 Y-13.4330
G01 X22.0598 Y-13.4563
G01 X22.1545 Y-13.4703
G01 X22.2439 Y-13.4748
G00 Z2.0000
G00 X22.9941 Y-11.8645
G01 F25.00
G01 Z-0.2799
G01 F120.00
G01 X23.0843 Y-11.9887
G01 X23.1541 Y-12.1255
G01 X23.2015 Y-12.2716
G01 X23.2255 Y-12.4232
G01 X23.2255 Y-12.5768
G01 X23.2015 Y-12.7284
G01 X23.1541 Y-12.8745
G01 X23.0843 Y-13.0113
G01 X22.9941 Y-13.1355
G01 X22.8855 Y-13.2441
G01 X22.7613 Y-13.3343
G01 X22.6245 Y-13.4040
G01 X22.4785 Y-13.4515
G01 X22.3268 Y-13.4755
G01 X22.1733 Y-13.4755
G01 X22.0216 Y-13.4515
G01 X21.8756 Y-13.4040
G01 X21.7388 Y-13.3343
G01 X21.6145 Y-13.2441
G01 X21.5060 Y-13.1355
G01 X21.4157 Y-13.0113
G01 X21.3460 Y-12.8745
G01 X21.2985 Y-12.7284
G01 X21.2745 Y-12.5768
G01 X21.2745 Y-12.4232
G01 X21.2985 Y-12.2716
G01 X21.3460 Y-12.1255
G01 X21.4157 Y-11.9887
G01 X21.5060 Y-11.8645
G01 X21.6145 Y-11.7559
G01 X21.7388 Y-11.6657
G01 X21.8756 Y-11.5960
G01 X22.0216 Y-11.5485
G01 X22.1733 Y-11.5245
G01 X22.3268 Y-11.5245
G01 X22.4785 Y-11.5485
G01 X22.6245 Y-11.5960
G01 X22.7613 Y-11.6657
G01 X22.8855 Y-11.7559
G01 X22.9941 Y-11.8645
G00 Z2.0000
G00 X22.2439 Y-10.9348
G01 F25.00
G01 Z-0.2799
G01 F120.00
G01 X22.2562 Y-10.9348
G01 X22.3456 Y-10.9303
G01 X22.4402 Y-10.9163
G01 X22.5331 Y-10.8930
G01 X22.6231 Y-10.8608
G01 X22.7096 Y-10.8199
G01 X22.7917 Y-10.7707
G01 X22.8686 Y-10.7137
G01 X22.9395 Y-10.6494
G01 X23.0037 Y-10.5785
G01 X23.0607 Y-10.5017
G01 X23.1099 Y-10.4196
G01 X23.1508 Y-10.3331
G01 X23.1830 Y-10.2430
G01 X23.2063 Y-10.1502
G01 X23.2203 Y-10.0556
G01 X23.2250 Y-9.9600
G01 X23.2203 Y-9.8644
G01 X23.2063 Y-9.7698
G01 X23.1830 Y-9.6770
G01 X23.1508 Y-9.5869
G01 X23.1099 Y-9.5004
G01 X23.0607 Y-9.4183
G01 X23.0037 Y-9.3415
G01 X22.9395 Y-9.2706
G01 X22.8686 Y-9.2063
G01 X22.7917 Y-9.1493
G01 X22.7096 Y-9.1001
G01 X22.6231 Y-9.0592
G01 X22.5331 Y-9.0270
G01 X22.4402 Y-9.0037
G01 X22.3456 Y-8.9897
G01 X22.2500 Y-8.9850
G01 X22.1545 Y-8.9897
G01 X22.0598 Y-9.0037
G01 X21.9670 Y-9.0270
G01 X21.8769 Y-9.0592
G01 X21.7904 Y-9.1001
G01 X21.7083 Y-9.1493
G01 X21.6315 Y-9.2063
G01 X21.5606 Y-9.2706
G01 X21.4963 Y-9.3415
G01 X21.4393 Y-9.4183
G01 X21.3902 Y-9.5004
G01 X21.3492 Y-9.5869
G01 X21.3170 Y-9.6770
G01 X21.2938 Y-9.7698
G01 X21.2797 Y-9.8644
G01 X21.2750 Y-9.9600
G01 X21.2797 Y-10.0556
G01 X21.2938 Y-10.1502
G01 X21.3170 Y-10.2430
G01 X21.3492 Y-10.3331
G01 X21.3902 Y-10.4196
G01 X21.4393 Y-10.5017
G01 X21.4963 Y-10.5785
G01 X21.5606 Y-10.6494
G01 X21.6315 Y-10.7137
G01 X21.7083 Y-10.7707
G01 X21.7904 Y-10.8199
G01 X21.8769 Y-10.8608
G01 X21.9670 Y-10.8930
G01 X22.0598 Y-10.9163
G01 X22.1545 Y-10.9303
G01 X22.2439 Y-10.9348
G00 Z2.0000
G00 X22.9941 Y-9.3245
G01 F25.00
G01 Z-0.2799
G01 F120.00
G01 X23.0843 Y-9.4487
G01 X23.1541 Y-9.5855
G01 X23.2015 Y-9.7316
G01 X23.2255 Y-9.8832
G01 X23.2255 Y-10.0368
G01 X23.2015 Y-10.1884
G01 X23.1541 Y-10.3345
G01 X23.0843 Y-10.4713
G01 X22.9941 Y-10.5955
G01 X22.8855 Y-10.7041
G01 X22.7613 Y-10.7943
G01 X22.6245 Y-10.8640
G01 X22.4785 Y-10.9115
G01 X22.3268 Y-10.9355
G01 X22.1733 Y-10.9355
G01 X22.0216 Y-10.9115
G01 X21.8756 Y-10.8640
G01 X21.7388 Y-10.7943
G01 X21.6145 Y-10.7041
G01 X21.5060 Y-10.5955
G01 X21.4157 Y-10.4713
G01 X21.3460 Y-10.3345
G01 X21.2985 Y-10.1884
G01 X21.2745 Y-10.0368
G01 X21.2745 Y-9.8832
G01 X21.2985 Y-9.7316
G01 X21.3460 Y-9.5855
G01 X21.4157 Y-9.4487
G01 X21.5060 Y-9.3245
G01 X21.6145 Y-9.2159
G01 X21.7388 Y-9.1257
G01 X21.8756 Y-9.0560
G01 X22.0216 Y-9.0085
G01 X22.1733 Y-8.9845
G01 X22.3268 Y-8.9845
G01 X22.4785 Y-9.0085
G01 X22.6245 Y-9.0560
G01 X22.7613 Y-9.1257
G01 X22.8855 Y-9.2159
G01 X22.9941 Y-9.3245
G00 Z2.0000
G00 X22.2439 Y-8.3948
G01 F25.00
G01 Z-0.2799
G01 F120.00
G01 X22.2562 Y-8.3948
G01 X22.3456 Y-8.3903
G01 X22.4402 Y-8.3763
G01 X22.5331 Y-8.3530
G01 X22.6231 Y-8.3208
G01 X22.7096 Y-8.2799
G01 X22.7917 Y-8.2307
G01 X22.8686 Y-8.1737
G01 X22.9395 Y-8.1094
G01 X23.0037 Y-8.0385
G01 X23.0607 Y-7.9617
G01 X23.1099 Y-7.8796
G01 X23.1508 Y-7.7931
G01 X23.1830 Y-7.7030
G01 X23.2063 Y-7.6102
G01 X23.2203 Y-7.5156
G01 X23.2250 Y-7.4200
G01 X23.2203 Y-7.3244
G01 X23.2063 Y-7.2298
G01 X23.1830 Y-7.1370
G01 X23.1508 Y-7.0469
G01 X23.1099 Y-6.9604
G01 X23.0607 Y-6.8783
G01 X23.0037 Y-6.8015
G01 X22.9395 Y-6.7306
G01 X22.8686 Y-6.6663
G01 X22.7917 Y-6.6093
G01 X22.7096 Y-6.5601
G01 X22.6231 Y-6.5192
G01 X22.5331 Y-6.4870
G01 X22.4402 Y-6.4637
G01 X22.3456 Y-6.4497
G01 X22.2500 Y-6.4450
G01 X22.1545 Y-6.4497
G01 X22.0598 Y-6.4637
G01 X21.9670 Y-6.4870
G01 X21.8769 Y-6.5192
G01 X21.7904 Y-6.5601
G01 X21.7083 Y-6.6093
G01 X21.6315 Y-6.6663
G01 X21.5606 Y-6.7306
G01 X21.4963 Y-6.8015
G01 X21.4393 Y-6.8783
G01 X21.3902 Y-6.9604
G01 X21.3492 Y-7.0469
G01 X21.3170 Y-7.1370
G01 X21.2938 Y-7.2298
G01 X21.2797 Y-7.3244
G01 X21.2750 Y-7.4200
G01 X21.2797 Y-7.5156
G01 X21.2938 Y-7.6102
G01 X21.3170 Y-7.7030
G01 X21.3492 Y-7.7931
G01 X21.3902 Y-7.8796
G01 X21.4393 Y-7.9617
G01 X21.4963 Y-8.0385
G01 X21.5606 Y-8.1094
G01 X21.6315 Y-8.1737
G01 X21.7083 Y-8.2307
G01 X21.7904 Y-8.2799
G01 X21.8769 Y-8.3208
G01 X21.9670 Y-8.3530
G01 X22.0598 Y-8.3763
G01 X22.1545 Y-8.3903
G01 X22.2439 Y-8.3948
G00 Z2.0000
G00 X22.9941 Y-6.7845
G01 F25.00
G01 Z-0.2799
G01 F120.00
G01 X23.0843 Y-6.9087
G01 X23.1541 Y-7.0455
G01 X23.2015 Y-7.1916
G01 X23.2255 Y-7.3432
G01 X23.2255 Y-7.4968
G01 X23.2015 Y-7.6484
G01 X23.1541 Y-7.7945
G01 X23.0843 Y-7.9313
G01 X22.9941 Y-8.0555
G01 X22.8855 Y-8.1641
G01 X22.7613 Y-8.2543
G01 X22.6245 Y-8.3240
G01 X22.4785 Y-8.3715
G01 X22.3268 Y-8.3955
G01 X22.1733 Y-8.3955
G01 X22.0216 Y-8.3715
G01 X21.8756 Y-8.3240
G01 X21.7388 Y-8.2543
G01 X21.6145 Y-8.1641
G01 X21.5060 Y-8.0555
G01 X21.4157 Y-7.9313
G01 X21.3460 Y-7.7945
G01 X21.2985 Y-7.6484
G01 X21.2745 Y-7.4968
G01 X21.2745 Y-7.3432
G01 X21.2985 Y-7.1916
G01 X21.3460 Y-7.0455
G01 X21.4157 Y-6.9087
G01 X21.5060 Y-6.7845
G01 X21.6145 Y-6.6759
G01 X21.7388 Y-6.5857
G01 X21.8756 Y-6.5160
G01 X22.0216 Y-6.4685
G01 X22.1733 Y-6.4445
G01 X22.3268 Y-6.4445
G01 X22.4785 Y-6.4685
G01 X22.6245 Y-6.5160
G01 X22.7613 Y-6.5857
G01 X22.8855 Y-6.6759
G01 X22.9941 Y-6.7845
G00 Z2.0000
G00 X22.2439 Y-5.8548
G01 F25.00
G01 Z-0.2799
G01 F120.00
G01 X22.2562 Y-5.8548
G01 X22.3456 Y-5.8503
G01 X22.4402 Y-5.8363
G01 X22.5331 Y-5.8130
G01 X22.6231 Y-5.7808
G01 X22.7096 Y-5.7399
G01 X22.7917 Y-5.6907
G01 X22.8686 Y-5.6337
G01 X22.9395 Y-5.5694
G01 X23.0037 Y-5.4985
G01 X23.0607 Y-5.4217
G01 X23.1099 Y-5.3396
G01 X23.1508 Y-5.2531
G01 X23.1830 Y-5.1630
G01 X23.2063 Y-5.0702
G01 X23.2203 Y-4.9756
G01 X23.2250 Y-4.8800
G01 X23.2203 Y-4.7844
G01 X23.2063 Y-4.6898
G01 X23.1830 Y-4.5970
G01 X23.1508 Y-4.5069
G01 X23.1099 Y-4.4204
G01 X23.0607 Y-4.3383
G01 X23.0037 Y-4.2615
G01 X22.9395 Y-4.1906
G01 X22.8686 Y-4.1263
G01 X22.7917 Y-4.0693
G01 X22.7096 Y-4.0201
G01 X22.6231 Y-3.9792
G01 X22.5331 Y-3.9470
G01 X22.4402 Y-3.9237
G01 X22.3456 Y-3.9097
G01 X22.2500 Y-3.9050
G01 X22.1545 Y-3.9097
G01 X22.0598 Y-3.9237
G01 X21.9670 Y-3.9470
G01 X21.8769 Y-3.9792
G01 X21.7904 Y-4.0201
G01 X21.7083 Y-4.0693
G01 X21.6315 Y-4.1263
G01 X21.5606 Y-4.1906
G01 X21.4963 Y-4.2615
G01 X21.4393 Y-4.3383
G01 X21.3902 Y-4.4204
G01 X21.3492 Y-4.5069
G01 X21.3170 Y-4.5970
G01 X21.2938 Y-4.6898
G01 X21.2797 Y-4.7844
G01 X21.2750 Y-4.8800
G01 X21.2797 Y-4.9756
G01 X21.2938 Y-5.0702
G01 X21.3170 Y-5.1630
G01 X21.3492 Y-5.2531
G01 X21.3902 Y-5.3396
G01 X21.4393 Y-5.4217
G01 X21.4963 Y-5.4985
G01 X21.5606 Y-5.5694
G01 X21.6315 Y-5.6337
G01 X21.7083 Y-5.6907
G01 X21.7904 Y-5.7399
G01 X21.8769 Y-5.7808
G01 X21.9670 Y-5.8130
G01 X22.0598 Y-5.8363
G01 X22.1545 Y-5.8503
G01 X22.2439 Y-5.8548
G00 Z2.0000
G00 X22.9941 Y-4.2445
G01 F25.00
G01 Z-0.2799
G01 F120.00
G01 X23.0843 Y-4.3687
G01 X23.1541 Y-4.5055
G01 X23.2015 Y-4.6516
G01 X23.2255 Y-4.8032
G01 X23.2255 Y-4.9568
G01 X23.2015 Y-5.1084
G01 X23.1541 Y-5.2545
G01 X23.0843 Y-5.3913
G01 X22.9941 Y-5.5155
G01 X22.8855 Y-5.6241
G01 X22.7613 Y-5.7143
G01 X22.6245 Y-5.7840
G01 X22.4785 Y-5.8315
G01 X22.3268 Y-5.8555
G01 X22.1733 Y-5.8555
G01 X22.0216 Y-5.8315
G01 X21.8756 Y-5.7840
G01 X21.7388 Y-5.7143
G01 X21.6145 Y-5.6241
G01 X21.5060 Y-5.5155
G01 X21.4157 Y-5.3913
G01 X21.3460 Y-5.2545
G01 X21.2985 Y-5.1084
G01 X21.2745 Y-4.9568
G01 X21.2745 Y-4.8032
G01 X21.2985 Y-4.6516
G01 X21.3460 Y-4.5055
G01 X21.4157 Y-4.3687
G01 X21.5060 Y-4.2445
G01 X21.6145 Y-4.1359
G01 X21.7388 Y-4.0457
G01 X21.8756 Y-3.9760
G01 X22.0216 Y-3.9285
G01 X22.1733 Y-3.9045
G01 X22.3268 Y-3.9045
G01 X22.4785 Y-3.9285
G01 X22.6245 Y-3.9760
G01 X22.7613 Y-4.0457
G01 X22.8855 Y-4.1359
G01 X22.9941 Y-4.2445
G00 Z2.0000
G00 X23.0360 Y-2.9152
G01 F25.00
G01 Z-0.2799
G01 F120.00
G01 X28.7131 Y-2.9152
G01 X28.7664 Y-2.9125
G01 X28.8162 Y-2.9052
G01 X28.8282 Y-2.9028
G01 X28.8711 Y-2.8921
G01 X28.8828 Y-2.8885
G01 X28.9302 Y-2.8714
G01 X28.9812 Y-2.8473
G01 X29.0296 Y-2.8183
G01 X29.0701 Y-2.7884
G01 X29.0796 Y-2.7806
G01 X29.1168 Y-2.7467
G01 X35.6568 Y3.7933
G01 X35.6947 Y3.8351
G01 X35.7248 Y3.8754
G01 X35.7316 Y3.8856
G01 X35.7573 Y3.9288
G01 X35.7790 Y3.9743
G01 X35.7837 Y3.9856
G01 X35.8005 Y4.0330
G01 X35.8129 Y4.0818
G01 X35.8152 Y4.0938
G01 X35.8217 Y4.1375
G01 X35.8227 Y4.1467
G01 X35.8252 Y4.2000
G01 X35.8252 Y5.0450
G01 X36.1031 Y5.0450
G01 X36.1184 Y5.0464
G01 X36.1334 Y5.0495
G01 X36.1421 Y5.0523
G01 X36.1507 Y5.0557
G01 X36.1589 Y5.0598
G01 X36.1669 Y5.0644
G01 X36.1745 Y5.0696
G01 X36.1817 Y5.0753
G01 X36.1884 Y5.0816
G01 X36.1947 Y5.0884
G01 X36.2004 Y5.0955
G01 X36.2056 Y5.1031
G01 X36.2103 Y5.1111
G01 X36.2143 Y5.1193
G01 X36.2177 Y5.1279
G01 X36.2205 Y5.1367
G01 X36.2237 Y5.1517
G01 X36.2247 Y5.1608
G01 X36.2250 Y5.1700
G01 X36.2250 Y6.8731
G01 X36.2244 Y6.8823
G01 X36.2232 Y6.8914
G01 X36.2213 Y6.9004
G01 X36.2187 Y6.9092
G01 X36.2155 Y6.9178
G01 X36.2117 Y6.9262
G01 X36.2056 Y6.9369
G01 X36.2004 Y6.9445
G01 X36.1926 Y6.9539
G01 X36.1817 Y6.9647
G01 X36.1695 Y6.9739
G01 X36.1562 Y6.9817
G01 X36.1421 Y6.9877
G01 X36.1274 Y6.9920
G01 X36.1153 Y6.9941
G01 X36.1000 Y6.9950
G01 X34.3970 Y6.9950
G01 X34.3847 Y6.9941
G01 X34.3697 Y6.9913
G01 X34.3579 Y6.9877
G01 X34.3466 Y6.9830
G01 X34.3358 Y6.9772
G01 X34.3256 Y6.9704
G01 X34.3161 Y6.9626
G01 X34.3074 Y6.9539
G01 X34.2996 Y6.9445
G01 X34.2928 Y6.9343
G01 X34.2870 Y6.9234
G01 X34.2834 Y6.9150
G01 X34.2804 Y6.9063
G01 X34.2774 Y6.8944
G01 X34.2760 Y6.8853
G01 X34.2751 Y6.8731
G01 X34.2750 Y5.1700
G01 X34.2754 Y5.1608
G01 X34.2764 Y5.1517
G01 X34.2781 Y5.1426
G01 X34.2804 Y5.1337
G01 X34.2834 Y5.1250
G01 X34.2870 Y5.1166
G01 X34.2913 Y5.1084
G01 X34.2961 Y5.1006
G01 X34.3015 Y5.0931
G01 X34.3074 Y5.0861
G01 X34.3138 Y5.0795
G01 X34.3207 Y5.0734
G01 X34.3280 Y5.0678
G01 X34.3358 Y5.0628
G01 X34.3438 Y5.0583
G01 X34.3522 Y5.0545
G01 X34.3667 Y5.0495
G01 X34.3817 Y5.0464
G01 X34.3970 Y5.0450
G01 X34.6748 Y5.0450
G01 X34.6748 Y4.4383
G01 X28.4718 Y-1.7648
G01 X23.0360 Y-1.7648
G01 X23.0075 Y-1.7263
G01 X23.0017 Y-1.7191
G01 X22.9416 Y-1.6528
G01 X22.9350 Y-1.6463
G01 X22.8709 Y-1.5883
G01 X22.8637 Y-1.5825
G01 X22.7917 Y-1.5293
G01 X22.7150 Y-1.4832
G01 X22.7069 Y-1.4787
G01 X22.6288 Y-1.4417
G01 X22.6174 Y-1.4370
G01 X22.5331 Y-1.4070
G01 X22.4462 Y-1.3851
G01 X22.4342 Y-1.3827
G01 X22.3456 Y-1.3697
G01 X22.2500 Y-1.3650
G01 X22.1545 Y-1.3697
G01 X22.0659 Y-1.3827
G01 X22.0538 Y-1.3851
G01 X21.9670 Y-1.4070
G01 X21.8826 Y-1.4370
G01 X21.8713 Y-1.4417
G01 X21.7904 Y-1.4801
G01 X21.7083 Y-1.5293
G01 X21.6363 Y-1.5825
G01 X21.6268 Y-1.5903
G01 X21.5606 Y-1.6506
G01 X21.5003 Y-1.7168
G01 X21.4926 Y-1.7263
G01 X21.4411 Y-1.7958
G01 X21.4361 Y-1.8035
G01 X21.3902 Y-1.8804
G01 X21.3492 Y-1.9669
G01 X21.3170 Y-2.0570
G01 X21.2938 Y-2.1498
G01 X21.2797 Y-2.2444
G01 X21.2750 Y-2.3400
G01 X21.2797 Y-2.4356
G01 X21.2938 Y-2.5302
G01 X21.3170 Y-2.6230
G01 X21.3492 Y-2.7131
G01 X21.3902 Y-2.7996
G01 X21.4393 Y-2.8817
G01 X21.4963 Y-2.9585
G01 X21.5606 Y-3.0294
G01 X21.6315 Y-3.0937
G01 X21.7058 Y-3.1489
G01 X21.7135 Y-3.1540
G01 X21.7904 Y-3.1999
G01 X21.8769 Y-3.2408
G01 X21.9670 Y-3.2730
G01 X22.0598 Y-3.2963
G01 X22.1545 Y-3.3103
G01 X22.2500 Y-3.3150
G01 X22.3456 Y-3.3103
G01 X22.4372 Y-3.2968
G01 X22.4462 Y-3.2949
G01 X22.5331 Y-3.2730
G01 X22.6231 Y-3.2408
G01 X22.7096 Y-3.1999
G01 X22.7891 Y-3.1524
G01 X22.7967 Y-3.1472
G01 X22.8686 Y-3.0937
G01 X22.9373 Y-3.0316
G01 X22.9437 Y-3.0250
G01 X23.0017 Y-2.9609
G01 X23.0075 Y-2.9537
G01 X23.0360 Y-2.9152
G00 Z2.0000
G00 X21.2745 Y1.0624
G01 F25.00
G01 Z-0.2799
G01 F120.00
G01 X21.2818 Y1.0990
G01 X21.3095 Y1.1405
G01 X21.3511 Y1.1682
G01 X21.3877 Y1.1755
G01 X23.1124 Y1.1755
G01 X23.1490 Y1.1682
G01 X23.1905 Y1.1405
G01 X23.2182 Y1.0990
G01 X23.2255 Y1.0624
G01 X23.2255 Y1.0245
G01 X23.2258 Y1.0156
G01 X23.2273 Y1.0038
G01 X23.2298 Y0.9921
G01 X23.2503 Y0.9222
G01 X23.2544 Y0.9105
G01 X23.2596 Y0.8993
G01 X23.2642 Y0.8912
G01 X23.2694 Y0.8835
G01 X23.2752 Y0.8762
G01 X23.2860 Y0.8651
G01 X23.3412 Y0.8172
G01 X23.3510 Y0.8095
G01 X23.3615 Y0.8029
G01 X23.3756 Y0.7961
G01 X23.3904 Y0.7910
G01 X23.4538 Y0.7772
G01 X23.4626 Y0.7761
G01 X23.4745 Y0.7755
G01 X24.8145 Y0.7756
G01 X24.8263 Y0.7768
G01 X24.8409 Y0.7798
G01 X24.9108 Y0.8002
G01 X24.9252 Y0.8055
G01 X24.9388 Y0.8124
G01 X24.9491 Y0.8191
G01 X24.9746 Y0.8395
G01 X24.9822 Y0.8461
G01 X26.0037 Y1.8676
G01 X26.0115 Y1.8766
G01 X26.0199 Y1.8888
G01 X26.0578 Y1.9580
G01 X26.0629 Y1.9691
G01 X26.0669 Y1.9807
G01 X26.0697 Y1.9927
G01 X26.0710 Y2.0018
G01 X26.0741 Y2.0315
G01 X26.0745 Y2.0415
G01 X26.0745 Y4.7955
G01 X26.0742 Y4.8044
G01 X26.0728 Y4.8162
G01 X26.0703 Y4.8279
G01 X26.0498 Y4.8978
G01 X26.0457 Y4.9095
G01 X26.0390 Y4.9235
G01 X26.0306 Y4.9365
G01 X26.0207 Y4.9484
G01 X26.0117 Y4.9570
G01 X25.9589 Y5.0028
G01 X25.9516 Y5.0086
G01 X25.9439 Y5.0139
G01 X25.9358 Y5.0186
G01 X25.9273 Y5.0227
G01 X25.9186 Y5.0262
G01 X25.9036 Y5.0304
G01 X25.8521 Y5.0416
G01 X25.8433 Y5.0432
G01 X25.8285 Y5.0445
G01 X25.7877 Y5.0445
G01 X25.7511 Y5.0518
G01 X25.7095 Y5.0795
G01 X25.6818 Y5.1210
G01 X25.6745 Y5.1576
G01 X25.6745 Y6.8824
G01 X25.6818 Y6.9190
G01 X25.7095 Y6.9605
G01 X25.7511 Y6.9882
G01 X25.7877 Y6.9955
G01 X27.5124 Y6.9955
G01 X27.5490 Y6.9882
G01 X27.5905 Y6.9605
G01 X27.6182 Y6.9190
G01 X27.6255 Y6.8824
G01 X27.6255 Y5.1576
G01 X27.6182 Y5.1210
G01 X27.5905 Y5.0795
G01 X27.5490 Y5.0518
G01 X27.5124 Y5.0445
G01 X27.4745 Y5.0445
G01 X27.4656 Y5.0442
G01 X27.4538 Y5.0428
G01 X27.4422 Y5.0402
G01 X27.3723 Y5.0198
G01 X27.3605 Y5.0157
G01 X27.3521 Y5.0119
G01 X27.3412 Y5.0058
G01 X27.3310 Y4.9987
G01 X27.3239 Y4.9927
G01 X27.3130 Y4.9817
G01 X27.2652 Y4.9265
G01 X27.2578 Y4.9165
G01 X27.2514 Y4.9057
G01 X27.2449 Y4.8915
G01 X27.2403 Y4.8766
G01 X27.2278 Y4.8192
G01 X27.2258 Y4.8044
G01 X27.2255 Y4.7955
G01 X27.2255 Y1.6433
G01 X27.2034 Y1.5321
G01 X27.1600 Y1.4274
G01 X27.0970 Y1.3331
G01 X25.5169 Y-0.2470
G01 X25.4226 Y-0.3100
G01 X25.3179 Y-0.3534
G01 X25.2067 Y-0.3755
G01 X23.4745 Y-0.3755
G01 X23.4597 Y-0.3764
G01 X23.4480 Y-0.3784
G01 X23.4393 Y-0.3806
G01 X23.3664 Y-0.4021
G01 X23.3521 Y-0.4081
G01 X23.3412 Y-0.4142
G01 X23.3286 Y-0.4232
G01 X23.3172 Y-0.4337
G01 X23.2673 Y-0.4911
G01 X23.2578 Y-0.5035
G01 X23.2500 Y-0.5170
G01 X23.2449 Y-0.5285
G01 X23.2403 Y-0.5434
G01 X23.2284 Y-0.5979
G01 X23.2268 Y-0.6067
G01 X23.2256 Y-0.6215
G01 X23.2255 Y-0.6624
G01 X23.2182 Y-0.6990
G01 X23.1905 Y-0.7405
G01 X23.1490 Y-0.7682
G01 X23.1124 Y-0.7755
G01 X21.3877 Y-0.7755
G01 X21.3511 Y-0.7682
G01 X21.3095 Y-0.7405
G01 X21.2818 Y-0.6990
G01 X21.2745 Y-0.6624
G01 X21.2745 Y1.0624
G00 Z2.0000
G00 X27.5000 Y5.0450
G01 F25.00
G01 Z-0.2799
G01 F120.00
G01 X27.5092 Y5.0453
G01 X27.5214 Y5.0468
G01 X27.5334 Y5.0495
G01 X27.5450 Y5.0534
G01 X27.5562 Y5.0583
G01 X27.5669 Y5.0644
G01 X27.5769 Y5.0715
G01 X27.5862 Y5.0795
G01 X27.5926 Y5.0861
G01 X27.6004 Y5.0955
G01 X27.6072 Y5.1057
G01 X27.6130 Y5.1166
G01 X27.6177 Y5.1279
G01 X27.6213 Y5.1396
G01 X27.6237 Y5.1517
G01 X27.6249 Y5.1639
G01 X27.6250 Y6.8731
G01 X27.6241 Y6.8853
G01 X27.6220 Y6.8974
G01 X27.6187 Y6.9092
G01 X27.6155 Y6.9178
G01 X27.6103 Y6.9289
G01 X27.6056 Y6.9369
G01 X27.5986 Y6.9469
G01 X27.5906 Y6.9562
G01 X27.5817 Y6.9647
G01 X27.5720 Y6.9722
G01 X27.5616 Y6.9788
G01 X27.5479 Y6.9855
G01 X27.5363 Y6.9896
G01 X27.5244 Y6.9926
G01 X27.5123 Y6.9944
G01 X27.5000 Y6.9950
G01 X25.7970 Y6.9950
G01 X25.7878 Y6.9944
G01 X25.7756 Y6.9926
G01 X25.7637 Y6.9896
G01 X25.7522 Y6.9855
G01 X25.7411 Y6.9802
G01 X25.7306 Y6.9739
G01 X25.7231 Y6.9685
G01 X25.7138 Y6.9605
G01 X25.7054 Y6.9516
G01 X25.6978 Y6.9420
G01 X25.6913 Y6.9316
G01 X25.6857 Y6.9207
G01 X25.6813 Y6.9092
G01 X25.6781 Y6.8974
G01 X25.6760 Y6.8853
G01 X25.6751 Y6.8731
G01 X25.6750 Y5.1700
G01 X25.6756 Y5.1577
G01 X25.6774 Y5.1456
G01 X25.6796 Y5.1367
G01 X25.6823 Y5.1279
G01 X25.6857 Y5.1193
G01 X25.6898 Y5.1111
G01 X25.6978 Y5.0980
G01 X25.7034 Y5.0907
G01 X25.7095 Y5.0838
G01 X25.7161 Y5.0774
G01 X25.7231 Y5.0715
G01 X25.7306 Y5.0661
G01 X25.7384 Y5.0612
G01 X25.7466 Y5.0570
G01 X25.7550 Y5.0534
G01 X25.7697 Y5.0487
G01 X25.7817 Y5.0464
G01 X25.7970 Y5.0450
G01 X26.0748 Y5.0450
G01 X26.0748 Y1.9383
G01 X24.9118 Y0.7752
G01 X23.2250 Y0.7752
G01 X23.2250 Y1.0531
G01 X23.2237 Y1.0683
G01 X23.2205 Y1.0833
G01 X23.2177 Y1.0921
G01 X23.2143 Y1.1007
G01 X23.2103 Y1.1089
G01 X23.2056 Y1.1169
G01 X23.2004 Y1.1245
G01 X23.1947 Y1.1316
G01 X23.1862 Y1.1405
G01 X23.1793 Y1.1466
G01 X23.1720 Y1.1522
G01 X23.1643 Y1.1572
G01 X23.1562 Y1.1617
G01 X23.1479 Y1.1655
G01 X23.1392 Y1.1687
G01 X23.1304 Y1.1713
G01 X23.1214 Y1.1732
G01 X23.1123 Y1.1744
G01 X23.1000 Y1.1750
G01 X21.4000 Y1.1750
G01 X21.3847 Y1.1741
G01 X21.3756 Y1.1726
G01 X21.3667 Y1.1705
G01 X21.3522 Y1.1655
G01 X21.3384 Y1.1588
G01 X21.3256 Y1.1504
G01 X21.3138 Y1.1405
G01 X21.3074 Y1.1339
G01 X21.3015 Y1.1269
G01 X21.2928 Y1.1143
G01 X21.2857 Y1.1007
G01 X21.2804 Y1.0863
G01 X21.2769 Y1.0714
G01 X21.2756 Y1.0623
G01 X21.2751 Y1.0531
G01 X21.2751 Y-0.6531
G01 X21.2756 Y-0.6623
G01 X21.2774 Y-0.6744
G01 X21.2804 Y-0.6863
G01 X21.2845 Y-0.6978
G01 X21.2898 Y-0.7089
G01 X21.2944 Y-0.7169
G01 X21.3015 Y-0.7269
G01 X21.3095 Y-0.7362
G01 X21.3184 Y-0.7447
G01 X21.3280 Y-0.7522
G01 X21.3384 Y-0.7588
G01 X21.3494 Y-0.7643
G01 X21.3608 Y-0.7687
G01 X21.3726 Y-0.7720
G01 X21.3847 Y-0.7741
G01 X21.3970 Y-0.7750
G01 X23.1000 Y-0.7750
G01 X23.1153 Y-0.7741
G01 X23.1244 Y-0.7726
G01 X23.1334 Y-0.7705
G01 X23.1421 Y-0.7677
G01 X23.1507 Y-0.7643
G01 X23.1589 Y-0.7602
G01 X23.1669 Y-0.7556
G01 X23.1745 Y-0.7504
G01 X23.1817 Y-0.7447
G01 X23.1884 Y-0.7384
G01 X23.1947 Y-0.7316
G01 X23.2004 Y-0.7245
G01 X23.2056 Y-0.7169
G01 X23.2103 Y-0.7089
G01 X23.2143 Y-0.7007
G01 X23.2177 Y-0.6921
G01 X23.2205 Y-0.6833
G01 X23.2237 Y-0.6683
G01 X23.2250 Y-0.6531
G01 X23.2250 Y-0.3752
G01 X25.1500 Y-0.3752
G01 X25.2034 Y-0.3727
G01 X25.2125 Y-0.3717
G01 X25.2622 Y-0.3642
G01 X25.3111 Y-0.3521
G01 X25.3228 Y-0.3485
G01 X25.3644 Y-0.3336
G01 X25.3758 Y-0.3290
G01 X25.4212 Y-0.3073
G01 X25.4696 Y-0.2783
G01 X25.5149 Y-0.2447
G01 X25.5546 Y-0.2089
G01 X27.0589 Y1.2955
G01 X27.0947 Y1.3351
G01 X27.1283 Y1.3804
G01 X27.1573 Y1.4288
G01 X27.1790 Y1.4743
G01 X27.1837 Y1.4856
G01 X27.2005 Y1.5330
G01 X27.2142 Y1.5878
G01 X27.2225 Y1.6436
G01 X27.2252 Y1.7000
G01 X27.2252 Y5.0450
G01 X27.5000 Y5.0450
G00 Z2.0000
G00 X29.3859 Y9.2352
G01 F25.00
G01 Z-0.2799
G01 F120.00
G01 X29.3402 Y9.2352
G01 X29.3719 Y9.2670
G01 X29.3783 Y9.2507
G01 X29.3859 Y9.2352
G00 Z2.0000
G00 X34.2745 Y6.8824
G01 F25.00
G01 Z-0.2799
G01 F120.00
G01 X34.2818 Y6.9190
G01 X34.3095 Y6.9605
G01 X34.3511 Y6.9882
G01 X34.3877 Y6.9955
G01 X36.1124 Y6.9955
G01 X36.1490 Y6.9882
G01 X36.1905 Y6.9605
G01 X36.2182 Y6.9190
G01 X36.2255 Y6.8824
G01 X36.2255 Y5.1576
G01 X36.2182 Y5.1210
G01 X36.1905 Y5.0795
G01 X36.1490 Y5.0518
G01 X36.1124 Y5.0445
G01 X36.0686 Y5.0444
G01 X36.0567 Y5.0432
G01 X36.0480 Y5.0416
G01 X36.0393 Y5.0394
G01 X35.9693 Y5.0188
G01 X35.9577 Y5.0145
G01 X35.9466 Y5.0090
G01 X35.9386 Y5.0041
G01 X35.9310 Y4.9987
G01 X35.9194 Y4.9885
G01 X35.9130 Y4.9817
G01 X35.8673 Y4.9289
G01 X35.8614 Y4.9216
G01 X35.8545 Y4.9112
G01 X35.8486 Y4.9002
G01 X35.8449 Y4.8915
G01 X35.8403 Y4.8766
G01 X35.8284 Y4.8221
G01 X35.8264 Y4.8103
G01 X35.8256 Y4.7985
G01 X35.8255 Y4.1433
G01 X35.8034 Y4.0321
G01 X35.7600 Y3.9274
G01 X35.6970 Y3.8331
G01 X29.0769 Y-2.7870
G01 X28.9826 Y-2.8500
G01 X28.8779 Y-2.8934
G01 X28.7667 Y-2.9155
G01 X23.1572 Y-2.9155
G01 X23.1483 Y-2.9158
G01 X23.1365 Y-2.9172
G01 X23.1249 Y-2.9198
G01 X23.0520 Y-2.9411
G01 X23.0378 Y-2.9467
G01 X23.0243 Y-2.9540
G01 X23.0118 Y-2.9629
G01 X22.9911 Y-2.9795
G01 X22.9836 Y-2.9861
G01 X22.8855 Y-3.0841
G01 X22.7613 Y-3.1743
G01 X22.6245 Y-3.2440
G01 X22.4785 Y-3.2915
G01 X22.3268 Y-3.3155
G01 X22.1733 Y-3.3155
G01 X22.0216 Y-3.2915
G01 X21.8756 Y-3.2440
G01 X21.7388 Y-3.1743
G01 X21.6145 Y-3.0841
G01 X21.5060 Y-2.9755
G01 X21.4157 Y-2.8513
G01 X21.3460 Y-2.7145
G01 X21.2985 Y-2.5684
G01 X21.2745 Y-2.4168
G01 X21.2745 Y-2.2632
G01 X21.2985 Y-2.1116
G01 X21.3460 Y-1.9655
G01 X21.4157 Y-1.8287
G01 X21.5060 Y-1.7045
G01 X21.6145 Y-1.5959
G01 X21.7388 Y-1.5057
G01 X21.8756 Y-1.4360
G01 X22.0216 Y-1.3885
G01 X22.1733 Y-1.3645
G01 X22.3268 Y-1.3645
G01 X22.4785 Y-1.3885
G01 X22.6245 Y-1.4360
G01 X22.7613 Y-1.5057
G01 X22.8855 Y-1.5959
G01 X22.9833 Y-1.6936
G01 X22.9923 Y-1.7014
G01 X23.0045 Y-1.7099
G01 X23.0737 Y-1.7478
G01 X23.0877 Y-1.7540
G01 X23.0994 Y-1.7576
G01 X23.1114 Y-1.7601
G01 X23.1505 Y-1.7643
G01 X28.3685 Y-1.7645
G01 X28.3833 Y-1.7636
G01 X28.3980 Y-1.7610
G01 X28.4737 Y-1.7389
G01 X28.4823 Y-1.7357
G01 X28.4935 Y-1.7306
G01 X28.5041 Y-1.7244
G01 X28.5116 Y-1.7190
G01 X28.5372 Y-1.6984
G01 X28.5446 Y-1.6916
G01 X34.6016 Y4.3654
G01 X34.6096 Y4.3743
G01 X34.6167 Y4.3838
G01 X34.6229 Y4.3939
G01 X34.6564 Y4.4553
G01 X34.6605 Y4.4635
G01 X34.6640 Y4.4720
G01 X34.6677 Y4.4837
G01 X34.6702 Y4.4957
G01 X34.6743 Y4.5348
G01 X34.6745 Y4.7955
G01 X34.6742 Y4.8044
G01 X34.6728 Y4.8162
G01 X34.6703 Y4.8279
G01 X34.6498 Y4.8978
G01 X34.6445 Y4.9123
G01 X34.6390 Y4.9235
G01 X34.6324 Y4.9340
G01 X34.6248 Y4.9438
G01 X34.6163 Y4.9528
G01 X34.5541 Y5.0067
G01 X34.5439 Y5.0139
G01 X34.5302 Y5.0214
G01 X34.5186 Y5.0262
G01 X34.5067 Y5.0297
G01 X34.4463 Y5.0428
G01 X34.4374 Y5.0439
G01 X34.4285 Y5.0445
G01 X34.3877 Y5.0445
G01 X34.3511 Y5.0518
G01 X34.3095 Y5.0795
G01 X34.2818 Y5.1210
G01 X34.2745 Y5.1576
G01 X34.2745 Y6.8824
G00 Z2.0000
G00 X35.1941 Y21.3355
G01 F25.00
G01 Z-0.2799
G01 F120.00
G01 X35.2843 Y21.2113
G01 X35.3541 Y21.0745
G01 X35.4015 Y20.9284
G01 X35.4255 Y20.7768
G01 X35.4255 Y20.6232
G01 X35.4015 Y20.4716
G01 X35.3541 Y20.3255
G01 X35.2843 Y20.1887
G01 X35.1941 Y20.0645
G01 X35.0855 Y19.9559
G01 X34.9613 Y19.8657
G01 X34.8245 Y19.7960
G01 X34.6785 Y19.7485
G01 X34.5268 Y19.7245
G01 X34.3733 Y19.7245
G01 X34.2216 Y19.7485
G01 X34.0756 Y19.7960
G01 X33.9388 Y19.8657
G01 X33.8145 Y19.9559
G01 X33.7168 Y20.0536
G01 X33.7078 Y20.0614
G01 X33.6956 Y20.0699
G01 X33.6264 Y20.1078
G01 X33.6123 Y20.1140
G01 X33.6006 Y20.1176
G01 X33.5886 Y20.1201
G01 X33.5562 Y20.1238
G01 X33.5462 Y20.1245
G01 X17.7572 Y20.1245
G01 X17.7483 Y20.1242
G01 X17.7394 Y20.1232
G01 X17.7307 Y20.1216
G01 X17.7220 Y20.1194
G01 X17.6491 Y20.0979
G01 X17.6378 Y20.0933
G01 X17.6243 Y20.0860
G01 X17.6118 Y20.0771
G01 X17.5911 Y20.0605
G01 X17.5836 Y20.0539
G01 X17.4855 Y19.9559
G01 X17.3613 Y19.8657
G01 X17.2245 Y19.7960
G01 X17.0785 Y19.7485
G01 X16.9268 Y19.7245
G01 X16.7733 Y19.7245
G01 X16.6216 Y19.7485
G01 X16.4756 Y19.7960
G01 X16.3388 Y19.8657
G01 X16.2145 Y19.9559
G01 X16.1060 Y20.0645
G01 X16.0157 Y20.1887
G01 X15.9460 Y20.3255
G01 X15.8985 Y20.4716
G01 X15.8745 Y20.6232
G01 X15.8745 Y20.7768
G01 X15.8985 Y20.9284
G01 X15.9460 Y21.0745
G01 X16.0157 Y21.2113
G01 X16.1060 Y21.3355
G01 X16.2145 Y21.4441
G01 X16.3388 Y21.5343
G01 X16.4756 Y21.6040
G01 X16.6216 Y21.6515
G01 X16.7733 Y21.6755
G01 X16.9268 Y21.6755
G01 X17.0785 Y21.6515
G01 X17.2245 Y21.6040
G01 X17.3613 Y21.5343
G01 X17.4855 Y21.4441
G01 X17.5833 Y21.3464
G01 X17.5946 Y21.3367
G01 X17.6045 Y21.3301
G01 X17.6737 Y21.2922
G01 X17.6877 Y21.2860
G01 X17.6994 Y21.2824
G01 X17.7114 Y21.2799
G01 X17.7439 Y21.2762
G01 X17.7539 Y21.2755
G01 X33.5458 Y21.2755
G01 X33.5577 Y21.2764
G01 X33.5723 Y21.2790
G01 X33.6451 Y21.3002
G01 X33.6595 Y21.3055
G01 X33.6678 Y21.3094
G01 X33.6758 Y21.3140
G01 X33.6883 Y21.3229
G01 X33.7089 Y21.3395
G01 X33.7165 Y21.3461
G01 X33.8145 Y21.4441
G01 X33.9388 Y21.5343
G01 X34.0756 Y21.6040
G01 X34.2216 Y21.6515
G01 X34.3733 Y21.6755
G01 X34.5268 Y21.6755
G01 X34.6785 Y21.6515
G01 X34.8245 Y21.6040
G01 X34.9613 Y21.5343
G01 X35.0855 Y21.4441
G01 X35.1941 Y21.3355
G00 Z2.0000
G00 X17.6360 Y20.1248
G01 F25.00
G01 Z-0.2799
G01 F120.00
G01 X33.6640 Y20.1248
G01 X33.6926 Y20.0863
G01 X33.6983 Y20.0791
G01 X33.7585 Y20.0128
G01 X33.7650 Y20.0063
G01 X33.8291 Y19.9483
G01 X33.8363 Y19.9425
G01 X33.9083 Y19.8893
G01 X33.9851 Y19.8432
G01 X33.9931 Y19.8387
G01 X34.0713 Y19.8017
G01 X34.0826 Y19.7970
G01 X34.1670 Y19.7670
G01 X34.2538 Y19.7451
G01 X34.2659 Y19.7427
G01 X34.3545 Y19.7297
G01 X34.4439 Y19.7252
G01 X34.4531 Y19.7250
G01 X34.5456 Y19.7297
G01 X34.6402 Y19.7437
G01 X34.7331 Y19.7670
G01 X34.8231 Y19.7992
G01 X34.9096 Y19.8401
G01 X34.9917 Y19.8893
G01 X35.0686 Y19.9463
G01 X35.1395 Y20.0106
G01 X35.2037 Y20.0815
G01 X35.2607 Y20.1583
G01 X35.3099 Y20.2404
G01 X35.3508 Y20.3269
G01 X35.3830 Y20.4170
G01 X35.4063 Y20.5098
G01 X35.4203 Y20.6044
G01 X35.4249 Y20.6939
G01 X35.4250 Y20.7031
G01 X35.4203 Y20.7956
G01 X35.4063 Y20.8902
G01 X35.3830 Y20.9830
G01 X35.3508 Y21.0731
G01 X35.3099 Y21.1596
G01 X35.2607 Y21.2417
G01 X35.2037 Y21.3185
G01 X35.1395 Y21.3894
G01 X35.0686 Y21.4537
G01 X34.9917 Y21.5107
G01 X34.9096 Y21.5599
G01 X34.8231 Y21.6008
G01 X34.7331 Y21.6330
G01 X34.6402 Y21.6563
G01 X34.5456 Y21.6703
G01 X34.4531 Y21.6750
G01 X34.4439 Y21.6748
G01 X34.3545 Y21.6703
G01 X34.2659 Y21.6573
G01 X34.2538 Y21.6549
G01 X34.1670 Y21.6330
G01 X34.0826 Y21.6030
G01 X34.0713 Y21.5983
G01 X33.9931 Y21.5613
G01 X33.9851 Y21.5568
G01 X33.9083 Y21.5107
G01 X33.8363 Y21.4575
G01 X33.8291 Y21.4517
G01 X33.7650 Y21.3937
G01 X33.7585 Y21.3872
G01 X33.6983 Y21.3209
G01 X33.6926 Y21.3137
G01 X33.6640 Y21.2752
G01 X17.6360 Y21.2752
G01 X17.6075 Y21.3137
G01 X17.6017 Y21.3209
G01 X17.5416 Y21.3872
G01 X17.5350 Y21.3937
G01 X17.4709 Y21.4517
G01 X17.4637 Y21.4575
G01 X17.3917 Y21.5107
G01 X17.3150 Y21.5568
G01 X17.3069 Y21.5613
G01 X17.2288 Y21.5983
G01 X17.2174 Y21.6030
G01 X17.1331 Y21.6330
G01 X17.0462 Y21.6549
G01 X17.0342 Y21.6573
G01 X16.9456 Y21.6703
G01 X16.8562 Y21.6748
G01 X16.8470 Y21.6750
G01 X16.7606 Y21.6708
G01 X16.7484 Y21.6696
G01 X16.6598 Y21.6563
G01 X16.5729 Y21.6347
G01 X16.5612 Y21.6311
G01 X16.4769 Y21.6008
G01 X16.3904 Y21.5599
G01 X16.3083 Y21.5107
G01 X16.2363 Y21.4575
G01 X16.2268 Y21.4497
G01 X16.1606 Y21.3894
G01 X16.1003 Y21.3232
G01 X16.0926 Y21.3137
G01 X16.0411 Y21.2442
G01 X16.0361 Y21.2365
G01 X15.9902 Y21.1596
G01 X15.9492 Y21.0731
G01 X15.9170 Y20.9830
G01 X15.8938 Y20.8902
G01 X15.8797 Y20.7956
G01 X15.8750 Y20.7000
G01 X15.8797 Y20.6044
G01 X15.8938 Y20.5098
G01 X15.9170 Y20.4170
G01 X15.9492 Y20.3269
G01 X15.9902 Y20.2404
G01 X16.0393 Y20.1583
G01 X16.0963 Y20.0815
G01 X16.1606 Y20.0106
G01 X16.2315 Y19.9463
G01 X16.3058 Y19.8911
G01 X16.3135 Y19.8860
G01 X16.3904 Y19.8401
G01 X16.4769 Y19.7992
G01 X16.5670 Y19.7670
G01 X16.6598 Y19.7437
G01 X16.7545 Y19.7297
G01 X16.8500 Y19.7250
G01 X16.9456 Y19.7297
G01 X17.0372 Y19.7432
G01 X17.0462 Y19.7451
G01 X17.1331 Y19.7670
G01 X17.2231 Y19.7992
G01 X17.3096 Y19.8401
G01 X17.3891 Y19.8876
G01 X17.3967 Y19.8928
G01 X17.4686 Y19.9463
G01 X17.5373 Y20.0084
G01 X17.5437 Y20.0150
G01 X17.6017 Y20.0791
G01 X17.6075 Y20.0863
G01 X17.6360 Y20.1248
G00 Z2.0000
G00 X11.9944 Y18.8352
G01 F25.00
G01 Z-0.2799
G01 F120.00
G01 X12.0037 Y18.8245
G01 X12.0146 Y18.8145
G01 X12.0748 Y18.7681
G01 X12.0825 Y18.7629
G01 X12.0933 Y18.7569
G01 X12.1076 Y18.7509
G01 X12.1225 Y18.7467
G01 X12.1734 Y18.7371
G01 X12.1820 Y18.7360
G01 X12.1907 Y18.7355
G01 X15.6315 Y18.7356
G01 X15.6433 Y18.7368
G01 X15.6579 Y18.7398
G01 X15.7278 Y18.7602
G01 X15.7395 Y18.7643
G01 X15.7508 Y18.7696
G01 X15.7640 Y18.7776
G01 X15.7738 Y18.7852
G01 X15.7850 Y18.7960
G01 X15.8328 Y18.8511
G01 X15.8387 Y18.8584
G01 X15.8472 Y18.8715
G01 X15.8515 Y18.8798
G01 X15.8551 Y18.8885
G01 X15.8598 Y18.9034
G01 X15.8728 Y18.9638
G01 X15.8740 Y18.9726
G01 X15.8745 Y18.9815
G01 X15.8745 Y19.0224
G01 X15.8818 Y19.0590
G01 X15.9095 Y19.1005
G01 X15.9511 Y19.1282
G01 X15.9877 Y19.1355
G01 X17.7124 Y19.1355
G01 X17.7490 Y19.1282
G01 X17.7905 Y19.1005
G01 X17.8182 Y19.0590
G01 X17.8255 Y19.0224
G01 X17.8255 Y17.2976
G01 X17.8182 Y17.2610
G01 X17.7905 Y17.2195
G01 X17.7490 Y17.1918
G01 X17.7124 Y17.1845
G01 X15.9877 Y17.1845
G01 X15.9511 Y17.1918
G01 X15.9095 Y17.2195
G01 X15.8818 Y17.2610
G01 X15.8745 Y17.2976
G01 X15.8745 Y17.3355
G01 X15.8742 Y17.3444
G01 X15.8728 Y17.3562
G01 X15.8703 Y17.3679
G01 X15.8498 Y17.4378
G01 X15.8457 Y17.4495
G01 X15.8419 Y17.4580
G01 X15.8358 Y17.4688
G01 X15.8287 Y17.4790
G01 X15.8228 Y17.4861
G01 X15.8117 Y17.4970
G01 X15.7565 Y17.5448
G01 X15.7465 Y17.5522
G01 X15.7330 Y17.5601
G01 X15.7186 Y17.5662
G01 X15.7067 Y17.5697
G01 X15.6492 Y17.5822
G01 X15.6404 Y17.5836
G01 X15.6315 Y17.5844
G01 X12.1172 Y17.5845
G01 X12.1083 Y17.5842
G01 X12.0994 Y17.5832
G01 X12.0907 Y17.5816
G01 X12.0820 Y17.5794
G01 X12.0091 Y17.5579
G01 X11.9978 Y17.5533
G01 X11.9869 Y17.5476
G01 X11.9742 Y17.5390
G01 X11.9460 Y17.5162
G01 X11.8855 Y17.4559
G01 X11.7613 Y17.3657
G01 X11.6245 Y17.2960
G01 X11.4785 Y17.2485
G01 X11.3268 Y17.2245
G01 X11.1733 Y17.2245
G01 X11.0216 Y17.2485
G01 X10.8756 Y17.2960
G01 X10.7388 Y17.3657
G01 X10.6145 Y17.4559
G01 X10.5060 Y17.5645
G01 X10.4157 Y17.6887
G01 X10.3460 Y17.8255
G01 X10.2985 Y17.9716
G01 X10.2745 Y18.1232
G01 X10.2745 Y18.2768
G01 X10.2985 Y18.4284
G01 X10.3460 Y18.5745
G01 X10.4157 Y18.7113
G01 X10.5060 Y18.8355
G01 X10.6145 Y18.9441
G01 X10.7388 Y19.0343
G01 X10.8756 Y19.1040
G01 X11.0216 Y19.1515
G01 X11.1733 Y19.1755
G01 X11.3268 Y19.1755
G01 X11.4785 Y19.1515
G01 X11.6245 Y19.1040
G01 X11.7613 Y19.0343
G01 X11.8855 Y18.9441
G01 X11.9944 Y18.8352
G00 Z2.0000
G00 X12.0063 Y17.5848
G01 F25.00
G01 Z-0.2799
G01 F120.00
G01 X15.8750 Y17.5848
G01 X15.8751 Y17.3069
G01 X15.8760 Y17.2947
G01 X15.8788 Y17.2796
G01 X15.8813 Y17.2708
G01 X15.8845 Y17.2622
G01 X15.8913 Y17.2484
G01 X15.8961 Y17.2406
G01 X15.9015 Y17.2331
G01 X15.9116 Y17.2216
G01 X15.9231 Y17.2115
G01 X15.9306 Y17.2061
G01 X15.9384 Y17.2012
G01 X15.9466 Y17.1970
G01 X15.9550 Y17.1934
G01 X15.9637 Y17.1904
G01 X15.9726 Y17.1880
G01 X15.9847 Y17.1859
G01 X16.0000 Y17.1850
G01 X17.7000 Y17.1850
G01 X17.7153 Y17.1859
G01 X17.7304 Y17.1887
G01 X17.7392 Y17.1913
G01 X17.7479 Y17.1945
G01 X17.7562 Y17.1983
G01 X17.7669 Y17.2044
G01 X17.7745 Y17.2096
G01 X17.7840 Y17.2174
G01 X17.7906 Y17.2238
G01 X17.7967 Y17.2307
G01 X17.8022 Y17.2380
G01 X17.8072 Y17.2457
G01 X17.8117 Y17.2538
G01 X17.8166 Y17.2650
G01 X17.8196 Y17.2737
G01 X17.8220 Y17.2826
G01 X17.8241 Y17.2947
G01 X17.8249 Y17.3039
G01 X17.8250 Y19.0100
G01 X17.8241 Y19.0253
G01 X17.8213 Y19.0404
G01 X17.8187 Y19.0492
G01 X17.8143 Y19.0607
G01 X17.8103 Y19.0689
G01 X17.8056 Y19.0769
G01 X17.7986 Y19.0869
G01 X17.7926 Y19.0939
G01 X17.7862 Y19.1005
G01 X17.7793 Y19.1066
G01 X17.7720 Y19.1122
G01 X17.7643 Y19.1172
G01 X17.7535 Y19.1230
G01 X17.7450 Y19.1266
G01 X17.7363 Y19.1296
G01 X17.7274 Y19.1320
G01 X17.7153 Y19.1341
G01 X17.7062 Y19.1348
G01 X16.0000 Y19.1350
G01 X15.9908 Y19.1347
G01 X15.9817 Y19.1336
G01 X15.9726 Y19.1320
G01 X15.9637 Y19.1296
G01 X15.9550 Y19.1266
G01 X15.9466 Y19.1230
G01 X15.9384 Y19.1188
G01 X15.9306 Y19.1139
G01 X15.9231 Y19.1085
G01 X15.9161 Y19.1026
G01 X15.9095 Y19.0962
G01 X15.9034 Y19.0893
G01 X15.8944 Y19.0769
G01 X15.8898 Y19.0689
G01 X15.8857 Y19.0607
G01 X15.8823 Y19.0521
G01 X15.8796 Y19.0433
G01 X15.8764 Y19.0283
G01 X15.8751 Y19.0131
G01 X15.8750 Y18.7352
G01 X12.0648 Y18.7352
G01 X12.0572 Y18.7467
G01 X12.0037 Y18.8185
G01 X11.9437 Y18.8850
G01 X11.9350 Y18.8937
G01 X11.8686 Y18.9537
G01 X11.7967 Y19.0072
G01 X11.7865 Y19.0140
G01 X11.7096 Y19.0599
G01 X11.6288 Y19.0983
G01 X11.6174 Y19.1030
G01 X11.5331 Y19.1330
G01 X11.4462 Y19.1549
G01 X11.4342 Y19.1573
G01 X11.3456 Y19.1703
G01 X11.2562 Y19.1748
G01 X11.2470 Y19.1750
G01 X11.1545 Y19.1703
G01 X11.0659 Y19.1573
G01 X11.0538 Y19.1549
G01 X10.9670 Y19.1330
G01 X10.8826 Y19.1030
G01 X10.8713 Y19.0983
G01 X10.7959 Y19.0626
G01 X10.7851 Y19.0568
G01 X10.7083 Y19.0107
G01 X10.6315 Y18.9537
G01 X10.5606 Y18.8894
G01 X10.4963 Y18.8185
G01 X10.4393 Y18.7417
G01 X10.3902 Y18.6596
G01 X10.3492 Y18.5731
G01 X10.3170 Y18.4830
G01 X10.2938 Y18.3902
G01 X10.2797 Y18.2956
G01 X10.2750 Y18.2000
G01 X10.2797 Y18.1044
G01 X10.2938 Y18.0098
G01 X10.3170 Y17.9170
G01 X10.3492 Y17.8269
G01 X10.3902 Y17.7404
G01 X10.4393 Y17.6583
G01 X10.4963 Y17.5815
G01 X10.5606 Y17.5106
G01 X10.6315 Y17.4463
G01 X10.7083 Y17.3893
G01 X10.7904 Y17.3401
G01 X10.8769 Y17.2992
G01 X10.9670 Y17.2670
G01 X11.0598 Y17.2437
G01 X11.1545 Y17.2297
G01 X11.2500 Y17.2250
G01 X11.3456 Y17.2297
G01 X11.4402 Y17.2437
G01 X11.5331 Y17.2670
G01 X11.6231 Y17.2992
G01 X11.7096 Y17.3401
G01 X11.7917 Y17.3893
G01 X11.8686 Y17.4463
G01 X11.9395 Y17.5106
G01 X11.9997 Y17.5768
G01 X12.0063 Y17.5848
G00 Z2.0000
G00 X8.6640 Y8.0848
G01 F25.00
G01 Z-0.2799
G01 F120.00
G01 X8.6926 Y8.0463
G01 X8.6983 Y8.0391
G01 X8.7585 Y7.9728
G01 X8.7650 Y7.9663
G01 X8.8291 Y7.9083
G01 X8.8363 Y7.9025
G01 X8.9083 Y7.8493
G01 X8.9851 Y7.8032
G01 X8.9931 Y7.7987
G01 X9.0769 Y7.7592
G01 X9.1612 Y7.7289
G01 X9.1729 Y7.7253
G01 X9.2598 Y7.7037
G01 X9.3484 Y7.6904
G01 X9.3606 Y7.6892
G01 X9.4470 Y7.6850
G01 X9.4562 Y7.6852
G01 X9.5456 Y7.6897
G01 X9.6342 Y7.7027
G01 X9.6462 Y7.7051
G01 X9.7331 Y7.7270
G01 X9.8174 Y7.7570
G01 X9.8288 Y7.7617
G01 X9.9069 Y7.7987
G01 X9.9150 Y7.8032
G01 X9.9917 Y7.8493
G01 X10.0637 Y7.9025
G01 X10.0709 Y7.9083
G01 X10.1350 Y7.9663
G01 X10.1416 Y7.9728
G01 X10.2017 Y8.0391
G01 X10.2075 Y8.0463
G01 X10.2360 Y8.0848
G01 X17.2640 Y8.0848
G01 X17.2926 Y8.0463
G01 X17.2983 Y8.0391
G01 X17.3585 Y7.9728
G01 X17.3650 Y7.9663
G01 X17.4291 Y7.9083
G01 X17.4363 Y7.9025
G01 X17.5083 Y7.8493
G01 X17.5851 Y7.8032
G01 X17.5931 Y7.7987
G01 X17.6769 Y7.7592
G01 X17.7612 Y7.7289
G01 X17.7729 Y7.7253
G01 X17.8598 Y7.7037
G01 X17.9484 Y7.6904
G01 X17.9606 Y7.6892
G01 X18.0470 Y7.6850
G01 X18.0562 Y7.6852
G01 X18.1456 Y7.6897
G01 X18.2402 Y7.7037
G01 X18.3331 Y7.7270
G01 X18.4231 Y7.7592
G01 X18.5096 Y7.8001
G01 X18.5917 Y7.8493
G01 X18.6637 Y7.9025
G01 X18.6709 Y7.9083
G01 X18.7373 Y7.9684
G01 X18.7525 Y7.9848
G01 X25.8640 Y7.9848
G01 X25.8926 Y7.9463
G01 X25.8983 Y7.9391
G01 X25.9585 Y7.8728
G01 X25.9650 Y7.8663
G01 X26.0291 Y7.8083
G01 X26.0363 Y7.8025
G01 X26.1083 Y7.7493
G01 X26.1851 Y7.7032
G01 X26.1931 Y7.6987
G01 X26.2713 Y7.6617
G01 X26.2826 Y7.6570
G01 X26.3670 Y7.6270
G01 X26.4538 Y7.6051
G01 X26.4659 Y7.6027
G01 X26.5545 Y7.5897
G01 X26.6500 Y7.5850
G01 X26.7456 Y7.5897
G01 X26.8342 Y7.6027
G01 X26.8462 Y7.6051
G01 X26.9331 Y7.6270
G01 X27.0174 Y7.6570
G01 X27.0288 Y7.6617
G01 X27.1069 Y7.6987
G01 X27.1150 Y7.7032
G01 X27.1917 Y7.7493
G01 X27.2637 Y7.8025
G01 X27.2709 Y7.8083
G01 X27.3350 Y7.8663
G01 X27.3416 Y7.8728
G01 X27.4017 Y7.9391
G01 X27.4075 Y7.9463
G01 X27.4360 Y7.9848
G01 X34.4640 Y7.9848
G01 X34.4926 Y7.9463
G01 X34.4983 Y7.9391
G01 X34.5564 Y7.8750
G01 X34.5628 Y7.8684
G01 X34.6315 Y7.8063
G01 X34.7058 Y7.7511
G01 X34.7135 Y7.7460
G01 X34.7851 Y7.7032
G01 X34.7959 Y7.6974
G01 X34.8769 Y7.6592
G01 X34.9612 Y7.6289
G01 X34.9699 Y7.6261
G01 X35.0598 Y7.6037
G01 X35.1545 Y7.5897
G01 X35.2500 Y7.5850
G01 X35.3395 Y7.5892
G01 X35.3517 Y7.5904
G01 X35.4342 Y7.6027
G01 X35.4462 Y7.6051
G01 X35.5331 Y7.6270
G01 X35.6174 Y7.6570
G01 X35.6288 Y7.6617
G01 X35.7096 Y7.7001
G01 X35.7865 Y7.7460
G01 X35.7967 Y7.7528
G01 X35.8637 Y7.8025
G01 X35.8732 Y7.8103
G01 X35.9395 Y7.8706
G01 X36.0037 Y7.9415
G01 X36.0607 Y8.0183
G01 X36.1069 Y8.0950
G01 X36.1127 Y8.1059
G01 X36.1483 Y8.1813
G01 X36.1530 Y8.1926
G01 X36.1830 Y8.2770
G01 X36.2063 Y8.3698
G01 X36.2196 Y8.4583
G01 X36.2208 Y8.4706
G01 X36.2250 Y8.5600
G01 X36.2203 Y8.6556
G01 X36.2073 Y8.7442
G01 X36.2049 Y8.7562
G01 X36.1830 Y8.8430
G01 X36.1508 Y8.9331
G01 X36.1099 Y9.0196
G01 X36.0640 Y9.0965
G01 X36.0572 Y9.1067
G01 X36.0075 Y9.1737
G01 X35.9997 Y9.1832
G01 X35.9395 Y9.2494
G01 X35.8686 Y9.3137
G01 X35.7917 Y9.3707
G01 X35.7150 Y9.4168
G01 X35.7042 Y9.4226
G01 X35.6288 Y9.4583
G01 X35.6174 Y9.4630
G01 X35.5331 Y9.4930
G01 X35.4432 Y9.5156
G01 X35.4342 Y9.5173
G01 X35.3517 Y9.5296
G01 X35.3395 Y9.5308
G01 X35.2500 Y9.5350
G01 X35.1545 Y9.5303
G01 X35.0659 Y9.5173
G01 X35.0538 Y9.5149
G01 X34.9670 Y9.4930
G01 X34.8798 Y9.4619
G01 X34.8713 Y9.4583
G01 X34.7959 Y9.4226
G01 X34.7851 Y9.4168
G01 X34.7083 Y9.3707
G01 X34.6339 Y9.3156
G01 X34.6268 Y9.3097
G01 X34.5650 Y9.2537
G01 X34.5585 Y9.2472
G01 X34.4983 Y9.1809
G01 X34.4926 Y9.1737
G01 X34.4640 Y9.1352
G01 X29.0987 Y9.1352
G01 X37.3968 Y17.4333
G01 X37.4347 Y17.4751
G01 X37.4666 Y17.5179
G01 X37.4716 Y17.5256
G01 X37.4943 Y17.5635
G01 X37.5001 Y17.5743
G01 X37.5215 Y17.6199
G01 X37.5405 Y17.6730
G01 X37.5529 Y17.7218
G01 X37.5552 Y17.7338
G01 X37.5625 Y17.7836
G01 X37.5651 Y17.8339
G01 X37.5652 Y19.7250
G01 X37.8431 Y19.7250
G01 X37.8584 Y19.7264
G01 X37.8734 Y19.7295
G01 X37.8821 Y19.7323
G01 X37.8907 Y19.7357
G01 X37.8989 Y19.7398
G01 X37.9069 Y19.7444
G01 X37.9145 Y19.7496
G01 X37.9217 Y19.7553
G01 X37.9284 Y19.7616
G01 X37.9347 Y19.7684
G01 X37.9404 Y19.7755
G01 X37.9456 Y19.7831
G01 X37.9503 Y19.7911
G01 X37.9543 Y19.7993
G01 X37.9577 Y19.8079
G01 X37.9605 Y19.8167
G01 X37.9626 Y19.8256
G01 X37.9641 Y19.8347
G01 X37.9650 Y19.8500
G01 X37.9650 Y21.5500
G01 X37.9641 Y21.5653
G01 X37.9620 Y21.5774
G01 X37.9587 Y21.5892
G01 X37.9530 Y21.6034
G01 X37.9488 Y21.6116
G01 X37.9440 Y21.6194
G01 X37.9347 Y21.6316
G01 X37.9284 Y21.6384
G01 X37.9217 Y21.6447
G01 X37.9095 Y21.6539
G01 X37.9016 Y21.6588
G01 X37.8935 Y21.6630
G01 X37.8850 Y21.6666
G01 X37.8763 Y21.6696
G01 X37.8674 Y21.6720
G01 X37.8584 Y21.6736
G01 X37.8431 Y21.6750
G01 X36.1370 Y21.6750
G01 X36.1247 Y21.6741
G01 X36.1097 Y21.6713
G01 X36.0950 Y21.6666
G01 X36.0838 Y21.6617
G01 X36.0732 Y21.6556
G01 X36.0607 Y21.6466
G01 X36.0516 Y21.6384
G01 X36.0434 Y21.6293
G01 X36.0378 Y21.6220
G01 X36.0328 Y21.6143
G01 X36.0270 Y21.6034
G01 X36.0234 Y21.5950
G01 X36.0204 Y21.5863
G01 X36.0174 Y21.5744
G01 X36.0160 Y21.5653
G01 X36.0151 Y21.5531
G01 X36.0150 Y19.8500
G01 X36.0156 Y19.8377
G01 X36.0169 Y19.8286
G01 X36.0188 Y19.8196
G01 X36.0213 Y19.8108
G01 X36.0257 Y19.7993
G01 X36.0298 Y19.7911
G01 X36.0344 Y19.7831
G01 X36.0396 Y19.7755
G01 X36.0454 Y19.7684
G01 X36.0516 Y19.7616
G01 X36.0584 Y19.7553
G01 X36.0656 Y19.7496
G01 X36.0732 Y19.7444
G01 X36.0811 Y19.7398
G01 X36.0894 Y19.7357
G01 X36.0979 Y19.7323
G01 X36.1067 Y19.7295
G01 X36.1217 Y19.7264
G01 X36.1370 Y19.7250
G01 X36.4148 Y19.7250
G01 X36.4148 Y18.0783
G01 X27.4718 Y9.1352
G01 X27.4360 Y9.1352
G01 X27.4075 Y9.1737
G01 X27.4017 Y9.1809
G01 X27.3416 Y9.2472
G01 X27.3350 Y9.2537
G01 X27.2709 Y9.3117
G01 X27.2637 Y9.3175
G01 X27.1917 Y9.3707
G01 X27.1150 Y9.4168
G01 X27.1042 Y9.4226
G01 X27.0288 Y9.4583
G01 X27.0174 Y9.4630
G01 X26.9331 Y9.4930
G01 X26.8462 Y9.5149
G01 X26.8342 Y9.5173
G01 X26.7456 Y9.5303
G01 X26.6500 Y9.5350
G01 X26.5545 Y9.5303
G01 X26.4659 Y9.5173
G01 X26.4538 Y9.5149
G01 X26.3670 Y9.4930
G01 X26.2826 Y9.4630
G01 X26.2713 Y9.4583
G01 X26.1931 Y9.4213
G01 X26.1851 Y9.4168
G01 X26.1083 Y9.3707
G01 X26.0363 Y9.3175
G01 X26.0291 Y9.3117
G01 X25.9650 Y9.2537
G01 X25.9585 Y9.2472
G01 X25.8983 Y9.1809
G01 X25.8926 Y9.1737
G01 X25.8640 Y9.1352
G01 X18.9007 Y9.1352
G01 X18.8607 Y9.2017
G01 X18.8075 Y9.2737
G01 X18.7997 Y9.2832
G01 X18.7395 Y9.3494
G01 X18.6732 Y9.4097
G01 X18.6637 Y9.4175
G01 X18.5917 Y9.4707
G01 X18.5150 Y9.5168
G01 X18.5042 Y9.5226
G01 X18.4231 Y9.5608
G01 X18.3389 Y9.5911
G01 X18.3271 Y9.5947
G01 X18.2402 Y9.6163
G01 X18.1517 Y9.6296
G01 X18.1395 Y9.6308
G01 X18.0500 Y9.6350
G01 X17.9545 Y9.6303
G01 X17.8659 Y9.6173
G01 X17.8538 Y9.6149
G01 X17.7670 Y9.5930
G01 X17.6826 Y9.5630
G01 X17.6713 Y9.5583
G01 X17.5931 Y9.5213
G01 X17.5851 Y9.5168
G01 X17.5083 Y9.4707
G01 X17.4363 Y9.4175
G01 X17.4291 Y9.4117
G01 X17.3650 Y9.3537
G01 X17.3585 Y9.3472
G01 X17.2983 Y9.2809
G01 X17.2926 Y9.2737
G01 X17.2640 Y9.2352
G01 X10.2360 Y9.2352
G01 X10.2075 Y9.2737
G01 X10.2017 Y9.2809
G01 X10.1416 Y9.3472
G01 X10.1350 Y9.3537
G01 X10.0732 Y9.4097
G01 X10.0662 Y9.4156
G01 X9.9917 Y9.4707
G01 X9.9150 Y9.5168
G01 X9.9042 Y9.5226
G01 X9.8260 Y9.5596
G01 X9.8174 Y9.5630
G01 X9.7331 Y9.5930
G01 X9.6462 Y9.6149
G01 X9.6342 Y9.6173
G01 X9.5517 Y9.6296
G01 X9.5395 Y9.6308
G01 X9.4500 Y9.6350
G01 X9.3606 Y9.6308
G01 X9.3484 Y9.6296
G01 X9.2598 Y9.6163
G01 X9.1670 Y9.5930
G01 X9.0769 Y9.5608
G01 X8.9959 Y9.5226
G01 X8.9877 Y9.5184
G01 X8.9083 Y9.4707
G01 X8.8363 Y9.4175
G01 X8.8291 Y9.4117
G01 X8.7650 Y9.3537
G01 X8.7585 Y9.3472
G01 X8.6983 Y9.2809
G01 X8.6926 Y9.2737
G01 X8.6640 Y9.2352
G01 X8.2479 Y9.2352
G01 X8.1977 Y9.2329
G01 X8.1885 Y9.2321
G01 X8.1418 Y9.2252
G01 X8.1297 Y9.2228
G01 X8.0810 Y9.2105
G01 X8.0335 Y9.1936
G01 X8.0222 Y9.1890
G01 X7.9768 Y9.1673
G01 X7.9335 Y9.1416
G01 X7.9258 Y9.1365
G01 X7.8830 Y9.1047
G01 X7.8412 Y9.0667
G01 X6.6390 Y7.8644
G01 X6.6054 Y7.8270
G01 X6.5753 Y7.7867
G01 X6.5685 Y7.7765
G01 X6.5427 Y7.7332
G01 X6.5186 Y7.6822
G01 X6.5015 Y7.6349
G01 X6.4979 Y7.6231
G01 X6.4872 Y7.5803
G01 X6.4853 Y7.5713
G01 X6.4776 Y7.5185
G01 X6.4748 Y7.4621
G01 X6.4748 Y1.1750
G01 X6.1970 Y1.1750
G01 X6.1817 Y1.1736
G01 X6.1667 Y1.1705
G01 X6.1579 Y1.1677
G01 X6.1494 Y1.1643
G01 X6.1411 Y1.1602
G01 X6.1332 Y1.1556
G01 X6.1256 Y1.1504
G01 X6.1184 Y1.1447
G01 X6.1116 Y1.1384
G01 X6.1054 Y1.1316
G01 X6.0961 Y1.1194
G01 X6.0913 Y1.1116
G01 X6.0870 Y1.1034
G01 X6.0834 Y1.0950
G01 X6.0804 Y1.0863
G01 X6.0781 Y1.0774
G01 X6.0764 Y1.0683
G01 X6.0754 Y1.0592
G01 X6.0750 Y1.0500
G01 X6.0752 Y-0.6561
G01 X6.0760 Y-0.6653
G01 X6.0781 Y-0.6774
G01 X6.0804 Y-0.6863
G01 X6.0834 Y-0.6950
G01 X6.0870 Y-0.7034
G01 X6.0913 Y-0.7116
G01 X6.0978 Y-0.7220
G01 X6.1034 Y-0.7293
G01 X6.1095 Y-0.7362
G01 X6.1184 Y-0.7447
G01 X6.1256 Y-0.7504
G01 X6.1332 Y-0.7556
G01 X6.1411 Y-0.7602
G01 X6.1494 Y-0.7643
G01 X6.1579 Y-0.7677
G01 X6.1667 Y-0.7705
G01 X6.1817 Y-0.7736
G01 X6.1908 Y-0.7747
G01 X6.2000 Y-0.7750
G01 X7.9062 Y-0.7748
G01 X7.9184 Y-0.7736
G01 X7.9274 Y-0.7720
G01 X7.9363 Y-0.7696
G01 X7.9450 Y-0.7666
G01 X7.9535 Y-0.7630
G01 X7.9616 Y-0.7588
G01 X7.9695 Y-0.7539
G01 X7.9769 Y-0.7485
G01 X7.9840 Y-0.7426
G01 X7.9906 Y-0.7362
G01 X7.9967 Y-0.7293
G01 X8.0040 Y-0.7194
G01 X8.0088 Y-0.7116
G01 X8.0130 Y-0.7034
G01 X8.0166 Y-0.6950
G01 X8.0205 Y-0.6833
G01 X8.0237 Y-0.6683
G01 X8.0247 Y-0.6592
G01 X8.0250 Y-0.6500
G01 X8.0250 Y1.0500
G01 X8.0241 Y1.0653
G01 X8.0220 Y1.0774
G01 X8.0196 Y1.0863
G01 X8.0166 Y1.0950
G01 X8.0130 Y1.1034
G01 X8.0088 Y1.1116
G01 X8.0040 Y1.1194
G01 X7.9986 Y1.1269
G01 X7.9884 Y1.1384
G01 X7.9817 Y1.1447
G01 X7.9745 Y1.1504
G01 X7.9616 Y1.1588
G01 X7.9535 Y1.1630
G01 X7.9450 Y1.1666
G01 X7.9304 Y1.1713
G01 X7.9184 Y1.1736
G01 X7.9031 Y1.1750
G01 X7.6252 Y1.1750
G01 X7.6252 Y7.2238
G01 X8.4862 Y8.0848
G01 X8.6640 Y8.0848
G00 Z2.0000
G00 X-0.4755 Y22.4745
G01 F25.00
G01 Z-0.2799
G01 F120.00
G01 X-0.4745 Y22.4745
G01 X-0.4745 Y-22.4745
G01 X-0.4755 Y-22.4745
G01 X-0.4755 Y22.4745
G01 X-0.5755 Y22.5745
G01 X-0.3745 Y22.5745
G01 X-0.3745 Y-22.5745
G01 X-0.5755 Y-22.5745
G01 X-0.5755 Y22.5745
G01 X-0.6755 Y22.6745
G01 X-0.2745 Y22.6745
G01 X-0.2745 Y-22.6745
G01 X-0.6755 Y-22.6745
G01 X-0.6755 Y22.6745
G01 X-0.7755 Y22.7745
G01 X-0.1745 Y22.7745
G01 X-0.1745 Y-22.7745
G01 X-0.7755 Y-22.7745
G01 X-0.7755 Y22.7745
G01 X-0.8755 Y22.8745
G01 X-0.0745 Y22.8745
G01 X-0.0745 Y-22.8745
G01 X-0.8755 Y-22.8745
G01 X-0.8755 Y22.8745
G01 X-0.9755 Y22.9745
G01 X0.0255 Y22.9745
G01 X0.0255 Y-22.9745
G01 X-0.9755 Y-22.9745
G01 X-0.9755 Y22.9745
G01 X-1.0755 Y23.0745
G01 X0.1255 Y23.0745
G01 X0.1255 Y-23.0745
G01 X-1.0755 Y-23.0745
G01 X-1.0755 Y23.0745
G01 X-1.1755 Y23.1745
G01 X0.2255 Y23.1745
G01 X0.2255 Y-23.1745
G01 X-1.1755 Y-23.1745
G01 X-1.1755 Y23.1745
G01 X-1.2755 Y23.2745
G01 X0.3255 Y23.2745
G01 X0.3255 Y-23.2745
G01 X-1.2755 Y-23.2745
G01 X-1.2755 Y23.2745
G01 X-1.3755 Y23.3745
G01 X0.4255 Y23.3745
G01 X0.4255 Y-23.3745
G01 X-1.3755 Y-23.3745
G01 X-1.3755 Y23.3745
G01 X-1.4755 Y23.4745
G01 X0.5255 Y23.4745
G01 X0.5255 Y-23.4745
G01 X-1.4755 Y-23.4745
G01 X-1.4755 Y23.4745
G01 X-1.5755 Y23.5745
G01 X0.6255 Y23.5745
G01 X0.6255 Y-23.5745
G01 X-1.5755 Y-23.5745
G01 X-1.5755 Y23.5745
G01 X-1.6755 Y23.6745
G01 X0.7255 Y23.6745
G01 X0.7255 Y-23.6745
G01 X-1.6755 Y-23.6745
G01 X-1.6755 Y23.6745
G01 X-1.7755 Y23.7745
G01 X0.8255 Y23.7745
G01 X0.8255 Y-23.7745
G01 X-1.7755 Y-23.7745
G01 X-1.7755 Y23.7745
G01 X-1.8755 Y23.8745
G01 X0.9255 Y23.8745
G01 X0.9255 Y-23.8745
G01 X-1.8755 Y-23.8745
G01 X-1.8755 Y23.8745
G01 X-1.9755 Y23.9745
G01 X1.0255 Y23.9745
G01 X1.0255 Y-23.9745
G01 X-1.9755 Y-23.9745
G01 X-1.9755 Y23.9745
G01 X-2.0755 Y24.0745
G01 X1.1255 Y24.0745
G01 X1.1255 Y-24.0745
G01 X-2.0755 Y-24.0745
G01 X-2.0755 Y24.0745
G01 X-2.1755 Y24.1745
G01 X1.2255 Y24.1745
G01 X1.2255 Y-24.1745
G01 X-2.1755 Y-24.1745
G01 X-2.1755 Y24.1745
G01 X-2.2755 Y24.2745
G01 X1.3255 Y24.2745
G01 X1.3255 Y-24.2745
G01 X-2.2755 Y-24.2745
G01 X-2.2755 Y24.2745
G01 X-2.3755 Y24.3745
G01 X1.4255 Y24.3745
G01 X1.4255 Y-24.3745
G01 X-2.3755 Y-24.3745
G01 X-2.3755 Y24.3745
G00 Z2.0000
G00 X-7.8559 Y21.3355
G01 F25.00
G01 Z-0.2799
G01 F120.00
G01 X-7.7657 Y21.2113
G01 X-7.6960 Y21.0745
G01 X-7.6485 Y20.9284
G01 X-7.6245 Y20.7768
G01 X-7.6245 Y20.6232
G01 X-7.6485 Y20.4716
G01 X-7.6960 Y20.3255
G01 X-7.7657 Y20.1887
G01 X-7.8559 Y20.0645
G01 X-7.9645 Y19.9559
G01 X-8.0887 Y19.8657
G01 X-8.2255 Y19.7960
G01 X-8.3716 Y19.7485
G01 X-8.5232 Y19.7245
G01 X-8.6768 Y19.7245
G01 X-8.8284 Y19.7485
G01 X-8.9745 Y19.7960
G01 X-9.1113 Y19.8657
G01 X-9.2355 Y19.9559
G01 X-9.3333 Y20.0536
G01 X-9.3446 Y20.0633
G01 X-9.3545 Y20.0699
G01 X-9.4237 Y20.1078
G01 X-9.4377 Y20.1140
G01 X-9.4494 Y20.1176
G01 X-9.4614 Y20.1201
G01 X-9.4938 Y20.1238
G01 X-9.5039 Y20.1245
G01 X-25.2928 Y20.1245
G01 X-25.3017 Y20.1242
G01 X-25.3106 Y20.1232
G01 X-25.3194 Y20.1216
G01 X-25.3280 Y20.1194
G01 X-25.4009 Y20.0979
G01 X-25.4123 Y20.0933
G01 X-25.4258 Y20.0860
G01 X-25.4383 Y20.0771
G01 X-25.4589 Y20.0605
G01 X-25.4665 Y20.0539
G01 X-25.5645 Y19.9559
G01 X-25.6887 Y19.8657
G01 X-25.8255 Y19.7960
G01 X-25.9716 Y19.7485
G01 X-26.1232 Y19.7245
G01 X-26.2768 Y19.7245
G01 X-26.4284 Y19.7485
G01 X-26.5745 Y19.7960
G01 X-26.7113 Y19.8657
G01 X-26.8355 Y19.9559
G01 X-26.9441 Y20.0645
G01 X-27.0343 Y20.1887
G01 X-27.1040 Y20.3255
G01 X-27.1515 Y20.4716
G01 X-27.1755 Y20.6232
G01 X-27.1755 Y20.7768
G01 X-27.1515 Y20.9284
G01 X-27.1040 Y21.0745
G01 X-27.0343 Y21.2113
G01 X-26.9441 Y21.3355
G01 X-26.8355 Y21.4441
G01 X-26.7113 Y21.5343
G01 X-26.5745 Y21.6040
G01 X-26.4284 Y21.6515
G01 X-26.2768 Y21.6755
G01 X-26.1232 Y21.6755
G01 X-25.9716 Y21.6515
G01 X-25.8255 Y21.6040
G01 X-25.6887 Y21.5343
G01 X-25.5645 Y21.4441
G01 X-25.4667 Y21.3464
G01 X-25.4554 Y21.3367
G01 X-25.4455 Y21.3301
G01 X-25.3763 Y21.2922
G01 X-25.3623 Y21.2860
G01 X-25.3506 Y21.2824
G01 X-25.3386 Y21.2799
G01 X-25.3062 Y21.2762
G01 X-25.2961 Y21.2755
G01 X-9.5042 Y21.2755
G01 X-9.4924 Y21.2764
G01 X-9.4777 Y21.2790
G01 X-9.4049 Y21.3002
G01 X-9.3905 Y21.3055
G01 X-9.3822 Y21.3094
G01 X-9.3742 Y21.3140
G01 X-9.3617 Y21.3229
G01 X-9.3411 Y21.3395
G01 X-9.3335 Y21.3461
G01 X-9.2355 Y21.4441
G01 X-9.1113 Y21.5343
G01 X-8.9745 Y21.6040
G01 X-8.8284 Y21.6515
G01 X-8.6768 Y21.6755
G01 X-8.5232 Y21.6755
G01 X-8.3716 Y21.6515
G01 X-8.2255 Y21.6040
G01 X-8.0887 Y21.5343
G01 X-7.9645 Y21.4441
G01 X-7.8559 Y21.3355
G00 Z2.0000
G00 X-13.6642 Y9.2352
G01 F25.00
G01 Z-0.2799
G01 F120.00
G01 X-13.7099 Y9.2352
G01 X-13.6781 Y9.2670
G01 X-13.6717 Y9.2507
G01 X-13.6642 Y9.2352
G00 Z2.0000
G00 X-15.5500 Y5.0450
G01 F25.00
G01 Z-0.2799
G01 F120.00
G01 X-15.5377 Y5.0456
G01 X-15.5256 Y5.0474
G01 X-15.5137 Y5.0504
G01 X-15.5022 Y5.0545
G01 X-15.4938 Y5.0583
G01 X-15.4831 Y5.0644
G01 X-15.4731 Y5.0715
G01 X-15.4638 Y5.0795
G01 X-15.4553 Y5.0884
G01 X-15.4478 Y5.0980
G01 X-15.4428 Y5.1057
G01 X-15.4370 Y5.1166
G01 X-15.4323 Y5.1279
G01 X-15.4287 Y5.1396
G01 X-15.4264 Y5.1517
G01 X-15.4252 Y5.1639
G01 X-15.4250 Y6.8731
G01 X-15.4259 Y6.8853
G01 X-15.4274 Y6.8944
G01 X-15.4304 Y6.9063
G01 X-15.4345 Y6.9178
G01 X-15.4398 Y6.9289
G01 X-15.4461 Y6.9394
G01 X-15.4515 Y6.9469
G01 X-15.4595 Y6.9562
G01 X-15.4684 Y6.9647
G01 X-15.4806 Y6.9739
G01 X-15.4911 Y6.9802
G01 X-15.5022 Y6.9855
G01 X-15.5137 Y6.9896
G01 X-15.5256 Y6.9926
G01 X-15.5377 Y6.9944
G01 X-15.5500 Y6.9950
G01 X-17.2531 Y6.9950
G01 X-17.2623 Y6.9944
G01 X-17.2744 Y6.9926
G01 X-17.2863 Y6.9896
G01 X-17.2978 Y6.9855
G01 X-17.3089 Y6.9802
G01 X-17.3194 Y6.9739
G01 X-17.3269 Y6.9685
G01 X-17.3362 Y6.9605
G01 X-17.3447 Y6.9516
G01 X-17.3522 Y6.9420
G01 X-17.3588 Y6.9316
G01 X-17.3643 Y6.9207
G01 X-17.3687 Y6.9092
G01 X-17.3720 Y6.8974
G01 X-17.3741 Y6.8853
G01 X-17.3750 Y6.8731
G01 X-17.3750 Y5.1700
G01 X-17.3744 Y5.1577
G01 X-17.3726 Y5.1456
G01 X-17.3705 Y5.1367
G01 X-17.3677 Y5.1279
G01 X-17.3643 Y5.1193
G01 X-17.3602 Y5.1111
G01 X-17.3522 Y5.0980
G01 X-17.3466 Y5.0907
G01 X-17.3405 Y5.0838
G01 X-17.3339 Y5.0774
G01 X-17.3269 Y5.0715
G01 X-17.3194 Y5.0661
G01 X-17.3116 Y5.0612
G01 X-17.3034 Y5.0570
G01 X-17.2950 Y5.0534
G01 X-17.2804 Y5.0487
G01 X-17.2683 Y5.0464
G01 X-17.2531 Y5.0450
G01 X-16.9752 Y5.0450
G01 X-16.9752 Y1.9383
G01 X-18.1383 Y0.7752
G01 X-19.8250 Y0.7752
G01 X-19.8250 Y1.0531
G01 X-19.8264 Y1.0683
G01 X-19.8295 Y1.0833
G01 X-19.8323 Y1.0921
G01 X-19.8357 Y1.1007
G01 X-19.8398 Y1.1089
G01 X-19.8444 Y1.1169
G01 X-19.8496 Y1.1245
G01 X-19.8553 Y1.1316
G01 X-19.8638 Y1.1405
G01 X-19.8707 Y1.1466
G01 X-19.8780 Y1.1522
G01 X-19.8857 Y1.1572
G01 X-19.8938 Y1.1617
G01 X-19.9022 Y1.1655
G01 X-19.9108 Y1.1687
G01 X-19.9196 Y1.1713
G01 X-19.9286 Y1.1732
G01 X-19.9377 Y1.1744
G01 X-19.9500 Y1.1750
G01 X-21.6500 Y1.1750
G01 X-21.6653 Y1.1741
G01 X-21.6744 Y1.1726
G01 X-21.6833 Y1.1705
G01 X-21.6978 Y1.1655
G01 X-21.7116 Y1.1588
G01 X-21.7245 Y1.1504
G01 X-21.7362 Y1.1405
G01 X-21.7426 Y1.1339
G01 X-21.7485 Y1.1269
G01 X-21.7572 Y1.1143
G01 X-21.7643 Y1.1007
G01 X-21.7696 Y1.0863
G01 X-21.7732 Y1.0714
G01 X-21.7744 Y1.0623
G01 X-21.7750 Y1.0531
G01 X-21.7750 Y-0.6531
G01 X-21.7744 Y-0.6623
G01 X-21.7726 Y-0.6744
G01 X-21.7696 Y-0.6863
G01 X-21.7655 Y-0.6978
G01 X-21.7602 Y-0.7089
G01 X-21.7556 Y-0.7169
G01 X-21.7485 Y-0.7269
G01 X-21.7405 Y-0.7362
G01 X-21.7316 Y-0.7447
G01 X-21.7220 Y-0.7522
G01 X-21.7116 Y-0.7588
G01 X-21.7007 Y-0.7643
G01 X-21.6892 Y-0.7687
G01 X-21.6774 Y-0.7720
G01 X-21.6653 Y-0.7741
G01 X-21.6531 Y-0.7750
G01 X-19.9500 Y-0.7750
G01 X-19.9347 Y-0.7741
G01 X-19.9256 Y-0.7726
G01 X-19.9167 Y-0.7705
G01 X-19.9079 Y-0.7677
G01 X-19.8993 Y-0.7643
G01 X-19.8911 Y-0.7602
G01 X-19.8831 Y-0.7556
G01 X-19.8755 Y-0.7504
G01 X-19.8684 Y-0.7447
G01 X-19.8616 Y-0.7384
G01 X-19.8553 Y-0.7316
G01 X-19.8496 Y-0.7245
G01 X-19.8444 Y-0.7169
G01 X-19.8398 Y-0.7089
G01 X-19.8357 Y-0.7007
G01 X-19.8323 Y-0.6921
G01 X-19.8295 Y-0.6833
G01 X-19.8264 Y-0.6683
G01 X-19.8250 Y-0.6531
G01 X-19.8250 Y-0.3752
G01 X-17.9000 Y-0.3752
G01 X-17.8467 Y-0.3727
G01 X-17.8375 Y-0.3717
G01 X-17.7878 Y-0.3642
G01 X-17.7389 Y-0.3521
G01 X-17.7272 Y-0.3485
G01 X-17.6856 Y-0.3336
G01 X-17.6743 Y-0.3290
G01 X-17.6288 Y-0.3073
G01 X-17.5804 Y-0.2783
G01 X-17.5351 Y-0.2447
G01 X-17.4955 Y-0.2089
G01 X-15.9911 Y1.2955
G01 X-15.9553 Y1.3351
G01 X-15.9217 Y1.3804
G01 X-15.8927 Y1.4288
G01 X-15.8710 Y1.4743
G01 X-15.8664 Y1.4856
G01 X-15.8495 Y1.5330
G01 X-15.8358 Y1.5878
G01 X-15.8275 Y1.6436
G01 X-15.8248 Y1.7000
G01 X-15.8248 Y5.0450
G01 X-15.5500 Y5.0450
G00 Z2.0000
G00 X-8.7755 Y6.8824
G01 F25.00
G01 Z-0.2799
G01 F120.00
G01 X-8.7682 Y6.9190
G01 X-8.7405 Y6.9605
G01 X-8.6990 Y6.9882
G01 X-8.6624 Y6.9955
G01 X-6.9376 Y6.9955
G01 X-6.9010 Y6.9882
G01 X-6.8595 Y6.9605
G01 X-6.8318 Y6.9190
G01 X-6.8245 Y6.8824
G01 X-6.8245 Y5.1576
G01 X-6.8318 Y5.1210
G01 X-6.8595 Y5.0795
G01 X-6.9010 Y5.0518
G01 X-6.9376 Y5.0445
G01 X-6.9814 Y5.0444
G01 X-6.9933 Y5.0432
G01 X-7.0021 Y5.0416
G01 X-7.0107 Y5.0394
G01 X-7.0807 Y5.0188
G01 X-7.0923 Y5.0145
G01 X-7.1035 Y5.0090
G01 X-7.1114 Y5.0041
G01 X-7.1190 Y4.9987
G01 X-7.1307 Y4.9885
G01 X-7.1370 Y4.9817
G01 X-7.1828 Y4.9289
G01 X-7.1886 Y4.9216
G01 X-7.1956 Y4.9112
G01 X-7.2014 Y4.9002
G01 X-7.2051 Y4.8915
G01 X-7.2097 Y4.8766
G01 X-7.2216 Y4.8221
G01 X-7.2236 Y4.8103
G01 X-7.2245 Y4.7985
G01 X-7.2245 Y4.1433
G01 X-7.2466 Y4.0321
G01 X-7.2900 Y3.9274
G01 X-7.3530 Y3.8331
G01 X-13.9731 Y-2.7870
G01 X-14.0674 Y-2.8500
G01 X-14.1721 Y-2.8934
G01 X-14.2833 Y-2.9155
G01 X-19.8928 Y-2.9155
G01 X-19.9017 Y-2.9158
G01 X-19.9135 Y-2.9172
G01 X-19.9251 Y-2.9198
G01 X-19.9980 Y-2.9411
G01 X-20.0123 Y-2.9467
G01 X-20.0258 Y-2.9540
G01 X-20.0383 Y-2.9629
G01 X-20.0589 Y-2.9795
G01 X-20.0665 Y-2.9861
G01 X-20.1645 Y-3.0841
G01 X-20.2887 Y-3.1743
G01 X-20.4255 Y-3.2440
G01 X-20.5716 Y-3.2915
G01 X-20.7232 Y-3.3155
G01 X-20.8768 Y-3.3155
G01 X-21.0284 Y-3.2915
G01 X-21.1745 Y-3.2440
G01 X-21.3113 Y-3.1743
G01 X-21.4355 Y-3.0841
G01 X-21.5441 Y-2.9755
G01 X-21.6343 Y-2.8513
G01 X-21.7040 Y-2.7145
G01 X-21.7515 Y-2.5684
G01 X-21.7755 Y-2.4168
G01 X-21.7755 Y-2.2632
G01 X-21.7515 Y-2.1116
G01 X-21.7040 Y-1.9655
G01 X-21.6343 Y-1.8287
G01 X-21.5441 Y-1.7045
G01 X-21.4355 Y-1.5959
G01 X-21.3113 Y-1.5057
G01 X-21.1745 Y-1.4360
G01 X-21.0284 Y-1.3885
G01 X-20.8768 Y-1.3645
G01 X-20.7232 Y-1.3645
G01 X-20.5716 Y-1.3885
G01 X-20.4255 Y-1.4360
G01 X-20.2887 Y-1.5057
G01 X-20.1645 Y-1.5959
G01 X-20.0667 Y-1.6936
G01 X-20.0577 Y-1.7014
G01 X-20.0455 Y-1.7099
G01 X-19.9763 Y-1.7478
G01 X-19.9623 Y-1.7540
G01 X-19.9506 Y-1.7576
G01 X-19.9386 Y-1.7601
G01 X-19.8995 Y-1.7643
G01 X-14.6815 Y-1.7645
G01 X-14.6667 Y-1.7636
G01 X-14.6520 Y-1.7610
G01 X-14.5763 Y-1.7389
G01 X-14.5677 Y-1.7357
G01 X-14.5565 Y-1.7306
G01 X-14.5460 Y-1.7244
G01 X-14.5385 Y-1.7190
G01 X-14.5128 Y-1.6984
G01 X-14.5054 Y-1.6916
G01 X-8.4484 Y4.3654
G01 X-8.4404 Y4.3743
G01 X-8.4333 Y4.3838
G01 X-8.4271 Y4.3939
G01 X-8.3936 Y4.4553
G01 X-8.3895 Y4.4635
G01 X-8.3860 Y4.4720
G01 X-8.3824 Y4.4837
G01 X-8.3799 Y4.4957
G01 X-8.3757 Y4.5348
G01 X-8.3755 Y4.7955
G01 X-8.3758 Y4.8044
G01 X-8.3772 Y4.8162
G01 X-8.3798 Y4.8279
G01 X-8.4002 Y4.8978
G01 X-8.4055 Y4.9123
G01 X-8.4110 Y4.9235
G01 X-8.4176 Y4.9340
G01 X-8.4252 Y4.9438
G01 X-8.4337 Y4.9528
G01 X-8.4960 Y5.0067
G01 X-8.5062 Y5.0139
G01 X-8.5198 Y5.0214
G01 X-8.5314 Y5.0262
G01 X-8.5434 Y5.0297
G01 X-8.6038 Y5.0428
G01 X-8.6126 Y5.0439
G01 X-8.6215 Y5.0445
G01 X-8.6624 Y5.0445
G01 X-8.6990 Y5.0518
G01 X-8.7405 Y5.0795
G01 X-8.7682 Y5.1210
G01 X-8.7755 Y5.1576
G01 X-8.7755 Y6.8824
G00 Z2.0000
G00 X-21.7755 Y1.0624
G01 F25.00
G01 Z-0.2799
G01 F120.00
G01 X-21.7682 Y1.0990
G01 X-21.7405 Y1.1405
G01 X-21.6990 Y1.1682
G01 X-21.6624 Y1.1755
G01 X-19.9376 Y1.1755
G01 X-19.9010 Y1.1682
G01 X-19.8595 Y1.1405
