(G-CODE GENERATED BY FLATCAM v8.994 - www.flatcam.org - Version Date: 2020/11/7)

(Name: M¾dulo Patas-B_Cu.gbr_panelized_ncc_cnc)
(Type: G-code from Geometry)
(Units: MM)

(Created on Saturday, 04 October 2025 at 00:35)


G01 F120.00

M5
G00 Z15.0000
G00 X0.0000 Y0.0000
T1
M6    
(MSG, Change to Tool Dia = 0.1536)
M0
G00 Z15.0000

M03 S10000.0
G01 F120.00
G00 X6.0263 Y1.0671
G01 F25.00
G01 Z-0.1000
G01 F120.00
G01 X6.0364 Y1.1178
G01 X6.0748 Y1.1752
G01 X6.1323 Y1.2136
G01 X6.1829 Y1.2237
G01 X6.2274 Y1.2237
G01 X6.2346 Y1.2242
G01 X6.2436 Y1.2259
G01 X6.3196 Y1.2483
G01 X6.3266 Y1.2513
G01 X6.3333 Y1.2551
G01 X6.3395 Y1.2594
G01 X6.3439 Y1.2631
G01 X6.3506 Y1.2699
G01 X6.3976 Y1.3242
G01 X6.4022 Y1.3303
G01 X6.4061 Y1.3369
G01 X6.4101 Y1.3456
G01 X6.4129 Y1.3548
G01 X6.4246 Y1.4082
G01 X6.4261 Y1.4190
G01 X6.4263 Y7.5235
G01 X6.4503 Y7.6440
G01 X6.4973 Y7.7575
G01 X6.5656 Y7.8597
G01 X7.8504 Y9.1445
G01 X7.9525 Y9.2127
G01 X8.0660 Y9.2597
G01 X8.1865 Y9.2837
G01 X8.5465 Y9.2838
G01 X8.5537 Y9.2845
G01 X8.5627 Y9.2863
G01 X8.6333 Y9.3070
G01 X8.6421 Y9.3105
G01 X8.6520 Y9.3159
G01 X8.6580 Y9.3204
G01 X8.6818 Y9.3397
G01 X8.7831 Y9.4408
G01 X8.9135 Y9.5355
G01 X9.0571 Y9.6087
G01 X9.2103 Y9.6585
G01 X9.3695 Y9.6837
G01 X9.5306 Y9.6837
G01 X9.6897 Y9.6585
G01 X9.8430 Y9.6087
G01 X9.9866 Y9.5355
G01 X10.1169 Y9.4408
G01 X10.2152 Y9.3425
G01 X10.2221 Y9.3364
G01 X10.2280 Y9.3322
G01 X10.2941 Y9.2959
G01 X10.3044 Y9.2913
G01 X10.3115 Y9.2890
G01 X10.3189 Y9.2875
G01 X10.3552 Y9.2837
G01 X17.1465 Y9.2838
G01 X17.1556 Y9.2848
G01 X17.1627 Y9.2863
G01 X17.2315 Y9.3065
G01 X17.2421 Y9.3105
G01 X17.2504 Y9.3149
G01 X17.2580 Y9.3204
G01 X17.2833 Y9.3411
G01 X17.3831 Y9.4408
G01 X17.5135 Y9.5355
G01 X17.6571 Y9.6087
G01 X17.8103 Y9.6585
G01 X17.9695 Y9.6837
G01 X18.1306 Y9.6837
G01 X18.2897 Y9.6585
G01 X18.4430 Y9.6087
G01 X18.5866 Y9.5355
G01 X18.7169 Y9.4408
G01 X18.8309 Y9.3269
G01 X18.8748 Y9.2665
G01 X18.8818 Y9.2581
G01 X18.8900 Y9.2508
G01 X18.9468 Y9.2070
G01 X18.9532 Y9.2028
G01 X18.9600 Y9.1993
G01 X18.9670 Y9.1964
G01 X18.9725 Y9.1947
G01 X19.0230 Y9.1850
G01 X19.0336 Y9.1838
G01 X25.7465 Y9.1838
G01 X25.7556 Y9.1848
G01 X25.7627 Y9.1863
G01 X25.8315 Y9.2065
G01 X25.8421 Y9.2105
G01 X25.8504 Y9.2149
G01 X25.8580 Y9.2204
G01 X25.8833 Y9.2411
G01 X25.9831 Y9.3408
G01 X26.1135 Y9.4355
G01 X26.2571 Y9.5087
G01 X26.4103 Y9.5585
G01 X26.5695 Y9.5837
G01 X26.7306 Y9.5837
G01 X26.8897 Y9.5585
G01 X27.0430 Y9.5087
G01 X27.1866 Y9.4355
G01 X27.3169 Y9.3408
G01 X27.3249 Y9.3331
G01 X27.3322 Y9.3276
G01 X27.3384 Y9.3238
G01 X27.3997 Y9.2903
G01 X27.4066 Y9.2870
G01 X27.4137 Y9.2843
G01 X27.4230 Y9.2821
G01 X27.4325 Y9.2810
G01 X27.4401 Y9.2810
G01 X27.5155 Y9.2865
G01 X27.5249 Y9.2882
G01 X27.5359 Y9.2918
G01 X27.5461 Y9.2971
G01 X27.5921 Y9.3266
G01 X27.5994 Y9.3320
G01 X27.6049 Y9.3369
G01 X36.3075 Y18.0395
G01 X36.3124 Y18.0449
G01 X36.3168 Y18.0508
G01 X36.3206 Y18.0570
G01 X36.3541 Y18.1184
G01 X36.3581 Y18.1269
G01 X36.3605 Y18.1340
G01 X36.3626 Y18.1432
G01 X36.3663 Y18.1795
G01 X36.3663 Y19.4755
G01 X36.3660 Y19.4828
G01 X36.3649 Y19.4900
G01 X36.3632 Y19.4971
G01 X36.3430 Y19.5660
G01 X36.3395 Y19.5749
G01 X36.3350 Y19.5833
G01 X36.3282 Y19.5925
G01 X36.3216 Y19.5993
G01 X36.2673 Y19.6463
G01 X36.2613 Y19.6511
G01 X36.2548 Y19.6552
G01 X36.2479 Y19.6586
G01 X36.2408 Y19.6613
G01 X36.2334 Y19.6633
G01 X36.1819 Y19.6745
G01 X36.1746 Y19.6758
G01 X36.1674 Y19.6763
G01 X36.1229 Y19.6763
G01 X36.0723 Y19.6864
G01 X36.0148 Y19.7248
G01 X35.9764 Y19.7822
G01 X35.9663 Y19.8329
G01 X35.9663 Y21.5671
G01 X35.9764 Y21.6178
G01 X36.0148 Y21.6752
G01 X36.0723 Y21.7136
G01 X36.1229 Y21.7237
G01 X37.8571 Y21.7237
G01 X37.9078 Y21.7136
G01 X37.9653 Y21.6752
G01 X38.0036 Y21.6178
G01 X38.0137 Y21.5671
G01 X38.0137 Y19.8329
G01 X38.0036 Y19.7822
G01 X37.9653 Y19.7248
G01 X37.9078 Y19.6864
G01 X37.8571 Y19.6763
G01 X37.8127 Y19.6763
G01 X37.8054 Y19.6758
G01 X37.8000 Y19.6749
G01 X37.7929 Y19.6732
G01 X37.7240 Y19.6529
G01 X37.7186 Y19.6510
G01 X37.7117 Y19.6478
G01 X37.7020 Y19.6417
G01 X37.6976 Y19.6382
G01 X37.6920 Y19.6329
G01 X37.6425 Y19.5758
G01 X37.6368 Y19.5681
G01 X37.6331 Y19.5614
G01 X37.6293 Y19.5526
G01 X37.6267 Y19.5433
G01 X37.6151 Y19.4900
G01 X37.6141 Y19.4828
G01 X37.6137 Y19.4755
G01 X37.6137 Y17.7786
G01 X37.5898 Y17.6581
G01 X37.5427 Y17.5446
G01 X37.4745 Y17.4424
G01 X29.5586 Y9.5265
G01 X29.5514 Y9.5182
G01 X29.5464 Y9.5106
G01 X29.5111 Y9.4460
G01 X29.5087 Y9.4408
G01 X29.5060 Y9.4336
G01 X29.5035 Y9.4225
G01 X29.5027 Y9.4149
G01 X29.5027 Y9.4073
G01 X29.5078 Y9.3357
G01 X29.5090 Y9.3262
G01 X29.5115 Y9.3170
G01 X29.5158 Y9.3065
G01 X29.5207 Y9.2983
G01 X29.5659 Y9.2377
G01 X29.5723 Y9.2306
G01 X29.5794 Y9.2243
G01 X29.5874 Y9.2190
G01 X29.5959 Y9.2147
G01 X29.6666 Y9.1882
G01 X29.6758 Y9.1857
G01 X29.6871 Y9.1842
G01 X29.7005 Y9.1837
G01 X34.3446 Y9.1837
G01 X34.3537 Y9.1845
G01 X34.3627 Y9.1863
G01 X34.4315 Y9.2065
G01 X34.4421 Y9.2105
G01 X34.4504 Y9.2149
G01 X34.4580 Y9.2204
G01 X34.4833 Y9.2411
G01 X34.5831 Y9.3408
G01 X34.7135 Y9.4355
G01 X34.8571 Y9.5087
G01 X35.0103 Y9.5585
G01 X35.1695 Y9.5837
G01 X35.3306 Y9.5837
G01 X35.4897 Y9.5585
G01 X35.6430 Y9.5087
G01 X35.7866 Y9.4355
G01 X35.9169 Y9.3408
G01 X36.0309 Y9.2269
G01 X36.1256 Y9.0965
G01 X36.1987 Y8.9530
G01 X36.2485 Y8.7997
G01 X36.2737 Y8.6406
G01 X36.2737 Y8.4794
G01 X36.2485 Y8.3203
G01 X36.1987 Y8.1670
G01 X36.1256 Y8.0235
G01 X36.0309 Y7.8931
G01 X35.9169 Y7.7792
G01 X35.7866 Y7.6845
G01 X35.6430 Y7.6113
G01 X35.4897 Y7.5615
G01 X35.3306 Y7.5363
G01 X35.1695 Y7.5363
G01 X35.0103 Y7.5615
G01 X34.8571 Y7.6113
G01 X34.7135 Y7.6845
G01 X34.5831 Y7.7792
G01 X34.4848 Y7.8775
G01 X34.4794 Y7.8824
G01 X34.4735 Y7.8868
G01 X34.4673 Y7.8906
G01 X34.4060 Y7.9241
G01 X34.3975 Y7.9281
G01 X34.3885 Y7.9310
G01 X34.3811 Y7.9325
G01 X34.3449 Y7.9363
G01 X27.5554 Y7.9363
G01 X27.5463 Y7.9355
G01 X27.5374 Y7.9337
G01 X27.4686 Y7.9135
G01 X27.4580 Y7.9095
G01 X27.4497 Y7.9051
G01 X27.4420 Y7.8996
G01 X27.4167 Y7.8789
G01 X27.3169 Y7.7792
G01 X27.1866 Y7.6845
G01 X27.0430 Y7.6113
G01 X26.8897 Y7.5615
G01 X26.7306 Y7.5363
G01 X26.5695 Y7.5363
G01 X26.4103 Y7.5615
G01 X26.2571 Y7.6113
G01 X26.1135 Y7.6845
G01 X25.9831 Y7.7792
G01 X25.8848 Y7.8775
G01 X25.8794 Y7.8824
G01 X25.8720 Y7.8878
G01 X25.8060 Y7.9241
G01 X25.7975 Y7.9281
G01 X25.7885 Y7.9310
G01 X25.7811 Y7.9325
G01 X25.7469 Y7.9362
G01 X18.8572 Y7.9363
G01 X18.8463 Y7.9355
G01 X18.8356 Y7.9332
G01 X18.7668 Y7.9130
G01 X18.7597 Y7.9103
G01 X18.7529 Y7.9070
G01 X18.7435 Y7.9008
G01 X18.7172 Y7.8794
G01 X18.5866 Y7.7845
G01 X18.4430 Y7.7113
G01 X18.2897 Y7.6615
G01 X18.1306 Y7.6363
G01 X17.9695 Y7.6363
G01 X17.8103 Y7.6615
G01 X17.6571 Y7.7113
G01 X17.5135 Y7.7845
G01 X17.3831 Y7.8792
G01 X17.2848 Y7.9775
G01 X17.2780 Y7.9836
G01 X17.2720 Y7.9878
G01 X17.2060 Y8.0241
G01 X17.1975 Y8.0281
G01 X17.1903 Y8.0305
G01 X17.1811 Y8.0325
G01 X17.1469 Y8.0362
G01 X10.3572 Y8.0363
G01 X10.3463 Y8.0355
G01 X10.3356 Y8.0332
G01 X10.2668 Y8.0130
G01 X10.2580 Y8.0095
G01 X10.2497 Y8.0051
G01 X10.2420 Y7.9996
G01 X10.2167 Y7.9789
G01 X10.1169 Y7.8792
G01 X9.9866 Y7.7845
G01 X9.8430 Y7.7113
G01 X9.6897 Y7.6615
G01 X9.5306 Y7.6363
G01 X9.3695 Y7.6363
G01 X9.2103 Y7.6615
G01 X9.0571 Y7.7113
G01 X8.9135 Y7.7845
G01 X8.7831 Y7.8792
G01 X8.7081 Y7.9542
G01 X8.6998 Y7.9613
G01 X8.6906 Y7.9673
G01 X8.6276 Y8.0016
G01 X8.6189 Y8.0055
G01 X8.6098 Y8.0082
G01 X8.6004 Y8.0097
G01 X8.5927 Y8.0101
G01 X8.5173 Y8.0050
G01 X8.5059 Y8.0033
G01 X8.4986 Y8.0012
G01 X8.4932 Y7.9992
G01 X8.4829 Y7.9940
G01 X8.4354 Y7.9635
G01 X8.4296 Y7.9591
G01 X8.4255 Y7.9554
G01 X7.7313 Y7.2612
G01 X7.7254 Y7.2543
G01 X7.7203 Y7.2466
G01 X7.6860 Y7.1837
G01 X7.6827 Y7.1769
G01 X7.6795 Y7.1681
G01 X7.6775 Y7.1589
G01 X7.6738 Y7.1247
G01 X7.6738 Y1.4208
G01 X7.6745 Y1.4136
G01 X7.6763 Y1.4046
G01 X7.6983 Y1.3304
G01 X7.7022 Y1.3217
G01 X7.7072 Y1.3136
G01 X7.7131 Y1.3061
G01 X7.7199 Y1.2994
G01 X7.7757 Y1.2512
G01 X7.7852 Y1.2448
G01 X7.7921 Y1.2414
G01 X7.7975 Y1.2393
G01 X7.8067 Y1.2367
G01 X7.8636 Y1.2245
G01 X7.8727 Y1.2237
G01 X7.9171 Y1.2237
G01 X7.9678 Y1.2136
G01 X8.0253 Y1.1752
G01 X8.0636 Y1.1178
G01 X8.0737 Y1.0671
G01 X8.0737 Y-0.6671
G01 X8.0636 Y-0.7178
G01 X8.0253 Y-0.7752
G01 X7.9678 Y-0.8136
G01 X7.9171 Y-0.8237
G01 X6.1829 Y-0.8237
G01 X6.1323 Y-0.8136
G01 X6.0748 Y-0.7752
G01 X6.0364 Y-0.7178
G01 X6.0263 Y-0.6671
G01 X6.0263 Y1.0671
G01 X6.3338 Y1.1882
G01 X6.3438 Y1.1918
G01 X6.3515 Y1.1951
G01 X6.3606 Y1.1999
G01 X6.3710 Y1.2063
G01 X6.3792 Y1.2125
G01 X6.3870 Y1.2192
G01 X6.3942 Y1.2265
G01 X6.4455 Y1.2857
G01 X6.4537 Y1.2968
G01 X6.4616 Y1.3104
G01 X6.4616 Y1.1882
G01 X6.3338 Y1.1882
G00 Z2.0000
G00 X7.7608 Y1.1882
G01 F25.00
G01 Z-0.1000
G01 F120.00
G01 X7.6385 Y1.1882
G01 X7.6385 Y1.3155
G01 X7.6411 Y1.3080
G01 X7.6445 Y1.2999
G01 X7.6516 Y1.2865
G01 X7.6604 Y1.2735
G01 X7.6703 Y1.2619
G01 X7.6791 Y1.2535
G01 X7.7357 Y1.2045
G01 X7.7485 Y1.1953
G01 X7.7608 Y1.1882
G00 Z2.0000
G00 X7.8309 Y-4.2131
G01 F25.00
G01 Z-0.1000
G01 F120.00
G01 X7.9256 Y-4.3435
G01 X7.9987 Y-4.4870
G01 X8.0485 Y-4.6403
G01 X8.0737 Y-4.7994
G01 X8.0737 Y-4.9606
G01 X8.0485 Y-5.1197
G01 X7.9987 Y-5.2730
G01 X7.9256 Y-5.4165
G01 X7.8309 Y-5.5469
G01 X7.7169 Y-5.6608
G01 X7.5866 Y-5.7555
G01 X7.4430 Y-5.8287
G01 X7.2897 Y-5.8785
G01 X7.1306 Y-5.9037
G01 X6.9695 Y-5.9037
G01 X6.8103 Y-5.8785
G01 X6.6571 Y-5.8287
G01 X6.5135 Y-5.7555
G01 X6.3831 Y-5.6608
G01 X6.2692 Y-5.5469
G01 X6.1745 Y-5.4165
G01 X6.1013 Y-5.2730
G01 X6.0515 Y-5.1197
G01 X6.0263 Y-4.9606
G01 X6.0263 Y-4.7994
G01 X6.0515 Y-4.6403
G01 X6.1013 Y-4.4870
G01 X6.1745 Y-4.3435
G01 X6.2692 Y-4.2131
G01 X6.3831 Y-4.0992
G01 X6.5135 Y-4.0045
G01 X6.6571 Y-3.9313
G01 X6.8103 Y-3.8815
G01 X6.9695 Y-3.8563
G01 X7.1306 Y-3.8563
G01 X7.2897 Y-3.8815
G01 X7.4430 Y-3.9313
G01 X7.5866 Y-4.0045
G01 X7.7169 Y-4.0992
G01 X7.8309 Y-4.2131
G00 Z2.0000
G00 X7.0463 Y-5.8067
G01 F25.00
G01 Z-0.1000
G01 F120.00
G01 X7.0538 Y-5.8067
G01 X7.1409 Y-5.8023
G01 X7.2308 Y-5.7890
G01 X7.3191 Y-5.7669
G01 X7.4047 Y-5.7363
G01 X7.4869 Y-5.6974
G01 X7.5649 Y-5.6506
G01 X7.6380 Y-5.5964
G01 X7.7054 Y-5.5353
G01 X7.7665 Y-5.4680
G01 X7.8206 Y-5.3949
G01 X7.8674 Y-5.3169
G01 X7.9063 Y-5.2347
G01 X7.9369 Y-5.1490
G01 X7.9590 Y-5.0608
G01 X7.9724 Y-4.9708
G01 X7.9768 Y-4.8800
G01 X7.9724 Y-4.7892
G01 X7.9590 Y-4.6992
G01 X7.9369 Y-4.6110
G01 X7.9063 Y-4.5253
G01 X7.8674 Y-4.4431
G01 X7.8206 Y-4.3651
G01 X7.7665 Y-4.2920
G01 X7.7054 Y-4.2247
G01 X7.6380 Y-4.1636
G01 X7.5649 Y-4.1094
G01 X7.4869 Y-4.0626
G01 X7.4047 Y-4.0237
G01 X7.3191 Y-3.9931
G01 X7.2308 Y-3.9710
G01 X7.1409 Y-3.9577
G01 X7.0500 Y-3.9532
G01 X6.9592 Y-3.9577
G01 X6.8692 Y-3.9710
G01 X6.7810 Y-3.9931
G01 X6.6954 Y-4.0237
G01 X6.6131 Y-4.0626
G01 X6.5351 Y-4.1094
G01 X6.4621 Y-4.1636
G01 X6.3947 Y-4.2247
G01 X6.3336 Y-4.2920
G01 X6.2794 Y-4.3651
G01 X6.2327 Y-4.4431
G01 X6.1938 Y-4.5253
G01 X6.1631 Y-4.6110
G01 X6.1410 Y-4.6992
G01 X6.1277 Y-4.7892
G01 X6.1232 Y-4.8800
G01 X6.1277 Y-4.9708
G01 X6.1410 Y-5.0608
G01 X6.1631 Y-5.1490
G01 X6.1938 Y-5.2347
G01 X6.2327 Y-5.3169
G01 X6.2794 Y-5.3949
G01 X6.3336 Y-5.4680
G01 X6.3947 Y-5.5353
G01 X6.4621 Y-5.5964
G01 X6.5351 Y-5.6506
G01 X6.6131 Y-5.6974
G01 X6.6954 Y-5.7363
G01 X6.7810 Y-5.7669
G01 X6.8692 Y-5.7890
G01 X6.9592 Y-5.8023
G01 X7.0463 Y-5.8067
G00 Z2.0000
G00 X7.8309 Y-6.7531
G01 F25.00
G01 Z-0.1000
G01 F120.00
G01 X7.9256 Y-6.8835
G01 X7.9987 Y-7.0270
G01 X8.0485 Y-7.1803
G01 X8.0737 Y-7.3394
G01 X8.0737 Y-7.5006
G01 X8.0485 Y-7.6597
G01 X7.9987 Y-7.8130
G01 X7.9256 Y-7.9565
G01 X7.8309 Y-8.0869
G01 X7.7169 Y-8.2008
G01 X7.5866 Y-8.2955
G01 X7.4430 Y-8.3687
G01 X7.2897 Y-8.4185
G01 X7.1306 Y-8.4437
G01 X6.9695 Y-8.4437
G01 X6.8103 Y-8.4185
G01 X6.6571 Y-8.3687
G01 X6.5135 Y-8.2955
G01 X6.3831 Y-8.2008
G01 X6.2692 Y-8.0869
G01 X6.1745 Y-7.9565
G01 X6.1013 Y-7.8130
G01 X6.0515 Y-7.6597
G01 X6.0263 Y-7.5006
G01 X6.0263 Y-7.3394
G01 X6.0515 Y-7.1803
G01 X6.1013 Y-7.0270
G01 X6.1745 Y-6.8835
G01 X6.2692 Y-6.7531
G01 X6.3831 Y-6.6392
G01 X6.5135 Y-6.5445
G01 X6.6571 Y-6.4713
G01 X6.8103 Y-6.4215
G01 X6.9695 Y-6.3963
G01 X7.1306 Y-6.3963
G01 X7.2897 Y-6.4215
G01 X7.4430 Y-6.4713
G01 X7.5866 Y-6.5445
G01 X7.7169 Y-6.6392
G01 X7.8309 Y-6.7531
G00 Z2.0000
G00 X7.0463 Y-8.3467
G01 F25.00
G01 Z-0.1000
G01 F120.00
G01 X7.0538 Y-8.3467
G01 X7.1409 Y-8.3423
G01 X7.2308 Y-8.3290
G01 X7.3191 Y-8.3069
G01 X7.4047 Y-8.2763
G01 X7.4869 Y-8.2374
G01 X7.5649 Y-8.1906
G01 X7.6380 Y-8.1364
G01 X7.7054 Y-8.0753
G01 X7.7665 Y-8.0080
G01 X7.8206 Y-7.9349
G01 X7.8674 Y-7.8569
G01 X7.9063 Y-7.7747
G01 X7.9369 Y-7.6890
G01 X7.9590 Y-7.6008
G01 X7.9724 Y-7.5108
G01 X7.9768 Y-7.4200
G01 X7.9724 Y-7.3292
G01 X7.9590 Y-7.2392
G01 X7.9369 Y-7.1510
G01 X7.9063 Y-7.0653
G01 X7.8674 Y-6.9831
G01 X7.8206 Y-6.9051
G01 X7.7665 Y-6.8320
G01 X7.7054 Y-6.7647
G01 X7.6380 Y-6.7036
G01 X7.5649 Y-6.6494
G01 X7.4869 Y-6.6026
G01 X7.4047 Y-6.5637
G01 X7.3191 Y-6.5331
G01 X7.2308 Y-6.5110
G01 X7.1409 Y-6.4977
G01 X7.0500 Y-6.4932
G01 X6.9592 Y-6.4977
G01 X6.8692 Y-6.5110
G01 X6.7810 Y-6.5331
G01 X6.6954 Y-6.5637
G01 X6.6131 Y-6.6026
G01 X6.5351 Y-6.6494
G01 X6.4621 Y-6.7036
G01 X6.3947 Y-6.7647
G01 X6.3336 Y-6.8320
G01 X6.2794 Y-6.9051
G01 X6.2327 Y-6.9831
G01 X6.1938 Y-7.0653
G01 X6.1631 Y-7.1510
G01 X6.1410 Y-7.2392
G01 X6.1277 Y-7.3292
G01 X6.1232 Y-7.4200
G01 X6.1277 Y-7.5108
G01 X6.1410 Y-7.6008
G01 X6.1631 Y-7.6890
G01 X6.1938 Y-7.7747
G01 X6.2327 Y-7.8569
G01 X6.2794 Y-7.9349
G01 X6.3336 Y-8.0080
G01 X6.3947 Y-8.0753
G01 X6.4621 Y-8.1364
G01 X6.5351 Y-8.1906
G01 X6.6131 Y-8.2374
G01 X6.6954 Y-8.2763
G01 X6.7810 Y-8.3069
G01 X6.8692 Y-8.3290
G01 X6.9592 Y-8.3423
G01 X7.0463 Y-8.3467
G00 Z2.0000
G00 X7.8309 Y-9.2931
G01 F25.00
G01 Z-0.1000
G01 F120.00
G01 X7.9256 Y-9.4235
G01 X7.9987 Y-9.5670
G01 X8.0485 Y-9.7203
G01 X8.0737 Y-9.8794
G01 X8.0737 Y-10.0406
G01 X8.0485 Y-10.1997
G01 X7.9987 Y-10.3530
G01 X7.9256 Y-10.4965
G01 X7.8309 Y-10.6269
G01 X7.7169 Y-10.7408
G01 X7.5866 Y-10.8355
G01 X7.4430 Y-10.9087
G01 X7.2897 Y-10.9585
G01 X7.1306 Y-10.9837
G01 X6.9695 Y-10.9837
G01 X6.8103 Y-10.9585
G01 X6.6571 Y-10.9087
G01 X6.5135 Y-10.8355
G01 X6.3831 Y-10.7408
G01 X6.2692 Y-10.6269
G01 X6.1745 Y-10.4965
G01 X6.1013 Y-10.3530
G01 X6.0515 Y-10.1997
G01 X6.0263 Y-10.0406
G01 X6.0263 Y-9.8794
G01 X6.0515 Y-9.7203
G01 X6.1013 Y-9.5670
G01 X6.1745 Y-9.4235
G01 X6.2692 Y-9.2931
G01 X6.3831 Y-9.1792
G01 X6.5135 Y-9.0845
G01 X6.6571 Y-9.0113
G01 X6.8103 Y-8.9615
G01 X6.9695 Y-8.9363
G01 X7.1306 Y-8.9363
G01 X7.2897 Y-8.9615
G01 X7.4430 Y-9.0113
G01 X7.5866 Y-9.0845
G01 X7.7169 Y-9.1792
G01 X7.8309 Y-9.2931
G00 Z2.0000
G00 X7.0463 Y-10.8867
G01 F25.00
G01 Z-0.1000
G01 F120.00
G01 X7.0538 Y-10.8867
G01 X7.1409 Y-10.8823
G01 X7.2308 Y-10.8690
G01 X7.3191 Y-10.8469
G01 X7.4047 Y-10.8163
G01 X7.4869 Y-10.7774
G01 X7.5649 Y-10.7306
G01 X7.6380 Y-10.6764
G01 X7.7054 Y-10.6153
G01 X7.7665 Y-10.5480
G01 X7.8206 Y-10.4749
G01 X7.8674 Y-10.3969
G01 X7.9063 Y-10.3147
G01 X7.9369 Y-10.2290
G01 X7.9590 Y-10.1408
G01 X7.9724 Y-10.0508
G01 X7.9768 Y-9.9600
G01 X7.9724 Y-9.8692
G01 X7.9590 Y-9.7792
G01 X7.9369 Y-9.6910
G01 X7.9063 Y-9.6053
G01 X7.8674 Y-9.5231
G01 X7.8206 Y-9.4451
G01 X7.7665 Y-9.3720
G01 X7.7054 Y-9.3047
G01 X7.6380 Y-9.2436
G01 X7.5649 Y-9.1894
G01 X7.4869 Y-9.1426
G01 X7.4047 Y-9.1037
G01 X7.3191 Y-9.0731
G01 X7.2308 Y-9.0510
G01 X7.1409 Y-9.0377
G01 X7.0500 Y-9.0332
G01 X6.9592 Y-9.0377
G01 X6.8692 Y-9.0510
G01 X6.7810 Y-9.0731
G01 X6.6954 Y-9.1037
G01 X6.6131 Y-9.1426
G01 X6.5351 Y-9.1894
G01 X6.4621 Y-9.2436
G01 X6.3947 Y-9.3047
G01 X6.3336 Y-9.3720
G01 X6.2794 Y-9.4451
G01 X6.2327 Y-9.5231
G01 X6.1938 Y-9.6053
G01 X6.1631 Y-9.6910
G01 X6.1410 Y-9.7792
G01 X6.1277 Y-9.8692
G01 X6.1232 Y-9.9600
G01 X6.1277 Y-10.0508
G01 X6.1410 Y-10.1408
G01 X6.1631 Y-10.2290
G01 X6.1938 Y-10.3147
G01 X6.2327 Y-10.3969
G01 X6.2794 Y-10.4749
G01 X6.3336 Y-10.5480
G01 X6.3947 Y-10.6153
G01 X6.4621 Y-10.6764
G01 X6.5351 Y-10.7306
G01 X6.6131 Y-10.7774
G01 X6.6954 Y-10.8163
G01 X6.7810 Y-10.8469
G01 X6.8692 Y-10.8690
G01 X6.9592 Y-10.8823
G01 X7.0463 Y-10.8867
G00 Z2.0000
G00 X7.8309 Y-11.8331
G01 F25.00
G01 Z-0.1000
G01 F120.00
G01 X7.9256 Y-11.9635
G01 X7.9987 Y-12.1070
G01 X8.0485 Y-12.2603
G01 X8.0737 Y-12.4194
G01 X8.0737 Y-12.5806
G01 X8.0485 Y-12.7397
G01 X7.9987 Y-12.8930
G01 X7.9256 Y-13.0365
G01 X7.8309 Y-13.1669
G01 X7.7169 Y-13.2808
G01 X7.5866 Y-13.3755
G01 X7.4430 Y-13.4487
G01 X7.2897 Y-13.4985
G01 X7.1306 Y-13.5237
G01 X6.9695 Y-13.5237
G01 X6.8103 Y-13.4985
G01 X6.6571 Y-13.4487
G01 X6.5135 Y-13.3755
G01 X6.3831 Y-13.2808
G01 X6.2692 Y-13.1669
G01 X6.1745 Y-13.0365
G01 X6.1013 Y-12.8930
G01 X6.0515 Y-12.7397
G01 X6.0263 Y-12.5806
G01 X6.0263 Y-12.4194
G01 X6.0515 Y-12.2603
G01 X6.1013 Y-12.1070
G01 X6.1745 Y-11.9635
G01 X6.2692 Y-11.8331
G01 X6.3831 Y-11.7192
G01 X6.5135 Y-11.6245
G01 X6.6571 Y-11.5513
G01 X6.8103 Y-11.5015
G01 X6.9695 Y-11.4763
G01 X7.1306 Y-11.4763
G01 X7.2897 Y-11.5015
G01 X7.4430 Y-11.5513
G01 X7.5866 Y-11.6245
G01 X7.7169 Y-11.7192
G01 X7.8309 Y-11.8331
G00 Z2.0000
G00 X7.0463 Y-13.4267
G01 F25.00
G01 Z-0.1000
G01 F120.00
G01 X7.0538 Y-13.4267
G01 X7.1409 Y-13.4223
G01 X7.2308 Y-13.4090
G01 X7.3191 Y-13.3869
G01 X7.4047 Y-13.3563
G01 X7.4869 Y-13.3174
G01 X7.5649 Y-13.2706
G01 X7.6380 Y-13.2164
G01 X7.7054 Y-13.1553
G01 X7.7665 Y-13.0880
G01 X7.8206 Y-13.0149
G01 X7.8674 Y-12.9369
G01 X7.9063 Y-12.8547
G01 X7.9369 Y-12.7690
G01 X7.9590 Y-12.6808
G01 X7.9724 Y-12.5908
G01 X7.9768 Y-12.5000
G01 X7.9724 Y-12.4092
G01 X7.9590 Y-12.3192
G01 X7.9369 Y-12.2310
G01 X7.9063 Y-12.1453
G01 X7.8674 Y-12.0631
G01 X7.8206 Y-11.9851
G01 X7.7665 Y-11.9120
G01 X7.7054 Y-11.8447
G01 X7.6380 Y-11.7836
G01 X7.5649 Y-11.7294
G01 X7.4869 Y-11.6826
G01 X7.4047 Y-11.6437
G01 X7.3191 Y-11.6131
G01 X7.2308 Y-11.5910
G01 X7.1409 Y-11.5777
G01 X7.0500 Y-11.5732
G01 X6.9592 Y-11.5777
G01 X6.8692 Y-11.5910
G01 X6.7810 Y-11.6131
G01 X6.6954 Y-11.6437
G01 X6.6131 Y-11.6826
G01 X6.5351 Y-11.7294
G01 X6.4621 Y-11.7836
G01 X6.3947 Y-11.8447
G01 X6.3336 Y-11.9120
G01 X6.2794 Y-11.9851
G01 X6.2327 Y-12.0631
G01 X6.1938 Y-12.1453
G01 X6.1631 Y-12.2310
G01 X6.1410 Y-12.3192
G01 X6.1277 Y-12.4092
G01 X6.1232 Y-12.5000
G01 X6.1277 Y-12.5908
G01 X6.1410 Y-12.6808
G01 X6.1631 Y-12.7690
G01 X6.1938 Y-12.8547
G01 X6.2327 Y-12.9369
G01 X6.2794 Y-13.0149
G01 X6.3336 Y-13.0880
G01 X6.3947 Y-13.1553
G01 X6.4621 Y-13.2164
G01 X6.5351 Y-13.2706
G01 X6.6131 Y-13.3174
G01 X6.6954 Y-13.3563
G01 X6.7810 Y-13.3869
G01 X6.8692 Y-13.4090
G01 X6.9592 Y-13.4223
G01 X7.0463 Y-13.4267
G00 Z2.0000
G00 X7.9855 Y-15.6385
G01 F25.00
G01 Z-0.1000
G01 F120.00
G01 X8.0280 Y-15.5674
G01 X8.0348 Y-15.5542
G01 X8.0510 Y-15.5200
G01 X8.0672 Y-15.5299
G01 X8.0849 Y-15.5391
G01 X7.9855 Y-15.6385
G00 Z2.0000
G00 X7.5259 Y-16.0429
G01 F25.00
G01 Z-0.1000
G01 F120.00
G01 X7.5392 Y-16.0609
G01 X7.5487 Y-16.0753
G01 X7.6485 Y-15.9755
G01 X7.5758 Y-16.0188
G01 X7.5639 Y-16.0249
G01 X7.5259 Y-16.0429
G01 X7.4290 Y-16.0182
G01 X7.4416 Y-16.0328
G01 X7.4858 Y-16.0918
G01 X7.4932 Y-16.1025
G01 X7.4999 Y-16.1136
G01 X7.5084 Y-16.1306
G01 X7.5155 Y-16.1491
G01 X7.5207 Y-16.1683
G01 X7.5239 Y-16.1870
G01 X8.1984 Y-15.5126
G01 X8.1283 Y-15.4907
G01 X8.1125 Y-15.4842
G01 X8.0969 Y-15.4762
G01 X8.0871 Y-15.4702
G01 X8.0783 Y-15.4641
G01 X8.0704 Y-15.4581
G01 X8.0615 Y-15.4504
G01 X8.0475 Y-15.4363
G01 X8.0296 Y-15.4152
G01 X8.0222 Y-15.4357
G01 X8.0176 Y-15.4469
G01 X7.9765 Y-15.5335
G01 X7.9711 Y-15.5430
G01 X7.9279 Y-15.6152
G01 X7.9180 Y-15.6300
G01 X7.8619 Y-15.7053
G01 X7.8550 Y-15.7133
G01 X7.7983 Y-15.7760
G01 X7.7852 Y-15.7890
G01 X7.7231 Y-15.8453
G01 X7.7115 Y-15.8549
G01 X7.6338 Y-15.9124
G01 X7.6249 Y-15.9180
G01 X7.5504 Y-15.9626
G01 X7.5364 Y-15.9700
G01 X7.4576 Y-16.0072
G01 X7.4465 Y-16.0119
G01 X7.4290 Y-16.0182
G01 X7.2701 Y-16.0026
G01 X7.3321 Y-16.0257
G01 X7.3409 Y-16.0294
G01 X7.3485 Y-16.0331
G01 X7.3561 Y-16.0374
G01 X7.3631 Y-16.0420
G01 X7.3713 Y-16.0482
G01 X7.3828 Y-16.0588
G01 X7.3929 Y-16.0703
G01 X7.4379 Y-16.1305
G01 X7.4436 Y-16.1391
G01 X7.4478 Y-16.1463
G01 X7.4530 Y-16.1574
G01 X7.4567 Y-16.1670
G01 X7.4600 Y-16.1783
G01 X7.4620 Y-16.1884
G01 X7.4636 Y-16.2013
G01 X7.4689 Y-16.2771
G01 X7.4688 Y-16.2855
G01 X7.4683 Y-16.2942
G01 X7.4672 Y-16.3026
G01 X7.4655 Y-16.3112
G01 X7.4635 Y-16.3193
G01 X7.4607 Y-16.3276
G01 X7.4577 Y-16.3355
G01 X7.4535 Y-16.3443
G01 X8.3571 Y-15.4407
G01 X8.2991 Y-15.4568
G01 X8.2890 Y-15.4592
G01 X8.2789 Y-15.4608
G01 X8.2701 Y-15.4615
G01 X8.2617 Y-15.4617
G01 X8.2530 Y-15.4614
G01 X8.2378 Y-15.4594
G01 X8.2227 Y-15.4558
G01 X8.1526 Y-15.4341
G01 X8.1430 Y-15.4305
G01 X8.1323 Y-15.4255
G01 X8.1233 Y-15.4204
G01 X8.1148 Y-15.4147
G01 X8.1067 Y-15.4083
G01 X8.0977 Y-15.4000
G01 X8.0903 Y-15.3919
G01 X8.0453 Y-15.3384
G01 X8.0385 Y-15.3297
G01 X8.0336 Y-15.3224
G01 X8.0285 Y-15.3134
G01 X8.0241 Y-15.3041
G01 X8.0210 Y-15.2963
G01 X8.0179 Y-15.2865
G01 X8.0158 Y-15.2780
G01 X8.0129 Y-15.2590
G01 X7.9955 Y-15.3276
G01 X7.9652 Y-15.4126
G01 X7.9603 Y-15.4244
G01 X7.9212 Y-15.5065
G01 X7.8753 Y-15.5833
G01 X7.8678 Y-15.5946
G01 X7.8135 Y-15.6675
G01 X7.7493 Y-15.7383
G01 X7.6821 Y-15.7995
G01 X7.6716 Y-15.8081
G01 X7.5984 Y-15.8621
G01 X7.5182 Y-15.9103
G01 X7.5098 Y-15.9146
G01 X7.4344 Y-15.9503
G01 X7.4244 Y-15.9545
G01 X7.3376 Y-15.9855
G01 X7.2701 Y-16.0026
G01 X7.0463 Y-15.9667
G01 X6.9592 Y-15.9623
G01 X6.8729 Y-15.9496
G01 X6.8655 Y-15.9482
G01 X6.7846 Y-15.9279
G01 X6.7774 Y-15.9257
G01 X6.6989 Y-15.8976
G01 X6.6919 Y-15.8947
G01 X6.6131 Y-15.8574
G01 X6.5336 Y-15.8095
G01 X6.4621 Y-15.7564
G01 X6.3947 Y-15.6953
G01 X6.3336 Y-15.6280
G01 X6.2794 Y-15.5549
G01 X6.2327 Y-15.4769
G01 X6.1938 Y-15.3947
G01 X6.1631 Y-15.3090
G01 X6.1419 Y-15.2245
G01 X6.1404 Y-15.2171
G01 X6.1277 Y-15.1308
G01 X6.1232 Y-15.0400
G01 X6.1277 Y-14.9492
G01 X6.1404 Y-14.8629
G01 X6.1419 Y-14.8555
G01 X6.1631 Y-14.7710
G01 X6.1924 Y-14.6888
G01 X6.1953 Y-14.6819
G01 X6.2310 Y-14.6065
G01 X6.2345 Y-14.5998
G01 X6.2794 Y-14.5251
G01 X6.3336 Y-14.4520
G01 X6.3947 Y-14.3847
G01 X6.4621 Y-14.3236
G01 X6.5351 Y-14.2694
G01 X6.6099 Y-14.2245
G01 X6.6165 Y-14.2209
G01 X6.6919 Y-14.1853
G01 X6.6989 Y-14.1824
G01 X6.7810 Y-14.1531
G01 X6.8655 Y-14.1318
G01 X6.8729 Y-14.1304
G01 X6.9592 Y-14.1177
G01 X7.0500 Y-14.1132
G01 X7.1409 Y-14.1177
G01 X7.2308 Y-14.1310
G01 X7.3191 Y-14.1531
G01 X7.4047 Y-14.1837
G01 X7.4869 Y-14.2226
G01 X7.5649 Y-14.2694
G01 X7.6380 Y-14.3236
G01 X7.7054 Y-14.3847
G01 X7.7665 Y-14.4520
G01 X7.8206 Y-14.5251
G01 X7.8674 Y-14.6031
G01 X7.9063 Y-14.6853
G01 X7.9369 Y-14.7710
G01 X7.9590 Y-14.8592
G01 X7.9724 Y-14.9492
G01 X7.9768 Y-15.0400
G01 X7.9724 Y-15.1308
G01 X7.9590 Y-15.2208
G01 X7.9369 Y-15.3090
G01 X7.9063 Y-15.3947
G01 X7.8674 Y-15.4769
G01 X7.8206 Y-15.5549
G01 X7.7665 Y-15.6280
G01 X7.7054 Y-15.6953
G01 X7.6380 Y-15.7564
G01 X7.5649 Y-15.8106
G01 X7.4869 Y-15.8574
G01 X7.4047 Y-15.8963
G01 X7.3191 Y-15.9269
G01 X7.2308 Y-15.9490
G01 X7.1409 Y-15.9623
G01 X7.0538 Y-15.9667
G01 X7.0463 Y-15.9667
G00 Z2.0000
G00 X7.2109 Y-16.5280
G01 F25.00
G01 Z-0.1000
G01 F120.00
G01 X7.2161 Y-16.5251
G01 X7.2223 Y-16.5208
G01 X7.2490 Y-16.4989
G01 X7.3552 Y-16.3925
G01 X7.3597 Y-16.3867
G01 X7.3637 Y-16.3806
G01 X7.3981 Y-16.3177
G01 X7.4021 Y-16.3090
G01 X7.4046 Y-16.3018
G01 X7.4068 Y-16.2906
G01 X7.4074 Y-16.2830
G01 X7.4074 Y-16.2773
G01 X7.4021 Y-16.2038
G01 X7.4006 Y-16.1944
G01 X7.3986 Y-16.1870
G01 X7.3942 Y-16.1765
G01 X7.3883 Y-16.1667
G01 X7.3453 Y-16.1092
G01 X7.3378 Y-16.1006
G01 X7.3321 Y-16.0955
G01 X7.3259 Y-16.0910
G01 X7.3194 Y-16.0872
G01 X7.3124 Y-16.0840
G01 X7.2434 Y-16.0582
G01 X7.2341 Y-16.0557
G01 X7.2266 Y-16.0545
G01 X7.2170 Y-16.0540
G01 X7.1833 Y-16.0555
G01 X7.1306 Y-16.0637
G01 X6.9695 Y-16.0637
G01 X6.8103 Y-16.0385
G01 X6.6571 Y-15.9887
G01 X6.5135 Y-15.9155
G01 X6.3831 Y-15.8208
G01 X6.2692 Y-15.7069
G01 X6.1745 Y-15.5765
G01 X6.1013 Y-15.4330
G01 X6.0515 Y-15.2797
G01 X6.0263 Y-15.1206
G01 X6.0263 Y-14.9594
G01 X6.0515 Y-14.8003
G01 X6.1013 Y-14.6470
G01 X6.1745 Y-14.5035
G01 X6.2692 Y-14.3731
G01 X6.3831 Y-14.2592
G01 X6.5135 Y-14.1645
G01 X6.6571 Y-14.0913
G01 X6.8103 Y-14.0415
G01 X6.9695 Y-14.0163
G01 X7.1306 Y-14.0163
G01 X7.2897 Y-14.0415
G01 X7.4430 Y-14.0913
G01 X7.5866 Y-14.1645
G01 X7.7169 Y-14.2592
G01 X7.8309 Y-14.3731
G01 X7.9256 Y-14.5035
G01 X7.9987 Y-14.6470
G01 X8.0485 Y-14.8003
G01 X8.0737 Y-14.9594
G01 X8.0737 Y-15.1206
G01 X8.0659 Y-15.1699
G01 X8.0653 Y-15.1772
G01 X8.0655 Y-15.1863
G01 X8.0758 Y-15.2649
G01 X8.0777 Y-15.2722
G01 X8.0811 Y-15.2811
G01 X8.0846 Y-15.2879
G01 X8.0887 Y-15.2943
G01 X8.1385 Y-15.3537
G01 X8.1452 Y-15.3605
G01 X8.1528 Y-15.3663
G01 X8.1610 Y-15.3712
G01 X8.1715 Y-15.3756
G01 X8.2419 Y-15.3974
G01 X8.2512 Y-15.3994
G01 X8.2607 Y-15.4002
G01 X8.2702 Y-15.3999
G01 X8.2778 Y-15.3988
G01 X8.3525 Y-15.3782
G01 X8.3615 Y-15.3748
G01 X8.3700 Y-15.3704
G01 X8.3778 Y-15.3649
G01 X8.4013 Y-15.3462
G01 X8.4065 Y-15.3415
G01 X14.0675 Y-9.6805
G01 X14.0736 Y-9.6736
G01 X14.0797 Y-9.6646
G01 X14.1150 Y-9.6000
G01 X14.1181 Y-9.5931
G01 X14.1200 Y-9.5878
G01 X14.1219 Y-9.5805
G01 X14.1228 Y-9.5749
G01 X14.1259 Y-9.5467
G01 X14.1263 Y-9.5385
G01 X14.1263 Y0.4785
G01 X14.1258 Y0.4876
G01 X14.1237 Y0.4984
G01 X14.1017 Y0.5725
G01 X14.0970 Y0.5828
G01 X14.0919 Y0.5907
G01 X14.0730 Y0.6144
G01 X14.0675 Y0.6205
G01 X9.6505 Y5.0375
G01 X9.6451 Y5.0424
G01 X9.6392 Y5.0468
G01 X9.6330 Y5.0506
G01 X9.5717 Y5.0841
G01 X9.5631 Y5.0881
G01 X9.5560 Y5.0905
G01 X9.5468 Y5.0925
G01 X9.5126 Y5.0962
G01 X8.5829 Y5.0963
G01 X8.5323 Y5.1064
G01 X8.4748 Y5.1448
G01 X8.4364 Y5.2022
G01 X8.4263 Y5.2529
G01 X8.4263 Y6.9871
G01 X8.4364 Y7.0378
G01 X8.4748 Y7.0952
G01 X8.5323 Y7.1336
G01 X8.5829 Y7.1437
G01 X10.3171 Y7.1437
G01 X10.3678 Y7.1336
G01 X10.4253 Y7.0952
G01 X10.4636 Y7.0378
G01 X10.4737 Y6.9871
G01 X10.4738 Y6.0579
G01 X10.4748 Y6.0488
G01 X10.4763 Y6.0416
G01 X10.4965 Y5.9728
G01 X10.4990 Y5.9657
G01 X10.5031 Y5.9572
G01 X10.5070 Y5.9508
G01 X10.5270 Y5.9257
G01 X10.5325 Y5.9195
G01 X15.2345 Y1.2176
G01 X15.3027 Y1.1154
G01 X15.3498 Y1.0019
G01 X15.3737 Y0.8814
G01 X15.3737 Y-9.9414
G01 X15.3498 Y-10.0619
G01 X15.3027 Y-10.1754
G01 X15.2345 Y-10.2776
G01 X8.1300 Y-17.3822
G01 X8.1254 Y-17.3878
G01 X8.1203 Y-17.3954
G01 X8.0860 Y-17.4584
G01 X8.0820 Y-17.4669
G01 X8.0786 Y-17.4777
G01 X8.0770 Y-17.4869
G01 X8.0738 Y-17.5195
G01 X8.0737 Y-17.6606
G01 X8.0485 Y-17.8197
G01 X7.9987 Y-17.9730
G01 X7.9256 Y-18.1165
G01 X7.8309 Y-18.2469
G01 X7.7169 Y-18.3608
G01 X7.5866 Y-18.4555
G01 X7.4430 Y-18.5287
G01 X7.2897 Y-18.5785
G01 X7.1306 Y-18.6037
G01 X6.9695 Y-18.6037
G01 X6.8103 Y-18.5785
G01 X6.6571 Y-18.5287
G01 X6.5135 Y-18.4555
G01 X6.3831 Y-18.3608
G01 X6.2692 Y-18.2469
G01 X6.1745 Y-18.1165
G01 X6.1013 Y-17.9730
G01 X6.0515 Y-17.8197
G01 X6.0263 Y-17.6606
G01 X6.0263 Y-17.4994
G01 X6.0515 Y-17.3403
G01 X6.1013 Y-17.1870
G01 X6.1745 Y-17.0435
G01 X6.2692 Y-16.9131
G01 X6.3831 Y-16.7992
G01 X6.5135 Y-16.7045
G01 X6.6571 Y-16.6313
G01 X6.8103 Y-16.5815
G01 X6.9695 Y-16.5563
G01 X7.1085 Y-16.5563
G01 X7.1194 Y-16.5555
G01 X7.1284 Y-16.5537
G01 X7.1570 Y-16.5453
G01 X7.1899 Y-16.5379
G01 X7.2007 Y-16.5338
G01 X7.2109 Y-16.5280
G01 X7.1987 Y-16.5991
G01 X7.1944 Y-16.6034
G01 X7.1852 Y-16.6020
G01 X7.1987 Y-16.5991
G01 X7.2160 Y-16.6687
G01 X7.1409 Y-16.6577
G01 X7.0500 Y-16.6532
G01 X6.9592 Y-16.6577
G01 X6.8729 Y-16.6704
G01 X6.8655 Y-16.6718
G01 X6.7846 Y-16.6921
G01 X6.7774 Y-16.6943
G01 X6.6954 Y-16.7237
G01 X6.6165 Y-16.7609
G01 X6.6099 Y-16.7645
G01 X6.5383 Y-16.8074
G01 X6.5320 Y-16.8116
G01 X6.4621 Y-16.8636
G01 X6.3947 Y-16.9247
G01 X6.3336 Y-16.9920
G01 X6.2816 Y-17.0620
G01 X6.2774 Y-17.0683
G01 X6.2327 Y-17.1431
G01 X6.1953 Y-17.2219
G01 X6.1924 Y-17.2288
G01 X6.1631 Y-17.3110
G01 X6.1410 Y-17.3992
G01 X6.1277 Y-17.4892
G01 X6.1233 Y-17.5762
G01 X6.1233 Y-17.5838
G01 X6.1277 Y-17.6708
G01 X6.1410 Y-17.7608
G01 X6.1621 Y-17.8454
G01 X6.1643 Y-17.8526
G01 X6.1938 Y-17.9347
G01 X6.2327 Y-18.0169
G01 X6.2774 Y-18.0917
G01 X6.2816 Y-18.0980
G01 X6.3336 Y-18.1680
G01 X6.3947 Y-18.2353
G01 X6.4621 Y-18.2964
G01 X6.5351 Y-18.3506
G01 X6.6131 Y-18.3974
G01 X6.6954 Y-18.4363
G01 X6.7810 Y-18.4669
G01 X6.8692 Y-18.4890
G01 X6.9592 Y-18.5023
G01 X7.0500 Y-18.5068
G01 X7.1409 Y-18.5023
G01 X7.2308 Y-18.4890
G01 X7.3191 Y-18.4669
G01 X7.4047 Y-18.4363
G01 X7.4869 Y-18.3974
G01 X7.5649 Y-18.3506
G01 X7.6365 Y-18.2976
G01 X7.7026 Y-18.2379
G01 X7.7080 Y-18.2326
G01 X7.7665 Y-18.1680
G01 X7.8185 Y-18.0980
G01 X7.8226 Y-18.0917
G01 X7.8674 Y-18.0169
G01 X7.9047 Y-17.9381
G01 X7.9076 Y-17.9312
G01 X7.9369 Y-17.8490
G01 X7.9582 Y-17.7645
G01 X7.9597 Y-17.7571
G01 X7.9724 Y-17.6708
G01 X7.9767 Y-17.5838
G01 X7.9767 Y-17.5762
G01 X7.9724 Y-17.4892
G01 X7.9613 Y-17.4140
G01 X15.1227 Y-10.2527
G01 X15.1574 Y-10.2143
G01 X15.1861 Y-10.1759
G01 X15.1902 Y-10.1696
G01 X15.2130 Y-10.1317
G01 X15.2165 Y-10.1251
G01 X15.2369 Y-10.0817
G01 X15.2544 Y-10.0330
G01 X15.2669 Y-9.9828
G01 X15.2745 Y-9.9317
G01 X15.2770 Y-9.8800
G01 X15.2770 Y0.8200
G01 X15.2745 Y0.8717
G01 X15.2669 Y0.9228
G01 X15.2544 Y0.9730
G01 X15.2376 Y1.0199
G01 X15.2148 Y1.0684
G01 X15.1882 Y1.1128
G01 X15.1574 Y1.1543
G01 X15.1227 Y1.1927
G01 X10.3768 Y5.9385
G01 X10.3768 Y6.9719
G01 X10.3762 Y6.9794
G01 X10.3750 Y6.9868
G01 X10.3729 Y6.9941
G01 X10.3702 Y7.0011
G01 X10.3668 Y7.0079
G01 X10.3617 Y7.0157
G01 X10.3569 Y7.0216
G01 X10.3516 Y7.0269
G01 X10.3473 Y7.0305
G01 X10.3411 Y7.0349
G01 X10.3346 Y7.0386
G01 X10.3277 Y7.0417
G01 X10.3205 Y7.0440
G01 X10.3132 Y7.0457
G01 X10.3076 Y7.0464
G01 X10.3000 Y7.0468
G01 X8.6000 Y7.0468
G01 X8.5925 Y7.0464
G01 X8.5850 Y7.0453
G01 X8.5777 Y7.0435
G01 X8.5706 Y7.0410
G01 X8.5605 Y7.0359
G01 X8.5513 Y7.0294
G01 X8.5431 Y7.0216
G01 X8.5362 Y7.0127
G01 X8.5306 Y7.0028
G01 X8.5265 Y6.9923
G01 X8.5244 Y6.9831
G01 X8.5232 Y6.9719
G01 X8.5232 Y5.2700
G01 X8.5234 Y5.2644
G01 X8.5244 Y5.2569
G01 X8.5260 Y5.2495
G01 X8.5277 Y5.2441
G01 X8.5298 Y5.2389
G01 X8.5332 Y5.2321
G01 X8.5372 Y5.2258
G01 X8.5419 Y5.2198
G01 X8.5471 Y5.2144
G01 X8.5528 Y5.2095
G01 X8.5589 Y5.2051
G01 X8.5672 Y5.2006
G01 X8.5759 Y5.1971
G01 X8.5832 Y5.1951
G01 X8.5906 Y5.1938
G01 X8.5981 Y5.1932
G01 X9.6315 Y5.1932
G01 X14.2230 Y0.6017
G01 X14.2230 Y-9.6617
G01 X7.2160 Y-16.6687
G00 Z2.0000
G00 X8.0271 Y-17.4389
G01 F25.00
G01 Z-0.1000
G01 F120.00
G01 X8.0266 Y-17.4356
G01 X8.0306 Y-17.4317
G01 X8.0286 Y-17.4356
G01 X8.0271 Y-17.4389
G00 Z2.0000
G00 X7.8358 Y-19.5223
G01 F25.00
G01 Z-0.1000
G01 F120.00
G01 X7.8528 Y-19.5315
G01 X7.8427 Y-19.5315
G01 X7.8358 Y-19.5223
G00 Z2.0000
G00 X7.8118 Y-20.6470
G01 F25.00
G01 Z-0.1000
G01 F120.00
G01 X7.7665 Y-20.7080
G01 X7.7054 Y-20.7753
G01 X7.6380 Y-20.8364
G01 X7.5649 Y-20.8906
G01 X7.4869 Y-20.9374
G01 X7.4047 Y-20.9763
G01 X7.3191 Y-21.0069
G01 X7.2308 Y-21.0290
G01 X7.1409 Y-21.0423
G01 X7.0500 Y-21.0468
G01 X6.9592 Y-21.0423
G01 X6.8692 Y-21.0290
G01 X6.7810 Y-21.0069
G01 X6.6954 Y-20.9763
G01 X6.6131 Y-20.9374
G01 X6.5351 Y-20.8906
G01 X6.4621 Y-20.8364
G01 X6.3947 Y-20.7753
G01 X6.3336 Y-20.7080
G01 X6.2794 Y-20.6349
G01 X6.2327 Y-20.5569
G01 X6.1938 Y-20.4747
G01 X6.1631 Y-20.3890
G01 X6.1410 Y-20.3008
G01 X6.1277 Y-20.2108
G01 X6.1232 Y-20.1200
G01 X6.1277 Y-20.0292
G01 X6.1410 Y-19.9392
G01 X6.1631 Y-19.8510
G01 X6.1938 Y-19.7653
G01 X6.2327 Y-19.6831
G01 X6.2794 Y-19.6051
G01 X6.3313 Y-19.5350
G01 X6.3361 Y-19.5292
G01 X6.3947 Y-19.4647
G01 X6.4592 Y-19.4060
G01 X6.4650 Y-19.4013
G01 X6.5351 Y-19.3494
G01 X6.6131 Y-19.3026
G01 X6.6919 Y-19.2653
G01 X6.6989 Y-19.2624
G01 X6.7810 Y-19.2331
G01 X6.8655 Y-19.2118
G01 X6.8729 Y-19.2104
G01 X6.9592 Y-19.1977
G01 X7.0500 Y-19.1932
G01 X7.1409 Y-19.1977
G01 X7.2271 Y-19.2104
G01 X7.2345 Y-19.2118
G01 X7.3191 Y-19.2331
G01 X7.4012 Y-19.2624
G01 X7.4081 Y-19.2653
G01 X7.4869 Y-19.3026
G01 X7.5649 Y-19.3494
G01 X7.6350 Y-19.4013
G01 X7.6408 Y-19.4060
G01 X7.7026 Y-19.4621
G01 X7.7080 Y-19.4674
G01 X7.7665 Y-19.5320
G01 X7.8118 Y-19.5930
G01 X11.1117 Y-19.5930
G01 X17.5230 Y-13.1817
G01 X17.5230 Y5.1932
G01 X17.2000 Y5.1932
G01 X17.1888 Y5.1940
G01 X17.1777 Y5.1965
G01 X17.1672 Y5.2006
G01 X17.1574 Y5.2061
G01 X17.1484 Y5.2131
G01 X17.1407 Y5.2213
G01 X17.1342 Y5.2305
G01 X17.1314 Y5.2355
G01 X17.1284 Y5.2424
G01 X17.1251 Y5.2532
G01 X17.1238 Y5.2606
G01 X17.1232 Y5.2700
G01 X17.1234 Y6.9756
G01 X17.1244 Y6.9831
G01 X17.1255 Y6.9887
G01 X17.1277 Y6.9959
G01 X17.1306 Y7.0028
G01 X17.1342 Y7.0095
G01 X17.1383 Y7.0157
G01 X17.1431 Y7.0216
G01 X17.1471 Y7.0256
G01 X17.1528 Y7.0305
G01 X17.1574 Y7.0339
G01 X17.1638 Y7.0377
G01 X17.1706 Y7.0410
G01 X17.1777 Y7.0435
G01 X17.1850 Y7.0453
G01 X17.1906 Y7.0462
G01 X17.1981 Y7.0468
G01 X18.9000 Y7.0468
G01 X18.9076 Y7.0464
G01 X18.9150 Y7.0453
G01 X18.9223 Y7.0435
G01 X18.9294 Y7.0410
G01 X18.9395 Y7.0359
G01 X18.9487 Y7.0294
G01 X18.9569 Y7.0216
G01 X18.9639 Y7.0127
G01 X18.9695 Y7.0028
G01 X18.9735 Y6.9923
G01 X18.9757 Y6.9831
G01 X18.9768 Y6.9719
G01 X18.9768 Y5.2700
G01 X18.9765 Y5.2625
G01 X18.9753 Y5.2550
G01 X18.9723 Y5.2441
G01 X18.9702 Y5.2389
G01 X18.9668 Y5.2321
G01 X18.9606 Y5.2228
G01 X18.9530 Y5.2144
G01 X18.9442 Y5.2072
G01 X18.9379 Y5.2032
G01 X18.9329 Y5.2006
G01 X18.9223 Y5.1965
G01 X18.9113 Y5.1940
G01 X18.9000 Y5.1932
G01 X18.5770 Y5.1932
G01 X18.5770 Y-13.4000
G01 X18.5745 Y-13.4517
G01 X18.5669 Y-13.5028
G01 X18.5544 Y-13.5530
G01 X18.5376 Y-13.5999
G01 X18.5148 Y-13.6484
G01 X18.4882 Y-13.6928
G01 X18.4574 Y-13.7343
G01 X18.4227 Y-13.7727
G01 X11.7027 Y-20.4927
G01 X11.6644 Y-20.5274
G01 X11.6228 Y-20.5582
G01 X11.5785 Y-20.5848
G01 X11.5352 Y-20.6054
G01 X11.5282 Y-20.6083
G01 X11.4830 Y-20.6243
G01 X11.4365 Y-20.6361
G01 X11.4291 Y-20.6375
G01 X11.3817 Y-20.6445
G01 X11.3338 Y-20.6469
G01 X7.8118 Y-20.6470
G01 X7.8483 Y-20.7085
G01 X7.8427 Y-20.7085
G01 X7.8407 Y-20.7111
G01 X7.8483 Y-20.7085
G00 Z2.0000
G00 X11.4925 Y-20.7236
G01 F25.00
G01 Z-0.1000
G01 F120.00
G01 X11.3915 Y-20.7437
G01 X7.9572 Y-20.7437
G01 X7.9499 Y-20.7440
G01 X7.9445 Y-20.7448
G01 X7.9374 Y-20.7463
G01 X7.8668 Y-20.7670
G01 X7.8563 Y-20.7713
G01 X7.8481 Y-20.7759
G01 X7.8420 Y-20.7804
G01 X7.8167 Y-20.8011
G01 X7.7169 Y-20.9008
G01 X7.5866 Y-20.9955
G01 X7.4430 Y-21.0687
G01 X7.2897 Y-21.1185
G01 X7.1306 Y-21.1437
G01 X6.9695 Y-21.1437
G01 X6.8103 Y-21.1185
G01 X6.6571 Y-21.0687
G01 X6.5135 Y-20.9955
G01 X6.3831 Y-20.9008
G01 X6.2692 Y-20.7869
G01 X6.1745 Y-20.6565
G01 X6.1013 Y-20.5130
G01 X6.0515 Y-20.3597
G01 X6.0263 Y-20.2006
G01 X6.0263 Y-20.0394
G01 X6.0515 Y-19.8803
G01 X6.1013 Y-19.7270
G01 X6.1745 Y-19.5835
G01 X6.2692 Y-19.4531
G01 X6.3831 Y-19.3392
G01 X6.5135 Y-19.2445
G01 X6.6571 Y-19.1713
G01 X6.8103 Y-19.1215
G01 X6.9695 Y-19.0963
G01 X7.1306 Y-19.0963
G01 X7.2897 Y-19.1215
G01 X7.4430 Y-19.1713
G01 X7.5866 Y-19.2445
G01 X7.7169 Y-19.3392
G01 X7.8152 Y-19.4375
G01 X7.8221 Y-19.4436
G01 X7.8280 Y-19.4478
G01 X7.8941 Y-19.4841
G01 X7.9026 Y-19.4881
G01 X7.9097 Y-19.4905
G01 X7.9189 Y-19.4925
G01 X7.9511 Y-19.4961
G01 X10.9885 Y-19.4963
G01 X10.9994 Y-19.4955
G01 X11.0101 Y-19.4932
G01 X11.0790 Y-19.4730
G01 X11.0878 Y-19.4695
G01 X11.0961 Y-19.4651
G01 X11.1037 Y-19.4596
G01 X11.1244 Y-19.4430
G01 X11.1305 Y-19.4375
G01 X17.3675 Y-13.2005
G01 X17.3736 Y-13.1936
G01 X17.3797 Y-13.1846
G01 X17.4158 Y-13.1183
G01 X17.4200 Y-13.1078
G01 X17.4222 Y-13.0986
G01 X17.4259 Y-13.0667
G01 X17.4263 Y-13.0585
G01 X17.4263 Y4.8973
G01 X17.4255 Y4.9064
G01 X17.4237 Y4.9154
G01 X17.4017 Y4.9896
G01 X17.3978 Y4.9983
G01 X17.3929 Y5.0064
G01 X17.3869 Y5.0139
G01 X17.3816 Y5.0193
G01 X17.3244 Y5.0688
G01 X17.3197 Y5.0722
G01 X17.3131 Y5.0761
G01 X17.3026 Y5.0807
G01 X17.2934 Y5.0833
G01 X17.2365 Y5.0955
G01 X17.2274 Y5.0963
G01 X17.1829 Y5.0963
G01 X17.1323 Y5.1064
G01 X17.0748 Y5.1448
G01 X17.0364 Y5.2022
G01 X17.0263 Y5.2529
G01 X17.0263 Y6.9871
G01 X17.0364 Y7.0378
G01 X17.0748 Y7.0952
G01 X17.1323 Y7.1336
G01 X17.1829 Y7.1437
G01 X18.9171 Y7.1437
G01 X18.9678 Y7.1336
G01 X19.0253 Y7.0952
G01 X19.0636 Y7.0378
G01 X19.0737 Y6.9871
G01 X19.0737 Y5.2529
G01 X19.0636 Y5.2022
G01 X19.0253 Y5.1448
G01 X18.9678 Y5.1064
G01 X18.9171 Y5.0963
G01 X18.8727 Y5.0963
G01 X18.8654 Y5.0958
G01 X18.8564 Y5.0941
G01 X18.7804 Y5.0717
G01 X18.7734 Y5.0687
G01 X18.7668 Y5.0649
G01 X18.7605 Y5.0606
G01 X18.7561 Y5.0569
G01 X18.7494 Y5.0501
G01 X18.7025 Y4.9958
G01 X18.6968 Y4.9881
G01 X18.6931 Y4.9814
G01 X18.6893 Y4.9726
G01 X18.6867 Y4.9633
G01 X18.6751 Y4.9100
G01 X18.6743 Y4.9046
G01 X18.6737 Y4.8973
G01 X18.6737 Y-13.4614
G01 X18.6498 Y-13.5819
G01 X18.6027 Y-13.6954
G01 X18.5345 Y-13.7976
G01 X11.7276 Y-20.6045
G01 X11.6255 Y-20.6727
G01 X11.5120 Y-20.7197
G01 X11.4925 Y-20.7236
G00 Z2.0000
G00 X22.2463 Y-21.0467
G01 F25.00
G01 Z-0.1000
G01 F120.00
G01 X22.2538 Y-21.0467
G01 X22.3409 Y-21.0423
G01 X22.4308 Y-21.0290
G01 X22.5191 Y-21.0069
G01 X22.6047 Y-20.9763
G01 X22.6869 Y-20.9374
G01 X22.7649 Y-20.8906
G01 X22.8380 Y-20.8364
G01 X22.9054 Y-20.7753
G01 X22.9665 Y-20.7080
G01 X23.0206 Y-20.6349
G01 X23.0674 Y-20.5569
G01 X23.1063 Y-20.4747
G01 X23.1369 Y-20.3890
G01 X23.1590 Y-20.3008
G01 X23.1724 Y-20.2108
G01 X23.1768 Y-20.1200
G01 X23.1724 Y-20.0292
G01 X23.1590 Y-19.9392
G01 X23.1369 Y-19.8510
G01 X23.1063 Y-19.7653
G01 X23.0674 Y-19.6831
G01 X23.0206 Y-19.6051
G01 X22.9665 Y-19.5320
G01 X22.9054 Y-19.4647
G01 X22.8380 Y-19.4036
G01 X22.7649 Y-19.3494
G01 X22.6869 Y-19.3026
G01 X22.6047 Y-19.2637
G01 X22.5191 Y-19.2331
G01 X22.4308 Y-19.2110
G01 X22.3409 Y-19.1977
G01 X22.2500 Y-19.1932
G01 X22.1592 Y-19.1977
G01 X22.0692 Y-19.2110
G01 X21.9810 Y-19.2331
G01 X21.8954 Y-19.2637
G01 X21.8131 Y-19.3026
G01 X21.7351 Y-19.3494
G01 X21.6621 Y-19.4036
G01 X21.5947 Y-19.4647
G01 X21.5336 Y-19.5320
G01 X21.4794 Y-19.6051
G01 X21.4327 Y-19.6831
G01 X21.3938 Y-19.7653
G01 X21.3631 Y-19.8510
G01 X21.3410 Y-19.9392
G01 X21.3277 Y-20.0292
G01 X21.3232 Y-20.1200
G01 X21.3277 Y-20.2108
G01 X21.3410 Y-20.3008
G01 X21.3631 Y-20.3890
G01 X21.3938 Y-20.4747
G01 X21.4327 Y-20.5569
G01 X21.4794 Y-20.6349
G01 X21.5336 Y-20.7080
G01 X21.5947 Y-20.7753
G01 X21.6621 Y-20.8364
G01 X21.7351 Y-20.8906
G01 X21.8131 Y-20.9374
G01 X21.8954 Y-20.9763
G01 X21.9810 Y-21.0069
G01 X22.0692 Y-21.0290
G01 X22.1592 Y-21.0423
G01 X22.2463 Y-21.0467
G00 Z2.0000
G00 X23.0309 Y-19.4531
G01 F25.00
G01 Z-0.1000
G01 F120.00
G01 X23.1256 Y-19.5835
G01 X23.1987 Y-19.7270
G01 X23.2485 Y-19.8803
G01 X23.2737 Y-20.0394
G01 X23.2737 Y-20.2006
G01 X23.2485 Y-20.3597
G01 X23.1987 Y-20.5130
G01 X23.1256 Y-20.6565
G01 X23.0309 Y-20.7869
G01 X22.9169 Y-20.9008
G01 X22.7866 Y-20.9955
G01 X22.6430 Y-21.0687
G01 X22.4897 Y-21.1185
G01 X22.3306 Y-21.1437
G01 X22.1695 Y-21.1437
G01 X22.0103 Y-21.1185
G01 X21.8571 Y-21.0687
G01 X21.7135 Y-20.9955
G01 X21.5831 Y-20.9008
G01 X21.4692 Y-20.7869
G01 X21.3745 Y-20.6565
G01 X21.3013 Y-20.5130
G01 X21.2515 Y-20.3597
G01 X21.2263 Y-20.2006
G01 X21.2263 Y-20.0394
G01 X21.2515 Y-19.8803
G01 X21.3013 Y-19.7270
G01 X21.3745 Y-19.5835
G01 X21.4692 Y-19.4531
G01 X21.5831 Y-19.3392
G01 X21.7135 Y-19.2445
G01 X21.8571 Y-19.1713
G01 X22.0103 Y-19.1215
G01 X22.1695 Y-19.0963
G01 X22.3306 Y-19.0963
G01 X22.4897 Y-19.1215
G01 X22.6430 Y-19.1713
G01 X22.7866 Y-19.2445
G01 X22.9169 Y-19.3392
G01 X23.0309 Y-19.4531
G00 Z2.0000
G00 X22.2463 Y-18.5067
G01 F25.00
G01 Z-0.1000
G01 F120.00
G01 X22.2538 Y-18.5067
G01 X22.3409 Y-18.5023
G01 X22.4308 Y-18.4890
G01 X22.5191 Y-18.4669
G01 X22.6047 Y-18.4363
G01 X22.6869 Y-18.3974
G01 X22.7649 Y-18.3506
G01 X22.8380 Y-18.2964
G01 X22.9054 Y-18.2353
G01 X22.9665 Y-18.1680
G01 X23.0206 Y-18.0949
G01 X23.0674 Y-18.0169
G01 X23.1063 Y-17.9347
G01 X23.1369 Y-17.8490
G01 X23.1590 Y-17.7608
G01 X23.1724 Y-17.6708
G01 X23.1768 Y-17.5800
G01 X23.1724 Y-17.4892
G01 X23.1590 Y-17.3992
G01 X23.1369 Y-17.3110
G01 X23.1063 Y-17.2253
G01 X23.0674 Y-17.1431
G01 X23.0206 Y-17.0651
G01 X22.9665 Y-16.9920
G01 X22.9054 Y-16.9247
G01 X22.8380 Y-16.8636
G01 X22.7649 Y-16.8094
G01 X22.6869 Y-16.7626
G01 X22.6047 Y-16.7237
G01 X22.5191 Y-16.6931
G01 X22.4308 Y-16.6710
G01 X22.3409 Y-16.6577
G01 X22.2500 Y-16.6532
G01 X22.1592 Y-16.6577
G01 X22.0692 Y-16.6710
G01 X21.9810 Y-16.6931
G01 X21.8954 Y-16.7237
G01 X21.8131 Y-16.7626
G01 X21.7351 Y-16.8094
G01 X21.6621 Y-16.8636
G01 X21.5947 Y-16.9247
G01 X21.5336 Y-16.9920
G01 X21.4794 Y-17.0651
G01 X21.4327 Y-17.1431
G01 X21.3938 Y-17.2253
G01 X21.3631 Y-17.3110
G01 X21.3410 Y-17.3992
G01 X21.3277 Y-17.4892
G01 X21.3232 Y-17.5800
G01 X21.3277 Y-17.6708
G01 X21.3410 Y-17.7608
G01 X21.3631 Y-17.8490
G01 X21.3938 Y-17.9347
G01 X21.4327 Y-18.0169
G01 X21.4794 Y-18.0949
G01 X21.5336 Y-18.1680
G01 X21.5947 Y-18.2353
G01 X21.6621 Y-18.2964
G01 X21.7351 Y-18.3506
G01 X21.8131 Y-18.3974
G01 X21.8954 Y-18.4363
G01 X21.9810 Y-18.4669
G01 X22.0692 Y-18.4890
G01 X22.1592 Y-18.5023
G01 X22.2463 Y-18.5067
G00 Z2.0000
G00 X23.0309 Y-16.9131
G01 F25.00
G01 Z-0.1000
G01 F120.00
G01 X23.1256 Y-17.0435
G01 X23.1987 Y-17.1870
G01 X23.2485 Y-17.3403
G01 X23.2737 Y-17.4994
G01 X23.2737 Y-17.6606
G01 X23.2485 Y-17.8197
G01 X23.1987 Y-17.9730
G01 X23.1256 Y-18.1165
G01 X23.0309 Y-18.2469
G01 X22.9169 Y-18.3608
G01 X22.7866 Y-18.4555
G01 X22.6430 Y-18.5287
G01 X22.4897 Y-18.5785
G01 X22.3306 Y-18.6037
G01 X22.1695 Y-18.6037
G01 X22.0103 Y-18.5785
G01 X21.8571 Y-18.5287
G01 X21.7135 Y-18.4555
G01 X21.5831 Y-18.3608
G01 X21.4692 Y-18.2469
G01 X21.3745 Y-18.1165
G01 X21.3013 Y-17.9730
G01 X21.2515 Y-17.8197
G01 X21.2263 Y-17.6606
G01 X21.2263 Y-17.4994
G01 X21.2515 Y-17.3403
G01 X21.3013 Y-17.1870
G01 X21.3745 Y-17.0435
G01 X21.4692 Y-16.9131
G01 X21.5831 Y-16.7992
G01 X21.7135 Y-16.7045
G01 X21.8571 Y-16.6313
G01 X22.0103 Y-16.5815
G01 X22.1695 Y-16.5563
G01 X22.3306 Y-16.5563
G01 X22.4897 Y-16.5815
G01 X22.6430 Y-16.6313
G01 X22.7866 Y-16.7045
G01 X22.9169 Y-16.7992
G01 X23.0309 Y-16.9131
G00 Z2.0000
G00 X22.2463 Y-15.9667
G01 F25.00
G01 Z-0.1000
G01 F120.00
G01 X22.2538 Y-15.9667
G01 X22.3409 Y-15.9623
G01 X22.4308 Y-15.9490
G01 X22.5191 Y-15.9269
G01 X22.6047 Y-15.8963
G01 X22.6869 Y-15.8574
G01 X22.7649 Y-15.8106
G01 X22.8380 Y-15.7564
G01 X22.9054 Y-15.6953
G01 X22.9665 Y-15.6280
G01 X23.0206 Y-15.5549
G01 X23.0674 Y-15.4769
G01 X23.1063 Y-15.3947
G01 X23.1369 Y-15.3090
G01 X23.1590 Y-15.2208
G01 X23.1724 Y-15.1308
G01 X23.1768 Y-15.0400
G01 X23.1724 Y-14.9492
G01 X23.1590 Y-14.8592
G01 X23.1369 Y-14.7710
G01 X23.1063 Y-14.6853
G01 X23.0674 Y-14.6031
G01 X23.0206 Y-14.5251
G01 X22.9665 Y-14.4520
G01 X22.9054 Y-14.3847
G01 X22.8380 Y-14.3236
G01 X22.7649 Y-14.2694
G01 X22.6869 Y-14.2226
G01 X22.6047 Y-14.1837
G01 X22.5191 Y-14.1531
G01 X22.4308 Y-14.1310
G01 X22.3409 Y-14.1177
G01 X22.2500 Y-14.1132
G01 X22.1592 Y-14.1177
G01 X22.0692 Y-14.1310
G01 X21.9810 Y-14.1531
G01 X21.8954 Y-14.1837
G01 X21.8131 Y-14.2226
G01 X21.7351 Y-14.2694
G01 X21.6621 Y-14.3236
G01 X21.5947 Y-14.3847
G01 X21.5336 Y-14.4520
G01 X21.4794 Y-14.5251
G01 X21.4327 Y-14.6031
G01 X21.3938 Y-14.6853
G01 X21.3631 Y-14.7710
G01 X21.3410 Y-14.8592
G01 X21.3277 Y-14.9492
G01 X21.3232 Y-15.0400
G01 X21.3277 Y-15.1308
G01 X21.3410 Y-15.2208
G01 X21.3631 Y-15.3090
G01 X21.3938 Y-15.3947
G01 X21.4327 Y-15.4769
G01 X21.4794 Y-15.5549
G01 X21.5336 Y-15.6280
G01 X21.5947 Y-15.6953
G01 X21.6621 Y-15.7564
G01 X21.7351 Y-15.8106
G01 X21.8131 Y-15.8574
G01 X21.8954 Y-15.8963
G01 X21.9810 Y-15.9269
G01 X22.0692 Y-15.9490
G01 X22.1592 Y-15.9623
G01 X22.2463 Y-15.9667
G00 Z2.0000
G00 X23.0309 Y-14.3731
G01 F25.00
G01 Z-0.1000
G01 F120.00
G01 X23.1256 Y-14.5035
G01 X23.1987 Y-14.6470
G01 X23.2485 Y-14.8003
G01 X23.2737 Y-14.9594
G01 X23.2737 Y-15.1206
G01 X23.2485 Y-15.2797
G01 X23.1987 Y-15.4330
G01 X23.1256 Y-15.5765
G01 X23.0309 Y-15.7069
G01 X22.9169 Y-15.8208
G01 X22.7866 Y-15.9155
G01 X22.6430 Y-15.9887
G01 X22.4897 Y-16.0385
G01 X22.3306 Y-16.0637
G01 X22.1695 Y-16.0637
G01 X22.0103 Y-16.0385
G01 X21.8571 Y-15.9887
G01 X21.7135 Y-15.9155
G01 X21.5831 Y-15.8208
G01 X21.4692 Y-15.7069
G01 X21.3745 Y-15.5765
G01 X21.3013 Y-15.4330
G01 X21.2515 Y-15.2797
G01 X21.2263 Y-15.1206
G01 X21.2263 Y-14.9594
G01 X21.2515 Y-14.8003
G01 X21.3013 Y-14.6470
G01 X21.3745 Y-14.5035
G01 X21.4692 Y-14.3731
G01 X21.5831 Y-14.2592
G01 X21.7135 Y-14.1645
G01 X21.8571 Y-14.0913
G01 X22.0103 Y-14.0415
G01 X22.1695 Y-14.0163
G01 X22.3306 Y-14.0163
G01 X22.4897 Y-14.0415
G01 X22.6430 Y-14.0913
G01 X22.7866 Y-14.1645
G01 X22.9169 Y-14.2592
G01 X23.0309 Y-14.3731
G00 Z2.0000
G00 X22.2463 Y-13.4267
G01 F25.00
G01 Z-0.1000
G01 F120.00
G01 X22.2538 Y-13.4267
G01 X22.3409 Y-13.4223
G01 X22.4308 Y-13.4090
G01 X22.5191 Y-13.3869
G01 X22.6047 Y-13.3563
G01 X22.6869 Y-13.3174
G01 X22.7649 Y-13.2706
G01 X22.8380 Y-13.2164
G01 X22.9054 Y-13.1553
G01 X22.9665 Y-13.0880
G01 X23.0206 Y-13.0149
G01 X23.0674 Y-12.9369
G01 X23.1063 Y-12.8547
G01 X23.1369 Y-12.7690
G01 X23.1590 Y-12.6808
G01 X23.1724 Y-12.5908
G01 X23.1768 Y-12.5000
G01 X23.1724 Y-12.4092
G01 X23.1590 Y-12.3192
G01 X23.1369 Y-12.2310
G01 X23.1063 Y-12.1453
G01 X23.0674 Y-12.0631
G01 X23.0206 Y-11.9851
G01 X22.9665 Y-11.9120
G01 X22.9054 Y-11.8447
G01 X22.8380 Y-11.7836
G01 X22.7649 Y-11.7294
G01 X22.6869 Y-11.6826
G01 X22.6047 Y-11.6437
G01 X22.5191 Y-11.6131
G01 X22.4308 Y-11.5910
G01 X22.3409 Y-11.5777
G01 X22.2500 Y-11.5732
G01 X22.1592 Y-11.5777
G01 X22.0692 Y-11.5910
G01 X21.9810 Y-11.6131
G01 X21.8954 Y-11.6437
G01 X21.8131 Y-11.6826
G01 X21.7351 Y-11.7294
G01 X21.6621 Y-11.7836
G01 X21.5947 Y-11.8447
G01 X21.5336 Y-11.9120
G01 X21.4794 Y-11.9851
G01 X21.4327 Y-12.0631
G01 X21.3938 Y-12.1453
G01 X21.3631 Y-12.2310
G01 X21.3410 Y-12.3192
G01 X21.3277 Y-12.4092
G01 X21.3232 Y-12.5000
G01 X21.3277 Y-12.5908
G01 X21.3410 Y-12.6808
G01 X21.3631 Y-12.7690
G01 X21.3938 Y-12.8547
G01 X21.4327 Y-12.9369
G01 X21.4794 Y-13.0149
G01 X21.5336 Y-13.0880
G01 X21.5947 Y-13.1553
G01 X21.6621 Y-13.2164
G01 X21.7351 Y-13.2706
G01 X21.8131 Y-13.3174
G01 X21.8954 Y-13.3563
G01 X21.9810 Y-13.3869
G01 X22.0692 Y-13.4090
G01 X22.1592 Y-13.4223
G01 X22.2463 Y-13.4267
G00 Z2.0000
G00 X23.0309 Y-11.8331
G01 F25.00
G01 Z-0.1000
G01 F120.00
G01 X23.1256 Y-11.9635
G01 X23.1987 Y-12.1070
G01 X23.2485 Y-12.2603
G01 X23.2737 Y-12.4194
G01 X23.2737 Y-12.5806
G01 X23.2485 Y-12.7397
G01 X23.1987 Y-12.8930
G01 X23.1256 Y-13.0365
G01 X23.0309 Y-13.1669
G01 X22.9169 Y-13.2808
G01 X22.7866 Y-13.3755
G01 X22.6430 Y-13.4487
G01 X22.4897 Y-13.4985
G01 X22.3306 Y-13.5237
G01 X22.1695 Y-13.5237
G01 X22.0103 Y-13.4985
G01 X21.8571 Y-13.4487
G01 X21.7135 Y-13.3755
G01 X21.5831 Y-13.2808
G01 X21.4692 Y-13.1669
G01 X21.3745 Y-13.0365
G01 X21.3013 Y-12.8930
G01 X21.2515 Y-12.7397
G01 X21.2263 Y-12.5806
G01 X21.2263 Y-12.4194
G01 X21.2515 Y-12.2603
G01 X21.3013 Y-12.1070
G01 X21.3745 Y-11.9635
G01 X21.4692 Y-11.8331
G01 X21.5831 Y-11.7192
G01 X21.7135 Y-11.6245
G01 X21.8571 Y-11.5513
G01 X22.0103 Y-11.5015
G01 X22.1695 Y-11.4763
G01 X22.3306 Y-11.4763
G01 X22.4897 Y-11.5015
G01 X22.6430 Y-11.5513
G01 X22.7866 Y-11.6245
G01 X22.9169 Y-11.7192
G01 X23.0309 Y-11.8331
G00 Z2.0000
G00 X22.2463 Y-10.8867
G01 F25.00
G01 Z-0.1000
G01 F120.00
G01 X22.2538 Y-10.8867
G01 X22.3409 Y-10.8823
G01 X22.4308 Y-10.8690
G01 X22.5191 Y-10.8469
G01 X22.6047 Y-10.8163
G01 X22.6869 Y-10.7774
G01 X22.7649 Y-10.7306
G01 X22.8380 Y-10.6764
G01 X22.9054 Y-10.6153
G01 X22.9665 Y-10.5480
G01 X23.0206 Y-10.4749
G01 X23.0674 Y-10.3969
G01 X23.1063 Y-10.3147
G01 X23.1369 Y-10.2290
G01 X23.1590 Y-10.1408
G01 X23.1724 Y-10.0508
G01 X23.1768 Y-9.9600
G01 X23.1724 Y-9.8692
G01 X23.1590 Y-9.7792
G01 X23.1369 Y-9.6910
G01 X23.1063 Y-9.6053
G01 X23.0674 Y-9.5231
G01 X23.0206 Y-9.4451
G01 X22.9665 Y-9.3720
G01 X22.9054 Y-9.3047
G01 X22.8380 Y-9.2436
G01 X22.7649 Y-9.1894
G01 X22.6869 Y-9.1426
G01 X22.6047 Y-9.1037
G01 X22.5191 Y-9.0731
G01 X22.4308 Y-9.0510
G01 X22.3409 Y-9.0377
G01 X22.2500 Y-9.0332
G01 X22.1592 Y-9.0377
G01 X22.0692 Y-9.0510
G01 X21.9810 Y-9.0731
G01 X21.8954 Y-9.1037
G01 X21.8131 Y-9.1426
G01 X21.7351 Y-9.1894
G01 X21.6621 Y-9.2436
G01 X21.5947 Y-9.3047
G01 X21.5336 Y-9.3720
G01 X21.4794 Y-9.4451
G01 X21.4327 Y-9.5231
G01 X21.3938 Y-9.6053
G01 X21.3631 Y-9.6910
G01 X21.3410 Y-9.7792
G01 X21.3277 Y-9.8692
G01 X21.3232 Y-9.9600
G01 X21.3277 Y-10.0508
G01 X21.3410 Y-10.1408
G01 X21.3631 Y-10.2290
G01 X21.3938 Y-10.3147
G01 X21.4327 Y-10.3969
G01 X21.4794 Y-10.4749
G01 X21.5336 Y-10.5480
G01 X21.5947 Y-10.6153
G01 X21.6621 Y-10.6764
G01 X21.7351 Y-10.7306
G01 X21.8131 Y-10.7774
G01 X21.8954 Y-10.8163
G01 X21.9810 Y-10.8469
G01 X22.0692 Y-10.8690
G01 X22.1592 Y-10.8823
G01 X22.2463 Y-10.8867
G00 Z2.0000
G00 X23.0309 Y-9.2931
G01 F25.00
G01 Z-0.1000
G01 F120.00
G01 X23.1256 Y-9.4235
G01 X23.1987 Y-9.5670
G01 X23.2485 Y-9.7203
G01 X23.2737 Y-9.8794
G01 X23.2737 Y-10.0406
G01 X23.2485 Y-10.1997
G01 X23.1987 Y-10.3530
G01 X23.1256 Y-10.4965
G01 X23.0309 Y-10.6269
G01 X22.9169 Y-10.7408
G01 X22.7866 Y-10.8355
G01 X22.6430 Y-10.9087
G01 X22.4897 Y-10.9585
G01 X22.3306 Y-10.9837
G01 X22.1695 Y-10.9837
G01 X22.0103 Y-10.9585
G01 X21.8571 Y-10.9087
G01 X21.7135 Y-10.8355
G01 X21.5831 Y-10.7408
G01 X21.4692 Y-10.6269
G01 X21.3745 Y-10.4965
G01 X21.3013 Y-10.3530
G01 X21.2515 Y-10.1997
G01 X21.2263 Y-10.0406
G01 X21.2263 Y-9.8794
G01 X21.2515 Y-9.7203
G01 X21.3013 Y-9.5670
G01 X21.3745 Y-9.4235
G01 X21.4692 Y-9.2931
G01 X21.5831 Y-9.1792
G01 X21.7135 Y-9.0845
G01 X21.8571 Y-9.0113
G01 X22.0103 Y-8.9615
G01 X22.1695 Y-8.9363
G01 X22.3306 Y-8.9363
G01 X22.4897 Y-8.9615
G01 X22.6430 Y-9.0113
G01 X22.7866 Y-9.0845
G01 X22.9169 Y-9.1792
G01 X23.0309 Y-9.2931
G00 Z2.0000
G00 X22.2463 Y-8.3467
G01 F25.00
G01 Z-0.1000
G01 F120.00
G01 X22.2538 Y-8.3467
G01 X22.3409 Y-8.3423
G01 X22.4308 Y-8.3290
G01 X22.5191 Y-8.3069
G01 X22.6047 Y-8.2763
G01 X22.6869 Y-8.2374
G01 X22.7649 Y-8.1906
G01 X22.8380 Y-8.1364
G01 X22.9054 Y-8.0753
G01 X22.9665 Y-8.0080
G01 X23.0206 Y-7.9349
G01 X23.0674 Y-7.8569
G01 X23.1063 Y-7.7747
G01 X23.1369 Y-7.6890
G01 X23.1590 Y-7.6008
G01 X23.1724 Y-7.5108
G01 X23.1768 Y-7.4200
G01 X23.1724 Y-7.3292
G01 X23.1590 Y-7.2392
G01 X23.1369 Y-7.1510
G01 X23.1063 Y-7.0653
G01 X23.0674 Y-6.9831
G01 X23.0206 Y-6.9051
G01 X22.9665 Y-6.8320
G01 X22.9054 Y-6.7647
G01 X22.8380 Y-6.7036
G01 X22.7649 Y-6.6494
G01 X22.6869 Y-6.6026
G01 X22.6047 Y-6.5637
G01 X22.5191 Y-6.5331
G01 X22.4308 Y-6.5110
G01 X22.3409 Y-6.4977
G01 X22.2500 Y-6.4932
G01 X22.1592 Y-6.4977
G01 X22.0692 Y-6.5110
G01 X21.9810 Y-6.5331
G01 X21.8954 Y-6.5637
G01 X21.8131 Y-6.6026
G01 X21.7351 Y-6.6494
G01 X21.6621 Y-6.7036
G01 X21.5947 Y-6.7647
G01 X21.5336 Y-6.8320
G01 X21.4794 Y-6.9051
G01 X21.4327 Y-6.9831
G01 X21.3938 Y-7.0653
G01 X21.3631 Y-7.1510
G01 X21.3410 Y-7.2392
G01 X21.3277 Y-7.3292
G01 X21.3232 Y-7.4200
G01 X21.3277 Y-7.5108
G01 X21.3410 Y-7.6008
G01 X21.3631 Y-7.6890
G01 X21.3938 Y-7.7747
G01 X21.4327 Y-7.8569
G01 X21.4794 Y-7.9349
G01 X21.5336 Y-8.0080
G01 X21.5947 Y-8.0753
G01 X21.6621 Y-8.1364
G01 X21.7351 Y-8.1906
G01 X21.8131 Y-8.2374
G01 X21.8954 Y-8.2763
G01 X21.9810 Y-8.3069
G01 X22.0692 Y-8.3290
G01 X22.1592 Y-8.3423
G01 X22.2463 Y-8.3467
G00 Z2.0000
G00 X23.0309 Y-6.7531
G01 F25.00
G01 Z-0.1000
G01 F120.00
G01 X23.1256 Y-6.8835
G01 X23.1987 Y-7.0270
G01 X23.2485 Y-7.1803
G01 X23.2737 Y-7.3394
G01 X23.2737 Y-7.5006
G01 X23.2485 Y-7.6597
G01 X23.1987 Y-7.8130
G01 X23.1256 Y-7.9565
G01 X23.0309 Y-8.0869
G01 X22.9169 Y-8.2008
G01 X22.7866 Y-8.2955
G01 X22.6430 Y-8.3687
G01 X22.4897 Y-8.4185
G01 X22.3306 Y-8.4437
G01 X22.1695 Y-8.4437
G01 X22.0103 Y-8.4185
G01 X21.8571 Y-8.3687
G01 X21.7135 Y-8.2955
G01 X21.5831 Y-8.2008
G01 X21.4692 Y-8.0869
G01 X21.3745 Y-7.9565
G01 X21.3013 Y-7.8130
G01 X21.2515 Y-7.6597
G01 X21.2263 Y-7.5006
G01 X21.2263 Y-7.3394
G01 X21.2515 Y-7.1803
G01 X21.3013 Y-7.0270
G01 X21.3745 Y-6.8835
G01 X21.4692 Y-6.7531
G01 X21.5831 Y-6.6392
G01 X21.7135 Y-6.5445
G01 X21.8571 Y-6.4713
G01 X22.0103 Y-6.4215
G01 X22.1695 Y-6.3963
G01 X22.3306 Y-6.3963
G01 X22.4897 Y-6.4215
G01 X22.6430 Y-6.4713
G01 X22.7866 Y-6.5445
G01 X22.9169 Y-6.6392
G01 X23.0309 Y-6.7531
G00 Z2.0000
G00 X22.2463 Y-5.8067
G01 F25.00
G01 Z-0.1000
G01 F120.00
G01 X22.2538 Y-5.8067
G01 X22.3409 Y-5.8023
G01 X22.4308 Y-5.7890
G01 X22.5191 Y-5.7669
G01 X22.6047 Y-5.7363
G01 X22.6869 Y-5.6974
G01 X22.7649 Y-5.6506
G01 X22.8380 Y-5.5964
G01 X22.9054 Y-5.5353
G01 X22.9665 Y-5.4680
G01 X23.0206 Y-5.3949
G01 X23.0674 Y-5.3169
G01 X23.1063 Y-5.2347
G01 X23.1369 Y-5.1490
G01 X23.1590 Y-5.0608
G01 X23.1724 Y-4.9708
G01 X23.1768 Y-4.8800
G01 X23.1724 Y-4.7892
G01 X23.1590 Y-4.6992
G01 X23.1369 Y-4.6110
G01 X23.1063 Y-4.5253
G01 X23.0674 Y-4.4431
G01 X23.0206 Y-4.3651
G01 X22.9665 Y-4.2920
G01 X22.9054 Y-4.2247
G01 X22.8380 Y-4.1636
G01 X22.7649 Y-4.1094
G01 X22.6869 Y-4.0626
G01 X22.6047 Y-4.0237
G01 X22.5191 Y-3.9931
G01 X22.4308 Y-3.9710
G01 X22.3409 Y-3.9577
G01 X22.2500 Y-3.9532
G01 X22.1592 Y-3.9577
G01 X22.0692 Y-3.9710
G01 X21.9810 Y-3.9931
G01 X21.8954 Y-4.0237
G01 X21.8131 Y-4.0626
G01 X21.7351 Y-4.1094
G01 X21.6621 Y-4.1636
G01 X21.5947 Y-4.2247
G01 X21.5336 Y-4.2920
G01 X21.4794 Y-4.3651
G01 X21.4327 Y-4.4431
G01 X21.3938 Y-4.5253
G01 X21.3631 Y-4.6110
G01 X21.3410 Y-4.6992
G01 X21.3277 Y-4.7892
G01 X21.3232 Y-4.8800
G01 X21.3277 Y-4.9708
G01 X21.3410 Y-5.0608
G01 X21.3631 Y-5.1490
G01 X21.3938 Y-5.2347
G01 X21.4327 Y-5.3169
G01 X21.4794 Y-5.3949
G01 X21.5336 Y-5.4680
G01 X21.5947 Y-5.5353
G01 X21.6621 Y-5.5964
G01 X21.7351 Y-5.6506
G01 X21.8131 Y-5.6974
G01 X21.8954 Y-5.7363
G01 X21.9810 Y-5.7669
G01 X22.0692 Y-5.7890
G01 X22.1592 Y-5.8023
G01 X22.2463 Y-5.8067
G00 Z2.0000
G00 X23.0309 Y-4.2131
G01 F25.00
G01 Z-0.1000
G01 F120.00
G01 X23.1256 Y-4.3435
G01 X23.1987 Y-4.4870
G01 X23.2485 Y-4.6403
G01 X23.2737 Y-4.7994
G01 X23.2737 Y-4.9606
G01 X23.2485 Y-5.1197
G01 X23.1987 Y-5.2730
G01 X23.1256 Y-5.4165
G01 X23.0309 Y-5.5469
G01 X22.9169 Y-5.6608
G01 X22.7866 Y-5.7555
G01 X22.6430 Y-5.8287
G01 X22.4897 Y-5.8785
G01 X22.3306 Y-5.9037
G01 X22.1695 Y-5.9037
G01 X22.0103 Y-5.8785
G01 X21.8571 Y-5.8287
G01 X21.7135 Y-5.7555
G01 X21.5831 Y-5.6608
G01 X21.4692 Y-5.5469
G01 X21.3745 Y-5.4165
G01 X21.3013 Y-5.2730
G01 X21.2515 Y-5.1197
G01 X21.2263 Y-4.9606
G01 X21.2263 Y-4.7994
G01 X21.2515 Y-4.6403
G01 X21.3013 Y-4.4870
G01 X21.3745 Y-4.3435
G01 X21.4692 Y-4.2131
G01 X21.5831 Y-4.0992
G01 X21.7135 Y-4.0045
G01 X21.8571 Y-3.9313
G01 X22.0103 Y-3.8815
G01 X22.1695 Y-3.8563
G01 X22.3306 Y-3.8563
G01 X22.4897 Y-3.8815
G01 X22.6430 Y-3.9313
G01 X22.7866 Y-4.0045
G01 X22.9169 Y-4.0992
G01 X23.0309 Y-4.2131
G00 Z2.0000
G00 X23.0483 Y-2.9285
G01 F25.00
G01 Z-0.1000
G01 F120.00
G01 X23.0427 Y-2.9285
G01 X23.0407 Y-2.9311
G01 X23.0483 Y-2.9285
G01 X23.0118 Y-2.8670
G01 X22.9665 Y-2.9280
G01 X22.9080 Y-2.9926
G01 X22.9026 Y-2.9979
G01 X22.8408 Y-3.0540
G01 X22.8350 Y-3.0587
G01 X22.7649 Y-3.1106
G01 X22.6902 Y-3.1555
G01 X22.6835 Y-3.1591
G01 X22.6047 Y-3.1963
G01 X22.5191 Y-3.2269
G01 X22.4308 Y-3.2490
G01 X22.3446 Y-3.2619
G01 X22.3371 Y-3.2626
G01 X22.2538 Y-3.2667
G01 X22.2463 Y-3.2667
G01 X22.1592 Y-3.2623
G01 X22.0729 Y-3.2496
G01 X22.0655 Y-3.2482
G01 X21.9810 Y-3.2269
G01 X21.8954 Y-3.1963
G01 X21.8131 Y-3.1574
G01 X21.7336 Y-3.1095
G01 X21.6621 Y-3.0564
G01 X21.5947 Y-2.9953
G01 X21.5336 Y-2.9280
G01 X21.4794 Y-2.8549
G01 X21.4327 Y-2.7769
G01 X21.3938 Y-2.6947
G01 X21.3631 Y-2.6090
G01 X21.3410 Y-2.5208
G01 X21.3277 Y-2.4308
G01 X21.3232 Y-2.3400
G01 X21.3277 Y-2.2492
G01 X21.3410 Y-2.1592
G01 X21.3631 Y-2.0710
G01 X21.3938 Y-1.9853
G01 X21.4327 Y-1.9031
G01 X21.4805 Y-1.8235
G01 X21.5313 Y-1.7550
G01 X21.5361 Y-1.7492
G01 X21.5947 Y-1.6847
G01 X21.6592 Y-1.6260
G01 X21.6650 Y-1.6213
G01 X21.7351 Y-1.5694
G01 X21.8131 Y-1.5226
G01 X21.8919 Y-1.4853
G01 X21.8989 Y-1.4824
G01 X21.9810 Y-1.4531
G01 X22.0655 Y-1.4318
G01 X22.0729 Y-1.4304
G01 X22.1592 Y-1.4177
G01 X22.2500 Y-1.4132
G01 X22.3409 Y-1.4177
G01 X22.4271 Y-1.4304
G01 X22.4345 Y-1.4318
G01 X22.5191 Y-1.4531
G01 X22.6012 Y-1.4824
G01 X22.6081 Y-1.4853
G01 X22.6869 Y-1.5226
G01 X22.7649 Y-1.5694
G01 X22.8350 Y-1.6213
G01 X22.8408 Y-1.6260
G01 X22.9026 Y-1.6821
G01 X22.9080 Y-1.6874
G01 X22.9665 Y-1.7520
G01 X23.0118 Y-1.8130
G01 X28.4917 Y-1.8130
G01 X34.7230 Y4.4183
G01 X34.7230 Y5.0932
G01 X34.4000 Y5.0932
G01 X34.3944 Y5.0934
G01 X34.3869 Y5.0943
G01 X34.3759 Y5.0971
G01 X34.3655 Y5.1014
G01 X34.3605 Y5.1041
G01 X34.3543 Y5.1083
G01 X34.3457 Y5.1157
G01 X34.3419 Y5.1198
G01 X34.3372 Y5.1258
G01 X34.3314 Y5.1355
G01 X34.3291 Y5.1406
G01 X34.3265 Y5.1477
G01 X34.3241 Y5.1587
G01 X34.3232 Y5.1700
G01 X34.3232 Y6.8700
G01 X34.3236 Y6.8775
G01 X34.3244 Y6.8831
G01 X34.3255 Y6.8887
G01 X34.3277 Y6.8959
G01 X34.3306 Y6.9028
G01 X34.3342 Y6.9095
G01 X34.3372 Y6.9142
G01 X34.3419 Y6.9202
G01 X34.3484 Y6.9269
G01 X34.3543 Y6.9317
G01 X34.3605 Y6.9359
G01 X34.3672 Y6.9394
G01 X34.3742 Y6.9423
G01 X34.3814 Y6.9445
G01 X34.3906 Y6.9462
G01 X34.3981 Y6.9468
G01 X36.1000 Y6.9468
G01 X36.1094 Y6.9462
G01 X36.1187 Y6.9445
G01 X36.1259 Y6.9423
G01 X36.1346 Y6.9386
G01 X36.1411 Y6.9349
G01 X36.1487 Y6.9294
G01 X36.1556 Y6.9230
G01 X36.1617 Y6.9157
G01 X36.1649 Y6.9111
G01 X36.1686 Y6.9045
G01 X36.1729 Y6.8941
G01 X36.1750 Y6.8868
G01 X36.1760 Y6.8813
G01 X36.1768 Y6.8700
G01 X36.1768 Y5.1700
G01 X36.1760 Y5.1587
G01 X36.1735 Y5.1477
G01 X36.1717 Y5.1424
G01 X36.1686 Y5.1355
G01 X36.1659 Y5.1305
G01 X36.1617 Y5.1243
G01 X36.1543 Y5.1157
G01 X36.1458 Y5.1083
G01 X36.1362 Y5.1023
G01 X36.1311 Y5.0998
G01 X36.1241 Y5.0971
G01 X36.1132 Y5.0943
G01 X36.1057 Y5.0934
G01 X36.1000 Y5.0932
G01 X35.7770 Y5.0932
G01 X35.7770 Y4.2000
G01 X35.7747 Y4.1502
G01 X35.7676 Y4.1009
G01 X35.7661 Y4.0935
G01 X35.7544 Y4.0470
G01 X35.7383 Y4.0018
G01 X35.7354 Y3.9949
G01 X35.7148 Y3.9516
G01 X35.6902 Y3.9104
G01 X35.6861 Y3.9041
G01 X35.6574 Y3.8657
G01 X35.6227 Y3.8273
G01 X29.0827 Y-2.7127
G01 X29.0472 Y-2.7449
G01 X29.0414 Y-2.7497
G01 X29.0028 Y-2.7782
G01 X28.9585 Y-2.8048
G01 X28.9117 Y-2.8269
G01 X28.8666 Y-2.8431
G01 X28.8594 Y-2.8453
G01 X28.8165 Y-2.8561
G01 X28.8091 Y-2.8575
G01 X28.7617 Y-2.8645
G01 X28.7119 Y-2.8670
G01 X23.0118 Y-2.8670
G00 Z2.0000
G00 X23.0358 Y-1.7423
G01 F25.00
G01 Z-0.1000
G01 F120.00
G01 X23.0528 Y-1.7515
G01 X23.0427 Y-1.7515
G01 X23.0358 Y-1.7423
G00 Z2.0000
G00 X23.2383 Y-0.5108
G01 F25.00
G01 Z-0.1000
G01 F120.00
G01 X23.2383 Y-0.3885
G01 X23.3655 Y-0.3885
G01 X23.3581 Y-0.3911
G01 X23.3500 Y-0.3945
G01 X23.3365 Y-0.4016
G01 X23.3235 Y-0.4104
G01 X23.3120 Y-0.4203
G01 X23.3035 Y-0.4291
G01 X23.2545 Y-0.4857
G01 X23.2453 Y-0.4984
G01 X23.2383 Y-0.5108
G00 Z2.0000
G00 X23.2383 Y0.9162
G01 F25.00
G01 Z-0.1000
G01 F120.00
G01 X23.2437 Y0.9017
G01 X23.2508 Y0.8878
G01 X23.2553 Y0.8807
G01 X23.2604 Y0.8735
G01 X23.2703 Y0.8619
G01 X23.2791 Y0.8535
G01 X23.3357 Y0.8045
G01 X23.3469 Y0.7963
G01 X23.3604 Y0.7885
G01 X23.2383 Y0.7885
G01 X23.2383 Y0.9162
G00 Z2.0000
G00 X21.2263 Y1.0671
G01 F25.00
G01 Z-0.1000
G01 F120.00
G01 X21.2364 Y1.1178
G01 X21.2748 Y1.1752
G01 X21.3323 Y1.2136
G01 X21.3829 Y1.2237
G01 X23.1171 Y1.2237
G01 X23.1678 Y1.2136
G01 X23.2253 Y1.1752
G01 X23.2636 Y1.1178
G01 X23.2737 Y1.0671
G01 X23.2737 Y1.0227
G01 X23.2743 Y1.0154
G01 X23.2755 Y1.0082
G01 X23.2977 Y0.9322
G01 X23.3005 Y0.9251
G01 X23.3031 Y0.9200
G01 X23.3072 Y0.9136
G01 X23.3119 Y0.9075
G01 X23.3199 Y0.8994
G01 X23.3727 Y0.8537
G01 X23.3788 Y0.8489
G01 X23.3852 Y0.8448
G01 X23.3939 Y0.8406
G01 X23.4030 Y0.8376
G01 X23.4600 Y0.8251
G01 X23.4672 Y0.8240
G01 X23.4745 Y0.8237
G01 X24.8122 Y0.8238
G01 X24.8194 Y0.8245
G01 X24.8284 Y0.8263
G01 X24.8972 Y0.8465
G01 X24.9060 Y0.8497
G01 X24.9128 Y0.8530
G01 X24.9207 Y0.8581
G01 X24.9490 Y0.8811
G01 X25.9688 Y1.9008
G01 X25.9747 Y1.9078
G01 X25.9797 Y1.9154
G01 X26.0150 Y1.9800
G01 X26.0181 Y1.9869
G01 X26.0200 Y1.9922
G01 X26.0219 Y1.9995
G01 X26.0231 Y2.0070
G01 X26.0259 Y2.0333
G01 X26.0263 Y2.0415
G01 X26.0261 Y4.8010
G01 X26.0253 Y4.8082
G01 X26.0237 Y4.8154
G01 X26.0017 Y4.8896
G01 X25.9978 Y4.8983
G01 X25.9929 Y4.9064
G01 X25.9869 Y4.9139
G01 X25.9801 Y4.9206
G01 X25.9244 Y4.9688
G01 X25.9148 Y4.9752
G01 X25.9079 Y4.9786
G01 X25.9026 Y4.9807
G01 X25.8934 Y4.9833
G01 X25.8365 Y4.9955
G01 X25.8274 Y4.9963
G01 X25.7829 Y4.9963
G01 X25.7323 Y5.0064
G01 X25.6748 Y5.0448
G01 X25.6364 Y5.1022
G01 X25.6263 Y5.1529
G01 X25.6263 Y6.8871
G01 X25.6364 Y6.9378
G01 X25.6748 Y6.9952
G01 X25.7323 Y7.0336
G01 X25.7829 Y7.0437
G01 X27.5171 Y7.0437
G01 X27.5678 Y7.0336
G01 X27.6253 Y6.9952
G01 X27.6636 Y6.9378
G01 X27.6737 Y6.8871
G01 X27.6737 Y5.1529
G01 X27.6636 Y5.1022
G01 X27.6253 Y5.0448
G01 X27.5678 Y5.0064
G01 X27.5171 Y4.9963
G01 X27.4727 Y4.9963
G01 X27.4636 Y4.9955
G01 X27.4564 Y4.9941
G01 X27.3804 Y4.9717
G01 X27.3734 Y4.9687
G01 X27.3684 Y4.9659
G01 X27.3620 Y4.9617
G01 X27.3561 Y4.9569
G01 X27.3494 Y4.9501
G01 X27.3025 Y4.8958
G01 X27.2979 Y4.8897
G01 X27.2939 Y4.8831
G01 X27.2900 Y4.8744
G01 X27.2871 Y4.8652
G01 X27.2755 Y4.8118
G01 X27.2739 Y4.8010
G01 X27.2737 Y1.6386
G01 X27.2498 Y1.5181
G01 X27.2027 Y1.4046
G01 X27.1345 Y1.3024
G01 X25.5476 Y-0.2845
G01 X25.4455 Y-0.3527
G01 X25.3320 Y-0.3997
G01 X25.2115 Y-0.4237
G01 X23.4745 Y-0.4237
G01 X23.4672 Y-0.4240
G01 X23.4582 Y-0.4255
G01 X23.3840 Y-0.4471
G01 X23.3751 Y-0.4505
G01 X23.3668 Y-0.4551
G01 X23.3576 Y-0.4618
G01 X23.3507 Y-0.4685
G01 X23.3037 Y-0.5227
G01 X23.2990 Y-0.5287
G01 X23.2949 Y-0.5352
G01 X23.2914 Y-0.5421
G01 X23.2887 Y-0.5493
G01 X23.2867 Y-0.5567
G01 X23.2755 Y-0.6082
G01 X23.2743 Y-0.6154
G01 X23.2737 Y-0.6227
G01 X23.2737 Y-0.6671
G01 X23.2636 Y-0.7178
G01 X23.2253 Y-0.7752
G01 X23.1678 Y-0.8136
G01 X23.1171 Y-0.8237
G01 X21.3829 Y-0.8237
G01 X21.3323 Y-0.8136
G01 X21.2748 Y-0.7752
G01 X21.2364 Y-0.7178
G01 X21.2263 Y-0.6671
G01 X21.2263 Y1.0671
G00 Z2.0000
G00 X18.7663 Y5.1318
G01 F25.00
G01 Z-0.1000
G01 F120.00
G01 X18.7517 Y5.1263
G01 X18.7378 Y5.1192
G01 X18.7307 Y5.1147
G01 X18.7235 Y5.1096
G01 X18.7120 Y5.0997
G01 X18.7035 Y5.0909
G01 X18.6545 Y5.0343
G01 X18.6464 Y5.0232
G01 X18.6385 Y5.0096
G01 X18.6385 Y5.1318
G01 X18.7663 Y5.1318
G00 Z2.0000
G00 X17.4616 Y5.0045
G01 F25.00
G01 Z-0.1000
G01 F120.00
G01 X17.4589 Y5.0120
G01 X17.4555 Y5.0201
G01 X17.4484 Y5.0335
G01 X17.4397 Y5.0465
G01 X17.4298 Y5.0581
G01 X17.4209 Y5.0665
G01 X17.3643 Y5.1155
G01 X17.3516 Y5.1247
G01 X17.3392 Y5.1318
G01 X17.4616 Y5.1318
G01 X17.4616 Y5.0045
G00 Z2.0000
G00 X17.2642 Y8.0623
G01 F25.00
G01 Z-0.1000
G01 F120.00
G01 X17.2473 Y8.0715
G01 X17.2574 Y8.0715
G01 X17.2642 Y8.0623
G00 Z2.0000
G00 X17.2518 Y9.2485
G01 F25.00
G01 Z-0.1000
G01 F120.00
G01 X17.2560 Y9.2499
G01 X17.2593 Y9.2511
G01 X17.2574 Y9.2485
G01 X17.2518 Y9.2485
G00 Z2.0000
G00 X18.8963 Y9.1684
G01 F25.00
G01 Z-0.1000
G01 F120.00
G01 X18.9127 Y9.1559
G01 X18.9245 Y9.1485
G01 X18.9082 Y9.1485
G01 X18.8963 Y9.1684
G00 Z2.0000
G00 X25.8518 Y9.1485
G01 F25.00
G01 Z-0.1000
G01 F120.00
G01 X25.8560 Y9.1499
G01 X25.8593 Y9.1511
G01 X25.8574 Y9.1485
G01 X25.8518 Y9.1485
G00 Z2.0000
G00 X25.8642 Y7.9623
G01 F25.00
G01 Z-0.1000
G01 F120.00
G01 X25.8473 Y7.9715
G01 X25.8574 Y7.9715
G01 X25.8642 Y7.9623
G00 Z2.0000
G00 X27.4483 Y7.9715
G01 F25.00
G01 Z-0.1000
G01 F120.00
G01 X27.4441 Y7.9701
G01 X27.4407 Y7.9689
G01 X27.4427 Y7.9715
G01 X27.4483 Y7.9715
G00 Z2.0000
G00 X27.3685 Y9.2373
G01 F25.00
G01 Z-0.1000
G01 F120.00
G01 X27.3833 Y9.2301
G01 X27.3915 Y9.2270
G01 X27.3996 Y9.2245
G01 X27.4148 Y9.2212
G01 X27.4232 Y9.2201
G01 X27.4319 Y9.2195
G01 X27.4456 Y9.2198
G01 X27.5203 Y9.2252
G01 X27.5339 Y9.2273
G01 X27.5491 Y9.2313
G01 X27.4663 Y9.1485
G01 X27.4427 Y9.1485
G01 X27.4135 Y9.1875
G01 X27.3685 Y9.2373
G00 Z2.0000
G00 X29.3862 Y9.3170
G01 F25.00
G01 Z-0.1000
G01 F120.00
G01 X29.3883 Y9.3031
G01 X29.3917 Y9.2886
G01 X29.3962 Y9.2744
G01 X29.4017 Y9.2606
G01 X29.4082 Y9.2472
G01 X29.4152 Y9.2350
G01 X29.4220 Y9.2249
G01 X29.4332 Y9.2099
G01 X29.2790 Y9.2099
G01 X29.3862 Y9.3170
G01 X29.4566 Y9.4743
G01 X29.4531 Y9.4672
G01 X29.4511 Y9.4623
G01 X29.4505 Y9.4609
G01 X29.4498 Y9.4591
G01 X29.4471 Y9.4511
G01 X29.4448 Y9.4427
G01 X29.4422 Y9.4276
G01 X29.4414 Y9.4189
G01 X29.4411 Y9.4105
G01 X29.4415 Y9.4010
G01 X29.4472 Y9.3237
G01 X29.4486 Y9.3151
G01 X29.4509 Y9.3050
G01 X29.4540 Y9.2952
G01 X29.4578 Y9.2856
G01 X29.4639 Y9.2733
G01 X29.4721 Y9.2605
G01 X29.5172 Y9.2003
G01 X29.5238 Y9.1924
G01 X29.5296 Y9.1863
G01 X29.5373 Y9.1794
G01 X29.5442 Y9.1740
G01 X29.5511 Y9.1692
G01 X29.5586 Y9.1647
G01 X29.5723 Y9.1580
G01 X29.5973 Y9.1485
G01 X29.1307 Y9.1485
G01 X29.4566 Y9.4743
G00 Z2.0000
G00 X27.5000 Y5.0932
G01 F25.00
G01 Z-0.1000
G01 F120.00
G01 X27.1770 Y5.0932
G01 X27.1770 Y1.7000
G01 X27.1745 Y1.6483
G01 X27.1669 Y1.5972
G01 X27.1544 Y1.5470
G01 X27.1376 Y1.5001
G01 X27.1148 Y1.4516
G01 X27.0882 Y1.4072
G01 X27.0574 Y1.3657
G01 X27.0240 Y1.3287
G01 X25.5213 Y-0.1740
G01 X25.4844 Y-0.2074
G01 X25.4428 Y-0.2382
G01 X25.3985 Y-0.2648
G01 X25.3552 Y-0.2854
G01 X25.3482 Y-0.2883
G01 X25.3066 Y-0.3031
G01 X25.2994 Y-0.3053
G01 X25.2528 Y-0.3169
G01 X25.1998 Y-0.3246
G01 X25.1500 Y-0.3270
G01 X23.1768 Y-0.3270
G01 X23.1768 Y-0.6500
G01 X23.1766 Y-0.6556
G01 X23.1757 Y-0.6631
G01 X23.1729 Y-0.6741
G01 X23.1702 Y-0.6811
G01 X23.1678 Y-0.6862
G01 X23.1639 Y-0.6927
G01 X23.1606 Y-0.6972
G01 X23.1530 Y-0.7056
G01 X23.1473 Y-0.7105
G01 X23.1427 Y-0.7139
G01 X23.1329 Y-0.7194
G01 X23.1277 Y-0.7217
G01 X23.1205 Y-0.7240
G01 X23.1094 Y-0.7262
G01 X23.1000 Y-0.7268
G01 X21.3981 Y-0.7268
G01 X21.3906 Y-0.7262
G01 X21.3832 Y-0.7249
G01 X21.3759 Y-0.7229
G01 X21.3689 Y-0.7202
G01 X21.3622 Y-0.7168
G01 X21.3558 Y-0.7128
G01 X21.3499 Y-0.7082
G01 X21.3444 Y-0.7030
G01 X21.3395 Y-0.6972
G01 X21.3351 Y-0.6911
G01 X21.3323 Y-0.6862
G01 X21.3291 Y-0.6794
G01 X21.3265 Y-0.6723
G01 X21.3247 Y-0.6650
G01 X21.3236 Y-0.6575
G01 X21.3232 Y-0.6500
G01 X21.3232 Y1.0500
G01 X21.3238 Y1.0594
G01 X21.3260 Y1.0705
G01 X21.3298 Y1.0811
G01 X21.3342 Y1.0895
G01 X21.3407 Y1.0987
G01 X21.3471 Y1.1056
G01 X21.3558 Y1.1128
G01 X21.3638 Y1.1177
G01 X21.3724 Y1.1217
G01 X21.3814 Y1.1245
G01 X21.3906 Y1.1262
G01 X21.4000 Y1.1268
G01 X23.1000 Y1.1268
G01 X23.1076 Y1.1264
G01 X23.1150 Y1.1253
G01 X23.1205 Y1.1240
G01 X23.1311 Y1.1202
G01 X23.1362 Y1.1177
G01 X23.1427 Y1.1139
G01 X23.1473 Y1.1105
G01 X23.1530 Y1.1056
G01 X23.1569 Y1.1016
G01 X23.1617 Y1.0957
G01 X23.1678 Y1.0862
G01 X23.1723 Y1.0759
G01 X23.1740 Y1.0705
G01 X23.1757 Y1.0631
G01 X23.1765 Y1.0575
G01 X23.1768 Y1.0500
G01 X23.1768 Y0.7270
G01 X24.9317 Y0.7270
G01 X26.1230 Y1.9183
G01 X26.1230 Y5.0932
G01 X25.8000 Y5.0932
G01 X25.7888 Y5.0940
G01 X25.7777 Y5.0965
G01 X25.7672 Y5.1006
G01 X25.7605 Y5.1041
G01 X25.7558 Y5.1072
G01 X25.7471 Y5.1144
G01 X25.7395 Y5.1228
G01 X25.7362 Y5.1273
G01 X25.7323 Y5.1338
G01 X25.7277 Y5.1441
G01 X25.7247 Y5.1550
G01 X25.7236 Y5.1625
G01 X25.7232 Y5.1700
G01 X25.7232 Y6.8719
G01 X25.7238 Y6.8794
G01 X25.7251 Y6.8868
G01 X25.7277 Y6.8959
G01 X25.7306 Y6.9028
G01 X25.7342 Y6.9095
G01 X25.7395 Y6.9172
G01 X25.7444 Y6.9230
G01 X25.7499 Y6.9282
G01 X25.7543 Y6.9317
G01 X25.7605 Y6.9359
G01 X25.7655 Y6.9386
G01 X25.7724 Y6.9417
G01 X25.7777 Y6.9435
G01 X25.7850 Y6.9453
G01 X25.7925 Y6.9464
G01 X25.8000 Y6.9468
G01 X27.5000 Y6.9468
G01 X27.5094 Y6.9462
G01 X27.5169 Y6.9449
G01 X27.5241 Y6.9429
G01 X27.5311 Y6.9402
G01 X27.5395 Y6.9359
G01 X27.5458 Y6.9317
G01 X27.5530 Y6.9256
G01 X27.5582 Y6.9202
G01 X27.5628 Y6.9142
G01 X27.5668 Y6.9079
G01 X27.5702 Y6.9011
G01 X27.5723 Y6.8959
G01 X27.5740 Y6.8905
G01 X27.5757 Y6.8831
G01 X27.5766 Y6.8756
G01 X27.5768 Y6.8700
G01 X27.5768 Y5.1700
G01 X27.5765 Y5.1625
G01 X27.5753 Y5.1550
G01 X27.5729 Y5.1459
G01 X27.5702 Y5.1389
G01 X27.5659 Y5.1305
G01 X27.5606 Y5.1228
G01 X27.5556 Y5.1170
G01 X27.5487 Y5.1106
G01 X27.5411 Y5.1051
G01 X27.5311 Y5.0998
G01 X27.5205 Y5.0960
G01 X27.5094 Y5.0938
G01 X27.5000 Y5.0932
G01 X27.3663 Y5.0318
G01 X27.2385 Y5.0318
G01 X27.2385 Y4.9096
G01 X27.2464 Y4.9232
G01 X27.2545 Y4.9343
G01 X27.3035 Y4.9909
G01 X27.3120 Y4.9997
G01 X27.3182 Y5.0053
G01 X27.3251 Y5.0108
G01 X27.3378 Y5.0192
G01 X27.3517 Y5.0263
G01 X27.3663 Y5.0318
G00 Z2.0000
G00 X26.0616 Y4.9045
G01 F25.00
G01 Z-0.1000
G01 F120.00
G01 X26.0589 Y4.9120
G01 X26.0555 Y4.9201
G01 X26.0484 Y4.9335
G01 X26.0397 Y4.9465
G01 X26.0298 Y4.9581
G01 X26.0209 Y4.9665
G01 X25.9643 Y5.0155
G01 X25.9516 Y5.0247
G01 X25.9392 Y5.0318
G01 X26.0616 Y5.0318
G01 X26.0616 Y4.9045
G00 Z2.0000
G00 X34.2263 Y6.8871
G01 F25.00
G01 Z-0.1000
G01 F120.00
G01 X34.2364 Y6.9378
G01 X34.2748 Y6.9952
G01 X34.3323 Y7.0336
G01 X34.3829 Y7.0437
G01 X36.1171 Y7.0437
G01 X36.1678 Y7.0336
G01 X36.2253 Y6.9952
G01 X36.2636 Y6.9378
G01 X36.2737 Y6.8871
G01 X36.2737 Y5.1529
G01 X36.2636 Y5.1022
G01 X36.2253 Y5.0448
G01 X36.1678 Y5.0064
G01 X36.1171 Y4.9963
G01 X36.0727 Y4.9963
G01 X36.0672 Y4.9960
G01 X36.0600 Y4.9949
G01 X36.0529 Y4.9932
G01 X35.9858 Y4.9735
G01 X35.9804 Y4.9717
G01 X35.9734 Y4.9687
G01 X35.9668 Y4.9649
G01 X35.9605 Y4.9606
G01 X35.9547 Y4.9556
G01 X35.9494 Y4.9501
G01 X35.9012 Y4.8943
G01 X35.8949 Y4.8848
G01 X35.8900 Y4.8744
G01 X35.8871 Y4.8652
G01 X35.8755 Y4.8118
G01 X35.8743 Y4.8046
G01 X35.8737 Y4.7973
G01 X35.8737 Y4.1386
G01 X35.8498 Y4.0181
G01 X35.8027 Y3.9046
G01 X35.7345 Y3.8024
G01 X29.1076 Y-2.8245
G01 X29.0055 Y-2.8927
G01 X28.8920 Y-2.9397
G01 X28.7715 Y-2.9637
G01 X23.1518 Y-2.9639
G01 X23.1445 Y-2.9648
G01 X23.1374 Y-2.9663
G01 X23.0668 Y-2.9870
G01 X23.0563 Y-2.9913
G01 X23.0481 Y-2.9959
G01 X23.0420 Y-3.0004
G01 X23.0167 Y-3.0211
G01 X22.9169 Y-3.1208
G01 X22.7866 Y-3.2155
G01 X22.6430 Y-3.2887
G01 X22.4897 Y-3.3385
G01 X22.3306 Y-3.3637
G01 X22.1695 Y-3.3637
G01 X22.0103 Y-3.3385
G01 X21.8571 Y-3.2887
G01 X21.7135 Y-3.2155
G01 X21.5831 Y-3.1208
G01 X21.4692 Y-3.0069
G01 X21.3745 Y-2.8765
G01 X21.3013 Y-2.7330
G01 X21.2515 Y-2.5797
G01 X21.2263 Y-2.4206
G01 X21.2263 Y-2.2594
G01 X21.2515 Y-2.1003
G01 X21.3013 Y-1.9470
G01 X21.3745 Y-1.8035
G01 X21.4692 Y-1.6731
G01 X21.5831 Y-1.5592
G01 X21.7135 Y-1.4645
G01 X21.8571 Y-1.3913
G01 X22.0103 Y-1.3415
G01 X22.1695 Y-1.3163
G01 X22.3306 Y-1.3163
G01 X22.4897 Y-1.3415
G01 X22.6430 Y-1.3913
G01 X22.7866 Y-1.4645
G01 X22.9169 Y-1.5592
G01 X23.0152 Y-1.6575
G01 X23.0221 Y-1.6636
G01 X23.0280 Y-1.6678
G01 X23.0941 Y-1.7041
G01 X23.1026 Y-1.7081
G01 X23.1097 Y-1.7105
G01 X23.1189 Y-1.7125
G01 X23.1531 Y-1.7162
G01 X28.3685 Y-1.7163
G01 X28.3776 Y-1.7158
G01 X28.3884 Y-1.7137
G01 X28.4590 Y-1.6930
G01 X28.4643 Y-1.6910
G01 X28.4711 Y-1.6879
G01 X28.4776 Y-1.6841
G01 X28.4823 Y-1.6808
G01 X28.5044 Y-1.6630
G01 X28.5105 Y-1.6575
G01 X34.5675 Y4.3995
G01 X34.5724 Y4.4049
G01 X34.5768 Y4.4108
G01 X34.5806 Y4.4170
G01 X34.6141 Y4.4784
G01 X34.6181 Y4.4869
G01 X34.6205 Y4.4940
G01 X34.6226 Y4.5032
G01 X34.6262 Y4.5374
G01 X34.6261 Y4.8010
G01 X34.6253 Y4.8082
G01 X34.6232 Y4.8171
G01 X34.6035 Y4.8842
G01 X34.5995 Y4.8949
G01 X34.5959 Y4.9016
G01 X34.5917 Y4.9080
G01 X34.5869 Y4.9139
G01 X34.5816 Y4.9193
G01 X34.5259 Y4.9676
G01 X34.5181 Y4.9732
G01 X34.5097 Y4.9778
G01 X34.5026 Y4.9807
G01 X34.4952 Y4.9829
G01 X34.4383 Y4.9952
G01 X34.4274 Y4.9963
G01 X34.3829 Y4.9963
G01 X34.3323 Y5.0064
G01 X34.2748 Y5.0448
G01 X34.2364 Y5.1022
G01 X34.2263 Y5.1529
G01 X34.2263 Y6.8871
G00 Z2.0000
G00 X34.4642 Y7.9623
G01 F25.00
G01 Z-0.1000
G01 F120.00
G01 X34.4473 Y7.9715
G01 X34.4574 Y7.9715
G01 X34.4642 Y7.9623
G00 Z2.0000
G00 X34.4518 Y9.1485
G01 F25.00
G01 Z-0.1000
G01 F120.00
G01 X34.4560 Y9.1499
G01 X34.4593 Y9.1511
G01 X34.4574 Y9.1485
G01 X34.4518 Y9.1485
G00 Z2.0000
G00 X34.6616 Y4.9045
G01 F25.00
G01 Z-0.1000
G01 F120.00
G01 X34.6589 Y4.9120
G01 X34.6555 Y4.9201
G01 X34.6484 Y4.9335
G01 X34.6397 Y4.9465
G01 X34.6298 Y4.9581
G01 X34.6209 Y4.9665
G01 X34.5643 Y5.0155
G01 X34.5516 Y5.0247
G01 X34.5392 Y5.0318
G01 X34.6616 Y5.0318
G01 X34.6616 Y4.9045
G00 Z2.0000
G00 X35.9663 Y5.0318
G01 F25.00
G01 Z-0.1000
G01 F120.00
G01 X35.9517 Y5.0263
G01 X35.9378 Y5.0192
G01 X35.9307 Y5.0147
G01 X35.9235 Y5.0096
G01 X35.9120 Y4.9997
G01 X35.9035 Y4.9909
G01 X35.8545 Y4.9343
G01 X35.8464 Y4.9232
G01 X35.8385 Y4.9096
G01 X35.8385 Y5.0318
G01 X35.9663 Y5.0318
G00 Z2.0000
G00 X36.4016 Y19.5845
G01 F25.00
G01 Z-0.1000
G01 F120.00
G01 X36.3989 Y19.5920
G01 X36.3955 Y19.6001
G01 X36.3884 Y19.6135
G01 X36.3797 Y19.6265
G01 X36.3698 Y19.6381
G01 X36.3609 Y19.6465
G01 X36.3043 Y19.6955
G01 X36.2916 Y19.7047
G01 X36.2792 Y19.7118
G01 X36.4016 Y19.7118
G01 X36.4016 Y19.5845
G00 Z2.0000
G00 X37.7063 Y19.7118
G01 F25.00
G01 Z-0.1000
G01 F120.00
G01 X37.6917 Y19.7063
G01 X37.6778 Y19.6992
G01 X37.6651 Y19.6908
G01 X37.6582 Y19.6853
G01 X37.6520 Y19.6797
G01 X37.6435 Y19.6709
G01 X37.5945 Y19.6143
G01 X37.5864 Y19.6032
G01 X37.5785 Y19.5896
G01 X37.5785 Y19.7118
G01 X37.7063 Y19.7118
G00 Z2.0000
G00 X35.2309 Y21.3669
G01 F25.00
G01 Z-0.1000
G01 F120.00
G01 X35.3256 Y21.2365
G01 X35.3987 Y21.0930
G01 X35.4485 Y20.9397
G01 X35.4737 Y20.7806
G01 X35.4737 Y20.6194
G01 X35.4485 Y20.4603
G01 X35.3987 Y20.3070
G01 X35.3256 Y20.1635
G01 X35.2309 Y20.0331
G01 X35.1169 Y19.9192
G01 X34.9866 Y19.8245
G01 X34.8430 Y19.7513
G01 X34.6897 Y19.7015
G01 X34.5306 Y19.6763
G01 X34.3695 Y19.6763
G01 X34.2103 Y19.7015
G01 X34.0571 Y19.7513
G01 X33.9135 Y19.8245
G01 X33.7831 Y19.9192
G01 X33.6848 Y20.0175
G01 X33.6780 Y20.0236
G01 X33.6720 Y20.0278
G01 X33.6060 Y20.0641
G01 X33.5957 Y20.0687
G01 X33.5885 Y20.0710
G01 X33.5811 Y20.0725
G01 X33.5449 Y20.0763
G01 X17.7572 Y20.0763
G01 X17.7463 Y20.0755
G01 X17.7356 Y20.0732
G01 X17.6668 Y20.0530
G01 X17.6580 Y20.0495
G01 X17.6497 Y20.0451
G01 X17.6420 Y20.0396
G01 X17.6167 Y20.0189
G01 X17.5169 Y19.9192
G01 X17.3866 Y19.8245
G01 X17.2430 Y19.7513
G01 X17.0897 Y19.7015
G01 X16.9306 Y19.6763
G01 X16.7695 Y19.6763
G01 X16.6103 Y19.7015
G01 X16.4571 Y19.7513
G01 X16.3135 Y19.8245
G01 X16.1831 Y19.9192
G01 X16.0692 Y20.0331
G01 X15.9745 Y20.1635
G01 X15.9013 Y20.3070
G01 X15.8515 Y20.4603
G01 X15.8263 Y20.6194
G01 X15.8263 Y20.7806
G01 X15.8515 Y20.9397
G01 X15.9013 Y21.0930
G01 X15.9745 Y21.2365
G01 X16.0692 Y21.3669
G01 X16.1831 Y21.4808
G01 X16.3135 Y21.5755
G01 X16.4571 Y21.6487
G01 X16.6103 Y21.6985
G01 X16.7695 Y21.7237
G01 X16.9306 Y21.7237
G01 X17.0897 Y21.6985
G01 X17.2430 Y21.6487
G01 X17.3866 Y21.5755
G01 X17.5169 Y21.4808
G01 X17.6152 Y21.3825
G01 X17.6221 Y21.3764
G01 X17.6280 Y21.3722
G01 X17.6941 Y21.3359
G01 X17.7044 Y21.3313
G01 X17.7115 Y21.3290
G01 X17.7189 Y21.3275
G01 X17.7552 Y21.3237
G01 X33.5446 Y21.3237
G01 X33.5537 Y21.3245
G01 X33.5627 Y21.3263
G01 X33.6315 Y21.3465
G01 X33.6421 Y21.3505
G01 X33.6504 Y21.3549
G01 X33.6580 Y21.3604
G01 X33.6833 Y21.3811
G01 X33.7831 Y21.4808
G01 X33.9135 Y21.5755
G01 X34.0571 Y21.6487
G01 X34.2103 Y21.6985
G01 X34.3695 Y21.7237
G01 X34.5306 Y21.7237
G01 X34.6897 Y21.6985
G01 X34.8430 Y21.6487
G01 X34.9866 Y21.5755
G01 X35.1169 Y21.4808
G01 X35.2309 Y21.3669
G00 Z2.0000
G00 X33.6518 Y21.2885
G01 F25.00
G01 Z-0.1000
G01 F120.00
G01 X33.6560 Y21.2899
G01 X33.6593 Y21.2911
G01 X33.6574 Y21.2885
G01 X33.6518 Y21.2885
G00 Z2.0000
G00 X33.6642 Y20.1023
G01 F25.00
G01 Z-0.1000
G01 F120.00
G01 X33.6473 Y20.1115
G01 X33.6574 Y20.1115
G01 X33.6642 Y20.1023
G00 Z2.0000
G00 X17.6483 Y20.1115
G01 F25.00
G01 Z-0.1000
G01 F120.00
G01 X17.6407 Y20.1089
G01 X17.6427 Y20.1115
G01 X17.6483 Y20.1115
G01 X17.6118 Y20.1730
G01 X33.6883 Y20.1730
G01 X33.7336 Y20.1120
G01 X33.7921 Y20.0474
G01 X33.7974 Y20.0421
G01 X33.8592 Y19.9860
G01 X33.8650 Y19.9813
G01 X33.9351 Y19.9294
G01 X34.0131 Y19.8826
G01 X34.0919 Y19.8453
G01 X34.0989 Y19.8424
G01 X34.1810 Y19.8131
G01 X34.2655 Y19.7918
G01 X34.2729 Y19.7904
G01 X34.3592 Y19.7777
G01 X34.4519 Y19.7732
G01 X34.5409 Y19.7777
G01 X34.6308 Y19.7910
G01 X34.7191 Y19.8131
G01 X34.8047 Y19.8437
G01 X34.8869 Y19.8826
G01 X34.9649 Y19.9294
G01 X35.0380 Y19.9836
G01 X35.1054 Y20.0447
G01 X35.1665 Y20.1120
G01 X35.2206 Y20.1851
G01 X35.2674 Y20.2631
G01 X35.3063 Y20.3453
G01 X35.3369 Y20.4310
G01 X35.3590 Y20.5192
G01 X35.3724 Y20.6092
G01 X35.3768 Y20.7019
G01 X35.3724 Y20.7908
G01 X35.3590 Y20.8808
G01 X35.3369 Y20.9690
G01 X35.3063 Y21.0547
G01 X35.2674 Y21.1369
G01 X35.2206 Y21.2149
G01 X35.1665 Y21.2880
G01 X35.1054 Y21.3553
G01 X35.0380 Y21.4164
G01 X34.9649 Y21.4706
G01 X34.8869 Y21.5174
G01 X34.8047 Y21.5563
G01 X34.7191 Y21.5869
G01 X34.6308 Y21.6090
G01 X34.5409 Y21.6223
G01 X34.4519 Y21.6268
G01 X34.3592 Y21.6223
G01 X34.2729 Y21.6096
G01 X34.2655 Y21.6082
G01 X34.1810 Y21.5869
G01 X34.0989 Y21.5576
G01 X34.0919 Y21.5547
G01 X34.0131 Y21.5174
G01 X33.9351 Y21.4706
G01 X33.8650 Y21.4187
G01 X33.8592 Y21.4140
G01 X33.7974 Y21.3579
G01 X33.7921 Y21.3526
G01 X33.7336 Y21.2880
G01 X33.6883 Y21.2270
G01 X17.6118 Y21.2270
G01 X17.5665 Y21.2880
G01 X17.5080 Y21.3526
G01 X17.5026 Y21.3579
G01 X17.4408 Y21.4140
G01 X17.4350 Y21.4187
G01 X17.3649 Y21.4706
G01 X17.2869 Y21.5174
G01 X17.2081 Y21.5547
G01 X17.2012 Y21.5576
G01 X17.1191 Y21.5869
G01 X17.0345 Y21.6082
G01 X17.0271 Y21.6096
G01 X16.9409 Y21.6223
G01 X16.8481 Y21.6268
G01 X16.7629 Y21.6226
G01 X16.7554 Y21.6219
G01 X16.6692 Y21.6090
G01 X16.5846 Y21.5879
G01 X16.5774 Y21.5857
G01 X16.4954 Y21.5563
G01 X16.4131 Y21.5174
G01 X16.3351 Y21.4706
G01 X16.2650 Y21.4187
G01 X16.2592 Y21.4140
G01 X16.1947 Y21.3553
G01 X16.1361 Y21.2908
G01 X16.1313 Y21.2850
G01 X16.0794 Y21.2149
G01 X16.0327 Y21.1369
G01 X15.9938 Y21.0547
G01 X15.9631 Y20.9690
G01 X15.9410 Y20.8808
G01 X15.9277 Y20.7908
G01 X15.9232 Y20.7000
G01 X15.9277 Y20.6092
G01 X15.9410 Y20.5192
G01 X15.9631 Y20.4310
G01 X15.9938 Y20.3453
G01 X16.0327 Y20.2631
G01 X16.0794 Y20.1851
G01 X16.1336 Y20.1120
G01 X16.1947 Y20.0447
G01 X16.2621 Y19.9836
G01 X16.3351 Y19.9294
G01 X16.4131 Y19.8826
G01 X16.4954 Y19.8437
G01 X16.5810 Y19.8131
G01 X16.6692 Y19.7910
G01 X16.7592 Y19.7777
G01 X16.8500 Y19.7732
G01 X16.9409 Y19.7777
G01 X17.0308 Y19.7910
G01 X17.1191 Y19.8131
G01 X17.2047 Y19.8437
G01 X17.2869 Y19.8826
G01 X17.3649 Y19.9294
G01 X17.4380 Y19.9836
G01 X17.5054 Y20.0447
G01 X17.5665 Y20.1120
G01 X17.6118 Y20.1730
G00 Z2.0000
G00 X17.6358 Y21.2977
G01 F25.00
G01 Z-0.1000
G01 F120.00
G01 X17.6528 Y21.2885
G01 X17.6427 Y21.2885
G01 X17.6358 Y21.2977
G00 Z2.0000
G00 X15.8263 Y19.0271
G01 F25.00
G01 Z-0.1000
G01 F120.00
G01 X15.8364 Y19.0778
G01 X15.8748 Y19.1352
G01 X15.9323 Y19.1736
G01 X15.9829 Y19.1837
G01 X17.7171 Y19.1837
G01 X17.7678 Y19.1736
G01 X17.8253 Y19.1352
G01 X17.8636 Y19.0778
G01 X17.8737 Y19.0271
G01 X17.8737 Y17.2929
G01 X17.8636 Y17.2422
G01 X17.8253 Y17.1848
G01 X17.7678 Y17.1464
G01 X17.7171 Y17.1363
G01 X15.9829 Y17.1363
G01 X15.9323 Y17.1464
G01 X15.8748 Y17.1848
G01 X15.8364 Y17.2422
G01 X15.8263 Y17.2929
G01 X15.8263 Y17.3373
G01 X15.8258 Y17.3446
G01 X15.8242 Y17.3536
G01 X15.8017 Y17.4296
G01 X15.7987 Y17.4366
G01 X15.7950 Y17.4433
G01 X15.7917 Y17.4480
G01 X15.7869 Y17.4539
G01 X15.7801 Y17.4606
G01 X15.7259 Y17.5076
G01 X15.7197 Y17.5122
G01 X15.7131 Y17.5161
G01 X15.7044 Y17.5201
G01 X15.6952 Y17.5229
G01 X15.6419 Y17.5345
G01 X15.6310 Y17.5361
G01 X12.1172 Y17.5363
G01 X12.1063 Y17.5355
G01 X12.0956 Y17.5332
G01 X12.0268 Y17.5130
G01 X12.0197 Y17.5103
G01 X12.0113 Y17.5060
G01 X12.0035 Y17.5008
G01 X11.9782 Y17.4803
G01 X11.9169 Y17.4192
G01 X11.7866 Y17.3245
G01 X11.6430 Y17.2513
G01 X11.4897 Y17.2015
G01 X11.3306 Y17.1763
G01 X11.1695 Y17.1763
G01 X11.0103 Y17.2015
G01 X10.8571 Y17.2513
G01 X10.7135 Y17.3245
G01 X10.5831 Y17.4192
G01 X10.4692 Y17.5331
G01 X10.3745 Y17.6635
G01 X10.3013 Y17.8070
G01 X10.2515 Y17.9603
G01 X10.2263 Y18.1194
G01 X10.2263 Y18.2806
G01 X10.2515 Y18.4397
G01 X10.3013 Y18.5930
G01 X10.3745 Y18.7365
G01 X10.4692 Y18.8669
G01 X10.5831 Y18.9808
G01 X10.7135 Y19.0755
G01 X10.8571 Y19.1487
G01 X11.0103 Y19.1985
G01 X11.1695 Y19.2237
G01 X11.3306 Y19.2237
G01 X11.4897 Y19.1985
G01 X11.6430 Y19.1487
G01 X11.7866 Y19.0755
G01 X11.9169 Y18.9808
G01 X12.0309 Y18.8669
G01 X12.0357 Y18.8608
G01 X12.0408 Y18.8555
G01 X12.0464 Y18.8508
G01 X12.1064 Y18.8048
G01 X12.1113 Y18.8019
G01 X12.1181 Y18.7985
G01 X12.1234 Y18.7964
G01 X12.1307 Y18.7943
G01 X12.1794 Y18.7850
G01 X12.1901 Y18.7838
G01 X15.6310 Y18.7839
G01 X15.6383 Y18.7848
G01 X15.6454 Y18.7863
G01 X15.7142 Y18.8065
G01 X15.7232 Y18.8097
G01 X15.7317 Y18.8141
G01 X15.7395 Y18.8194
G01 X15.7480 Y18.8271
G01 X15.7976 Y18.8842
G01 X15.8022 Y18.8903
G01 X15.8052 Y18.8952
G01 X15.8086 Y18.9021
G01 X15.8114 Y18.9093
G01 X15.8134 Y18.9167
G01 X15.8249 Y18.9700
G01 X15.8260 Y18.9772
G01 X15.8263 Y18.9827
G01 X15.8263 Y19.0271
G00 Z2.0000
G00 X15.7345 Y18.7485
G01 F25.00
G01 Z-0.1000
G01 F120.00
G01 X15.7420 Y18.7511
G01 X15.7501 Y18.7545
G01 X15.7636 Y18.7616
G01 X15.7765 Y18.7704
G01 X15.7881 Y18.7803
G01 X15.7965 Y18.7891
G01 X15.8455 Y18.8457
G01 X15.8547 Y18.8584
G01 X15.8618 Y18.8708
G01 X15.8618 Y18.7485
G01 X15.7345 Y18.7485
G00 Z2.0000
G00 X15.8618 Y17.4438
G01 F25.00
G01 Z-0.1000
G01 F120.00
G01 X15.8563 Y17.4583
G01 X15.8492 Y17.4722
G01 X15.8408 Y17.4850
G01 X15.8354 Y17.4918
G01 X15.8298 Y17.4981
G01 X15.8209 Y17.5065
G01 X15.7643 Y17.5555
G01 X15.7532 Y17.5637
G01 X15.7397 Y17.5715
G01 X15.8618 Y17.5715
G01 X15.8618 Y17.4438
G00 Z2.0000
G00 X17.7000 Y17.2332
G01 F25.00
G01 Z-0.1000
G01 F120.00
G01 X17.7076 Y17.2336
G01 X17.7150 Y17.2347
G01 X17.7223 Y17.2365
G01 X17.7294 Y17.2390
G01 X17.7362 Y17.2423
G01 X17.7427 Y17.2461
G01 X17.7487 Y17.2506
G01 X17.7543 Y17.2557
G01 X17.7594 Y17.2613
G01 X17.7639 Y17.2673
G01 X17.7678 Y17.2738
G01 X17.7710 Y17.2806
G01 X17.7735 Y17.2877
G01 X17.7753 Y17.2950
G01 X17.7765 Y17.3025
G01 X17.7768 Y17.3100
G01 X17.7767 Y19.0138
G01 X17.7762 Y19.0194
G01 X17.7750 Y19.0268
G01 X17.7735 Y19.0323
G01 X17.7710 Y19.0394
G01 X17.7686 Y19.0445
G01 X17.7649 Y19.0511
G01 X17.7617 Y19.0557
G01 X17.7569 Y19.0616
G01 X17.7516 Y19.0669
G01 X17.7473 Y19.0705
G01 X17.7411 Y19.0749
G01 X17.7362 Y19.0777
G01 X17.7311 Y19.0802
G01 X17.7241 Y19.0829
G01 X17.7169 Y19.0849
G01 X17.7113 Y19.0860
G01 X17.7000 Y19.0868
G01 X16.0000 Y19.0868
G01 X15.9925 Y19.0864
G01 X15.9832 Y19.0849
G01 X15.9724 Y19.0817
G01 X15.9622 Y19.0768
G01 X15.9528 Y19.0705
G01 X15.9444 Y19.0630
G01 X15.9407 Y19.0587
G01 X15.9362 Y19.0527
G01 X15.9306 Y19.0428
G01 X15.9265 Y19.0323
G01 X15.9241 Y19.0213
G01 X15.9232 Y19.0100
G01 X15.9232 Y18.6870
G01 X12.0374 Y18.6870
G01 X12.0196 Y18.7165
G01 X11.9676 Y18.7865
G01 X11.9040 Y18.8567
G01 X11.8380 Y18.9164
G01 X11.7680 Y18.9684
G01 X11.7617 Y18.9726
G01 X11.6852 Y19.0182
G01 X11.6047 Y19.0563
G01 X11.5226 Y19.0857
G01 X11.5154 Y19.0879
G01 X11.4308 Y19.1090
G01 X11.3446 Y19.1219
G01 X11.3371 Y19.1226
G01 X11.2500 Y19.1268
G01 X11.1592 Y19.1223
G01 X11.0692 Y19.1090
G01 X10.9846 Y19.0879
G01 X10.9774 Y19.0857
G01 X10.8989 Y19.0576
G01 X10.8919 Y19.0547
G01 X10.8131 Y19.0174
G01 X10.7351 Y18.9706
G01 X10.6621 Y18.9164
G01 X10.5974 Y18.8579
G01 X10.5921 Y18.8526
G01 X10.5361 Y18.7908
G01 X10.5313 Y18.7850
G01 X10.4794 Y18.7149
G01 X10.4327 Y18.6369
G01 X10.3938 Y18.5547
G01 X10.3643 Y18.4726
G01 X10.3621 Y18.4654
G01 X10.3419 Y18.3845
G01 X10.3404 Y18.3771
G01 X10.3277 Y18.2908
G01 X10.3232 Y18.2000
G01 X10.3277 Y18.1092
G01 X10.3410 Y18.0192
G01 X10.3631 Y17.9310
G01 X10.3938 Y17.8453
G01 X10.4327 Y17.7631
G01 X10.4794 Y17.6851
G01 X10.5336 Y17.6120
G01 X10.5947 Y17.5447
G01 X10.6621 Y17.4836
G01 X10.7351 Y17.4294
G01 X10.8131 Y17.3826
G01 X10.8954 Y17.3437
G01 X10.9810 Y17.3131
G01 X11.0655 Y17.2918
G01 X11.0729 Y17.2904
G01 X11.1592 Y17.2777
G01 X11.2463 Y17.2733
G01 X11.2538 Y17.2733
G01 X11.3409 Y17.2777
G01 X11.4271 Y17.2904
G01 X11.4345 Y17.2918
G01 X11.5191 Y17.3131
G01 X11.6029 Y17.3430
G01 X11.6835 Y17.3809
G01 X11.6902 Y17.3845
G01 X11.7649 Y17.4294
G01 X11.8365 Y17.4824
G01 X11.9067 Y17.5460
G01 X11.9652 Y17.6106
G01 X11.9821 Y17.6330
G01 X15.9232 Y17.6330
G01 X15.9232 Y17.3100
G01 X15.9241 Y17.2987
G01 X15.9265 Y17.2877
G01 X15.9306 Y17.2772
G01 X15.9362 Y17.2673
G01 X15.9431 Y17.2584
G01 X15.9513 Y17.2506
G01 X15.9558 Y17.2472
G01 X15.9622 Y17.2432
G01 X15.9724 Y17.2383
G01 X15.9832 Y17.2351
G01 X15.9925 Y17.2336
G01 X16.0000 Y17.2332
G01 X17.7000 Y17.2332
G00 Z2.0000
G00 X12.0641 Y18.7595
G01 F25.00
G01 Z-0.1000
G01 F120.00
G01 X12.0719 Y18.7539
G01 X12.0809 Y18.7485
G01 X12.0721 Y18.7485
G01 X12.0641 Y18.7595
G00 Z2.0000
G00 X10.2358 Y9.2577
G01 F25.00
G01 Z-0.1000
G01 F120.00
G01 X10.2528 Y9.2485
G01 X10.2427 Y9.2485
G01 X10.2358 Y9.2577
G00 Z2.0000
G00 X10.2483 Y8.0715
G01 F25.00
G01 Z-0.1000
G01 F120.00
G01 X10.2441 Y8.0701
G01 X10.2407 Y8.0689
G01 X10.2427 Y8.0715
G01 X10.2483 Y8.0715
G00 Z2.0000
G00 X8.6774 Y8.0445
G01 F25.00
G01 Z-0.1000
G01 F120.00
G01 X8.6533 Y8.0575
G01 X8.6439 Y8.0617
G01 X8.6360 Y8.0645
G01 X8.6262 Y8.0674
G01 X8.6161 Y8.0696
G01 X8.6059 Y8.0709
G01 X8.5961 Y8.0715
G01 X8.6574 Y8.0715
G01 X8.6774 Y8.0445
G01 X8.6883 Y8.1330
G01 X8.7336 Y8.0720
G01 X8.7921 Y8.0074
G01 X8.7974 Y8.0021
G01 X8.8592 Y7.9460
G01 X8.8650 Y7.9413
G01 X8.9351 Y7.8894
G01 X9.0131 Y7.8426
G01 X9.0954 Y7.8037
G01 X9.1774 Y7.7743
G01 X9.1846 Y7.7721
G01 X9.2692 Y7.7510
G01 X9.3554 Y7.7381
G01 X9.3629 Y7.7374
G01 X9.4500 Y7.7332
G01 X9.5409 Y7.7377
G01 X9.6271 Y7.7504
G01 X9.6345 Y7.7518
G01 X9.7191 Y7.7731
G01 X9.8012 Y7.8024
G01 X9.8081 Y7.8053
G01 X9.8869 Y7.8426
G01 X9.9649 Y7.8894
G01 X10.0350 Y7.9413
G01 X10.0408 Y7.9460
G01 X10.1026 Y8.0021
G01 X10.1080 Y8.0074
G01 X10.1665 Y8.0720
G01 X10.2118 Y8.1330
G01 X17.2883 Y8.1330
G01 X17.3336 Y8.0720
G01 X17.3921 Y8.0074
G01 X17.3974 Y8.0021
G01 X17.4592 Y7.9460
G01 X17.4650 Y7.9413
G01 X17.5351 Y7.8894
G01 X17.6131 Y7.8426
G01 X17.6954 Y7.8037
G01 X17.7774 Y7.7743
G01 X17.7846 Y7.7721
G01 X17.8692 Y7.7510
G01 X17.9554 Y7.7381
G01 X17.9629 Y7.7374
G01 X18.0500 Y7.7332
G01 X18.1409 Y7.7377
G01 X18.2308 Y7.7510
G01 X18.3191 Y7.7731
G01 X18.4064 Y7.8045
G01 X18.4869 Y7.8426
G01 X18.5665 Y7.8905
G01 X18.6394 Y7.9448
G01 X18.7040 Y8.0033
G01 X18.7312 Y8.0330
G01 X25.8883 Y8.0330
G01 X25.9336 Y7.9720
G01 X25.9921 Y7.9074
G01 X25.9974 Y7.9021
G01 X26.0592 Y7.8460
G01 X26.0650 Y7.8413
G01 X26.1351 Y7.7894
G01 X26.2131 Y7.7426
G01 X26.2954 Y7.7037
G01 X26.3774 Y7.6743
G01 X26.3846 Y7.6721
G01 X26.4692 Y7.6510
G01 X26.5554 Y7.6381
G01 X26.5629 Y7.6374
G01 X26.6500 Y7.6332
G01 X26.7409 Y7.6377
G01 X26.8271 Y7.6504
G01 X26.8345 Y7.6518
G01 X26.9191 Y7.6731
G01 X27.0012 Y7.7024
G01 X27.0081 Y7.7053
G01 X27.0869 Y7.7426
G01 X27.1649 Y7.7894
G01 X27.2350 Y7.8413
G01 X27.2408 Y7.8460
G01 X27.3026 Y7.9021
G01 X27.3080 Y7.9074
G01 X27.3665 Y7.9720
G01 X27.4118 Y8.0330
G01 X34.4883 Y8.0330
G01 X34.5336 Y7.9720
G01 X34.5947 Y7.9047
G01 X34.6621 Y7.8436
G01 X34.7320 Y7.7916
G01 X34.7383 Y7.7874
G01 X34.8099 Y7.7445
G01 X34.8165 Y7.7409
G01 X34.8954 Y7.7037
G01 X34.9810 Y7.6731
G01 X35.0692 Y7.6510
G01 X35.1592 Y7.6377
G01 X35.2500 Y7.6332
G01 X35.3371 Y7.6374
G01 X35.3446 Y7.6381
G01 X35.4271 Y7.6504
G01 X35.4345 Y7.6518
G01 X35.5191 Y7.6731
G01 X35.6012 Y7.7024
G01 X35.6081 Y7.7053
G01 X35.6869 Y7.7426
G01 X35.7617 Y7.7874
G01 X35.7680 Y7.7916
G01 X35.8350 Y7.8413
G01 X35.8408 Y7.8460
G01 X35.9054 Y7.9047
G01 X35.9665 Y7.9720
G01 X36.0206 Y8.0451
G01 X36.0655 Y8.1198
G01 X36.0691 Y8.1265
G01 X36.1047 Y8.2019
G01 X36.1076 Y8.2088
G01 X36.1369 Y8.2910
G01 X36.1590 Y8.3792
G01 X36.1719 Y8.4654
G01 X36.1726 Y8.4729
G01 X36.1768 Y8.5600
G01 X36.1724 Y8.6508
G01 X36.1597 Y8.7371
G01 X36.1582 Y8.7445
G01 X36.1369 Y8.8290
G01 X36.1063 Y8.9147
G01 X36.0674 Y8.9969
G01 X36.0226 Y9.0717
G01 X36.0185 Y9.0780
G01 X35.9688 Y9.1450
G01 X35.9640 Y9.1508
G01 X35.9054 Y9.2153
G01 X35.8380 Y9.2764
G01 X35.7649 Y9.3306
G01 X35.6902 Y9.3755
G01 X35.6835 Y9.3791
G01 X35.6081 Y9.4147
G01 X35.6012 Y9.4176
G01 X35.5191 Y9.4469
G01 X35.4308 Y9.4690
G01 X35.3446 Y9.4819
G01 X35.3371 Y9.4826
G01 X35.2500 Y9.4868
G01 X35.1592 Y9.4823
G01 X35.0729 Y9.4696
G01 X35.0655 Y9.4682
G01 X34.9810 Y9.4469
G01 X34.8954 Y9.4163
G01 X34.8165 Y9.3791
G01 X34.8099 Y9.3755
G01 X34.7351 Y9.3306
G01 X34.6621 Y9.2764
G01 X34.5974 Y9.2179
G01 X34.5921 Y9.2126
G01 X34.5336 Y9.1480
G01 X34.4883 Y9.0870
G01 X28.9824 Y9.0870
G01 X37.3627 Y17.4673
G01 X37.3974 Y17.5057
G01 X37.4272 Y17.5456
G01 X37.4530 Y17.5883
G01 X37.4565 Y17.5949
G01 X37.4769 Y17.6383
G01 X37.4944 Y17.6870
G01 X37.5061 Y17.7335
G01 X37.5076 Y17.7409
G01 X37.5145 Y17.7883
G01 X37.5170 Y17.8362
G01 X37.5170 Y19.7732
G01 X37.8400 Y19.7732
G01 X37.8457 Y19.7734
G01 X37.8532 Y19.7743
G01 X37.8641 Y19.7771
G01 X37.8711 Y19.7798
G01 X37.8762 Y19.7823
G01 X37.8827 Y19.7861
G01 X37.8873 Y19.7895
G01 X37.8956 Y19.7970
G01 X37.8994 Y19.8013
G01 X37.9039 Y19.8073
G01 X37.9095 Y19.8172
G01 X37.9117 Y19.8224
G01 X37.9140 Y19.8295
G01 X37.9162 Y19.8406
G01 X37.9168 Y19.8500
G01 X37.9168 Y21.5500
G01 X37.9162 Y21.5594
G01 X37.9150 Y21.5668
G01 X37.9129 Y21.5741
G01 X37.9095 Y21.5828
G01 X37.9039 Y21.5927
G01 X37.8969 Y21.6016
G01 X37.8902 Y21.6082
G01 X37.8811 Y21.6149
G01 X37.8711 Y21.6202
G01 X37.8623 Y21.6235
G01 X37.8513 Y21.6260
G01 X37.8400 Y21.6268
G01 X36.1381 Y21.6268
G01 X36.1306 Y21.6262
G01 X36.1214 Y21.6245
G01 X36.1124 Y21.6217
G01 X36.1055 Y21.6186
G01 X36.0989 Y21.6149
G01 X36.0913 Y21.6094
G01 X36.0857 Y21.6043
G01 X36.0807 Y21.5987
G01 X36.0772 Y21.5942
G01 X36.0732 Y21.5879
G01 X36.0706 Y21.5828
G01 X36.0677 Y21.5759
G01 X36.0655 Y21.5687
G01 X36.0644 Y21.5631
G01 X36.0636 Y21.5575
G01 X36.0632 Y21.5500
G01 X36.0632 Y19.8500
G01 X36.0636 Y19.8425
G01 X36.0655 Y19.8313
G01 X36.0677 Y19.8241
G01 X36.0698 Y19.8189
G01 X36.0732 Y19.8121
G01 X36.0762 Y19.8073
G01 X36.0807 Y19.8013
G01 X36.0844 Y19.7970
G01 X36.0884 Y19.7931
G01 X36.0943 Y19.7883
G01 X36.1038 Y19.7823
G01 X36.1142 Y19.7777
G01 X36.1214 Y19.7755
G01 X36.1269 Y19.7743
G01 X36.1344 Y19.7734
G01 X36.1400 Y19.7732
G01 X36.4630 Y19.7732
G01 X36.4630 Y18.0583
G01 X27.4917 Y9.0870
G01 X27.4118 Y9.0870
G01 X27.3665 Y9.1480
G01 X27.3080 Y9.2126
G01 X27.3026 Y9.2179
G01 X27.2408 Y9.2740
G01 X27.2350 Y9.2787
G01 X27.1649 Y9.3306
G01 X27.0902 Y9.3755
G01 X27.0835 Y9.3791
G01 X27.0081 Y9.4147
G01 X27.0012 Y9.4176
G01 X26.9191 Y9.4469
G01 X26.8345 Y9.4682
G01 X26.8271 Y9.4696
G01 X26.7409 Y9.4823
G01 X26.6500 Y9.4868
G01 X26.5592 Y9.4823
G01 X26.4729 Y9.4696
G01 X26.4655 Y9.4682
G01 X26.3810 Y9.4469
G01 X26.2989 Y9.4176
G01 X26.2919 Y9.4147
G01 X26.2131 Y9.3774
G01 X26.1351 Y9.3306
G01 X26.0650 Y9.2787
G01 X26.0592 Y9.2740
G01 X25.9974 Y9.2179
G01 X25.9921 Y9.2126
G01 X25.9336 Y9.1480
G01 X25.8883 Y9.0870
G01 X18.8722 Y9.0870
G01 X18.8655 Y9.1002
G01 X18.8206 Y9.1749
G01 X18.7688 Y9.2450
G01 X18.7640 Y9.2508
G01 X18.7054 Y9.3153
G01 X18.6408 Y9.3740
G01 X18.6350 Y9.3787
G01 X18.5680 Y9.4284
G01 X18.5617 Y9.4326
G01 X18.4869 Y9.4774
G01 X18.4081 Y9.5147
G01 X18.4012 Y9.5176
G01 X18.3191 Y9.5469
G01 X18.2308 Y9.5690
G01 X18.1446 Y9.5819
G01 X18.1371 Y9.5826
G01 X18.0500 Y9.5868
G01 X17.9592 Y9.5823
G01 X17.8729 Y9.5696
G01 X17.8655 Y9.5682
G01 X17.7810 Y9.5469
G01 X17.6989 Y9.5176
G01 X17.6919 Y9.5147
G01 X17.6131 Y9.4774
G01 X17.5351 Y9.4306
G01 X17.4650 Y9.3787
G01 X17.4592 Y9.3740
G01 X17.3974 Y9.3179
G01 X17.3921 Y9.3126
G01 X17.3336 Y9.2480
G01 X17.2883 Y9.1870
G01 X10.2118 Y9.1870
G01 X10.1665 Y9.2480
G01 X10.1080 Y9.3126
G01 X10.1026 Y9.3179
G01 X10.0408 Y9.3740
G01 X10.0350 Y9.3787
G01 X9.9649 Y9.4306
G01 X9.8869 Y9.4774
G01 X9.8081 Y9.5147
G01 X9.8012 Y9.5176
G01 X9.7191 Y9.5469
G01 X9.6345 Y9.5682
G01 X9.6271 Y9.5696
G01 X9.5409 Y9.5823
G01 X9.4538 Y9.5867
G01 X9.4463 Y9.5867
G01 X9.3629 Y9.5826
G01 X9.3554 Y9.5819
G01 X9.2692 Y9.5690
G01 X9.1846 Y9.5479
G01 X9.1774 Y9.5457
G01 X9.0954 Y9.5163
G01 X9.0131 Y9.4774
G01 X8.9351 Y9.4306
G01 X8.8650 Y9.3787
G01 X8.8592 Y9.3740
G01 X8.7974 Y9.3179
G01 X8.7921 Y9.3126
G01 X8.7336 Y9.2480
G01 X8.6883 Y9.1870
G01 X8.2479 Y9.1870
G01 X8.1944 Y9.1843
G01 X8.1488 Y9.1775
G01 X8.1414 Y9.1761
G01 X8.0950 Y9.1643
G01 X8.0498 Y9.1483
G01 X8.0428 Y9.1454
G01 X7.9995 Y9.1248
G01 X7.9536 Y9.0971
G01 X7.9136 Y9.0674
G01 X7.8753 Y9.0327
G01 X6.6748 Y7.8320
G01 X6.6426 Y7.7964
G01 X6.6140 Y7.7580
G01 X6.6098 Y7.7517
G01 X6.5852 Y7.7105
G01 X6.5631 Y7.6638
G01 X6.5469 Y7.6186
G01 X6.5447 Y7.6114
G01 X6.5328 Y7.5630
G01 X6.5255 Y7.5137
G01 X6.5230 Y7.4621
G01 X6.5230 Y1.1268
G01 X6.2000 Y1.1268
G01 X6.1888 Y1.1260
G01 X6.1832 Y1.1249
G01 X6.1759 Y1.1229
G01 X6.1655 Y1.1186
G01 X6.1558 Y1.1128
G01 X6.1513 Y1.1094
G01 X6.1457 Y1.1043
G01 X6.1383 Y1.0957
G01 X6.1323 Y1.0862
G01 X6.1277 Y1.0759
G01 X6.1255 Y1.0687
G01 X6.1244 Y1.0631
G01 X6.1236 Y1.0575
G01 X6.1232 Y1.0500
G01 X6.1232 Y-0.6519
G01 X6.1236 Y-0.6575
G01 X6.1247 Y-0.6650
G01 X6.1277 Y-0.6759
G01 X6.1323 Y-0.6862
G01 X6.1351 Y-0.6911
G01 X6.1395 Y-0.6972
G01 X6.1471 Y-0.7056
G01 X6.1528 Y-0.7105
G01 X6.1574 Y-0.7139
G01 X6.1672 Y-0.7194
G01 X6.1742 Y-0.7223
G01 X6.1795 Y-0.7240
G01 X6.1906 Y-0.7262
G01 X6.2000 Y-0.7268
G01 X7.9019 Y-0.7268
G01 X7.9132 Y-0.7257
G01 X7.9205 Y-0.7240
G01 X7.9259 Y-0.7223
G01 X7.9311 Y-0.7202
G01 X7.9379 Y-0.7168
G01 X7.9473 Y-0.7105
G01 X7.9556 Y-0.7030
G01 X7.9594 Y-0.6987
G01 X7.9639 Y-0.6927
G01 X7.9668 Y-0.6879
G01 X7.9702 Y-0.6811
G01 X7.9740 Y-0.6705
G01 X7.9762 Y-0.6594
G01 X7.9768 Y-0.6500
G01 X7.9768 Y1.0500
G01 X7.9762 Y1.0594
G01 X7.9750 Y1.0668
G01 X7.9717 Y1.0776
G01 X7.9668 Y1.0879
G01 X7.9606 Y1.0972
G01 X7.9556 Y1.1030
G01 X7.9516 Y1.1069
G01 X7.9427 Y1.1139
G01 X7.9329 Y1.1194
G01 X7.9223 Y1.1235
G01 X7.9113 Y1.1260
G01 X7.9000 Y1.1268
G01 X7.5770 Y1.1268
G01 X7.5770 Y7.2438
G01 X8.4662 Y8.1330
G01 X8.6883 Y8.1330
G01 X8.5889 Y8.0715
G01 X8.5087 Y8.0659
G01 X8.4951 Y8.0638
G01 X8.4799 Y8.0598
G01 X8.4917 Y8.0715
G01 X8.5889 Y8.0715
G00 Z2.0000
G00 X8.6518 Y9.2485
G01 F25.00
G01 Z-0.1000
G01 F120.00
G01 X8.6560 Y9.2499
G01 X8.6593 Y9.2511
G01 X8.6574 Y9.2485
G01 X8.6518 Y9.2485
G00 Z2.0000
G00 X-7.0838 Y5.0318
G01 F25.00
G01 Z-0.1000
G01 F120.00
G01 X-7.0983 Y5.0263
G01 X-7.1122 Y5.0192
G01 X-7.1250 Y5.0108
G01 X-7.1318 Y5.0053
G01 X-7.1381 Y4.9997
G01 X-7.1465 Y4.9909
G01 X-7.1955 Y4.9343
G01 X-7.2037 Y4.9232
G01 X-7.2115 Y4.9096
G01 X-7.2115 Y5.0318
G01 X-7.0838 Y5.0318
G00 Z2.0000
G00 X-8.3885 Y4.9045
G01 F25.00
G01 Z-0.1000
G01 F120.00
G01 X-8.3911 Y4.9120
G01 X-8.3945 Y4.9201
G01 X-8.4016 Y4.9335
G01 X-8.4104 Y4.9465
G01 X-8.4203 Y4.9581
G01 X-8.4291 Y4.9665
G01 X-8.4857 Y5.0155
G01 X-8.4984 Y5.0247
G01 X-8.5108 Y5.0318
G01 X-8.3885 Y5.0318
G01 X-8.3885 Y4.9045
G00 Z2.0000
G00 X-8.8237 Y6.8871
G01 F25.00
G01 Z-0.1000
G01 F120.00
G01 X-8.8136 Y6.9378
G01 X-8.7752 Y6.9952
G01 X-8.7178 Y7.0336
G01 X-8.6671 Y7.0437
G01 X-6.9329 Y7.0437
G01 X-6.8822 Y7.0336
G01 X-6.8248 Y6.9952
G01 X-6.7864 Y6.9378
G01 X-6.7763 Y6.8871
G01 X-6.7763 Y5.1529
G01 X-6.7864 Y5.1022
G01 X-6.8248 Y5.0448
G01 X-6.8822 Y5.0064
G01 X-6.9329 Y4.9963
G01 X-6.9773 Y4.9963
G01 X-6.9828 Y4.9960
G01 X-6.9900 Y4.9949
G01 X-6.9971 Y4.9932
G01 X-7.0642 Y4.9735
G01 X-7.0696 Y4.9717
G01 X-7.0766 Y4.9687
G01 X-7.0833 Y4.9649
G01 X-7.0895 Y4.9606
G01 X-7.0953 Y4.9556
G01 X-7.1006 Y4.9501
G01 X-7.1488 Y4.8943
G01 X-7.1552 Y4.8848
G01 X-7.1601 Y4.8744
G01 X-7.1629 Y4.8652
G01 X-7.1745 Y4.8118
G01 X-7.1758 Y4.8046
G01 X-7.1763 Y4.7973
G01 X-7.1763 Y4.1386
G01 X-7.2003 Y4.0181
G01 X-7.2473 Y3.9046
G01 X-7.3155 Y3.8024
G01 X-13.9424 Y-2.8245
G01 X-14.0446 Y-2.8927
G01 X-14.1581 Y-2.9397
G01 X-14.2786 Y-2.9637
G01 X-19.8983 Y-2.9639
G01 X-19.9055 Y-2.9648
G01 X-19.9127 Y-2.9663
G01 X-19.9833 Y-2.9870
G01 X-19.9937 Y-2.9913
G01 X-20.0019 Y-2.9959
G01 X-20.0080 Y-3.0004
G01 X-20.0333 Y-3.0211
G01 X-20.1331 Y-3.1208
G01 X-20.2635 Y-3.2155
G01 X-20.4070 Y-3.2887
G01 X-20.5603 Y-3.3385
G01 X-20.7194 Y-3.3637
G01 X-20.8806 Y-3.3637
G01 X-21.0397 Y-3.3385
G01 X-21.1930 Y-3.2887
G01 X-21.3365 Y-3.2155
G01 X-21.4669 Y-3.1208
G01 X-21.5808 Y-3.0069
G01 X-21.6755 Y-2.8765
G01 X-21.7487 Y-2.7330
G01 X-21.7985 Y-2.5797
G01 X-21.8237 Y-2.4206
G01 X-21.8237 Y-2.2594
G01 X-21.7985 Y-2.1003
G01 X-21.7487 Y-1.9470
G01 X-21.6755 Y-1.8035
G01 X-21.5808 Y-1.6731
G01 X-21.4669 Y-1.5592
G01 X-21.3365 Y-1.4645
G01 X-21.1930 Y-1.3913
G01 X-21.0397 Y-1.3415
G01 X-20.8806 Y-1.3163
G01 X-20.7194 Y-1.3163
G01 X-20.5603 Y-1.3415
G01 X-20.4070 Y-1.3913
G01 X-20.2635 Y-1.4645
G01 X-20.1331 Y-1.5592
G01 X-20.0348 Y-1.6575
G01 X-20.0280 Y-1.6636
G01 X-20.0220 Y-1.6678
G01 X-19.9560 Y-1.7041
G01 X-19.9474 Y-1.7081
G01 X-19.9403 Y-1.7105
G01 X-19.9311 Y-1.7125
G01 X-19.8969 Y-1.7162
G01 X-14.6815 Y-1.7163
G01 X-14.6724 Y-1.7158
G01 X-14.6616 Y-1.7137
G01 X-14.5910 Y-1.6930
G01 X-14.5857 Y-1.6910
G01 X-14.5789 Y-1.6879
G01 X-14.5724 Y-1.6841
G01 X-14.5678 Y-1.6808
G01 X-14.5456 Y-1.6630
G01 X-14.5395 Y-1.6575
G01 X-8.4825 Y4.3995
G01 X-8.4776 Y4.4049
G01 X-8.4732 Y4.4108
G01 X-8.4694 Y4.4170
G01 X-8.4359 Y4.4784
G01 X-8.4319 Y4.4869
G01 X-8.4295 Y4.4940
G01 X-8.4275 Y4.5032
G01 X-8.4238 Y4.5374
G01 X-8.4239 Y4.8010
G01 X-8.4251 Y4.8100
G01 X-8.4268 Y4.8171
G01 X-8.4465 Y4.8842
G01 X-8.4505 Y4.8949
G01 X-8.4541 Y4.9016
G01 X-8.4583 Y4.9080
G01 X-8.4631 Y4.9139
G01 X-8.4685 Y4.9193
G01 X-8.5242 Y4.9676
G01 X-8.5319 Y4.9732
G01 X-8.5403 Y4.9778
G01 X-8.5474 Y4.9807
G01 X-8.5548 Y4.9829
G01 X-8.6118 Y4.9952
G01 X-8.6227 Y4.9963
G01 X-8.6671 Y4.9963
G01 X-8.7178 Y5.0064
G01 X-8.7752 Y5.0448
G01 X-8.8136 Y5.1022
G01 X-8.8237 Y5.1529
G01 X-8.8237 Y6.8871
G00 Z2.0000
G00 X-8.5858 Y7.9623
G01 F25.00
G01 Z-0.1000
G01 F120.00
G01 X-8.6028 Y7.9715
G01 X-8.5927 Y7.9715
G01 X-8.5858 Y7.9623
G00 Z2.0000
G00 X-8.5982 Y9.1485
G01 F25.00
G01 Z-0.1000
G01 F120.00
G01 X-8.5940 Y9.1499
G01 X-8.5907 Y9.1511
G01 X-8.5927 Y9.1485
G01 X-8.5982 Y9.1485
G00 Z2.0000
G00 X-13.5934 Y9.4743
G01 F25.00
G01 Z-0.1000
G01 F120.00
G01 X-13.5969 Y9.4672
G01 X-13.5990 Y9.4623
G01 X-13.5995 Y9.4609
G01 X-13.6002 Y9.4591
G01 X-13.6029 Y9.4511
G01 X-13.6052 Y9.4427
G01 X-13.6069 Y9.4344
G01 X-13.6081 Y9.4258
G01 X-13.6089 Y9.4105
G01 X-13.6085 Y9.4010
G01 X-13.6028 Y9.3237
G01 X-13.6011 Y9.3136
G01 X-13.5991 Y9.3050
G01 X-13.5960 Y9.2952
G01 X-13.5922 Y9.2856
G01 X-13.5861 Y9.2733
G01 X-13.5779 Y9.2605
G01 X-13.5328 Y9.2003
G01 X-13.5262 Y9.1924
G01 X-13.5204 Y9.1863
G01 X-13.5139 Y9.1804
G01 X-13.5059 Y9.1740
G01 X-13.4990 Y9.1692
G01 X-13.4915 Y9.1647
G01 X-13.4778 Y9.1580
G01 X-13.4527 Y9.1485
G01 X-13.9193 Y9.1485
G01 X-13.5934 Y9.4743
G01 X-13.6639 Y9.3170
G01 X-13.6617 Y9.3031
G01 X-13.6583 Y9.2886
G01 X-13.6539 Y9.2744
G01 X-13.6484 Y9.2606
G01 X-13.6419 Y9.2472
G01 X-13.6348 Y9.2350
G01 X-13.6280 Y9.2249
G01 X-13.6168 Y9.2099
G01 X-13.7710 Y9.2099
G01 X-13.6639 Y9.3170
G00 Z2.0000
G00 X-15.6815 Y9.2373
G01 F25.00
G01 Z-0.1000
G01 F120.00
G01 X-15.6667 Y9.2301
G01 X-15.6585 Y9.2270
G01 X-15.6505 Y9.2245
G01 X-15.6352 Y9.2212
G01 X-15.6269 Y9.2201
G01 X-15.6181 Y9.2195
G01 X-15.6044 Y9.2198
G01 X-15.5297 Y9.2252
G01 X-15.5161 Y9.2273
G01 X-15.5010 Y9.2313
G01 X-15.5838 Y9.1485
G01 X-15.6073 Y9.1485
G01 X-15.6366 Y9.1875
G01 X-15.6815 Y9.2373
G00 Z2.0000
G00 X-15.6018 Y7.9715
G01 F25.00
G01 Z-0.1000
G01 F120.00
G01 X-15.6060 Y7.9701
G01 X-15.6093 Y7.9689
G01 X-15.6073 Y7.9715
G01 X-15.6018 Y7.9715
G00 Z2.0000
G00 X-17.1858 Y7.9623
G01 F25.00
G01 Z-0.1000
G01 F120.00
G01 X-17.2028 Y7.9715
G01 X-17.1927 Y7.9715
G01 X-17.1858 Y7.9623
G00 Z2.0000
G00 X-17.1982 Y9.1485
G01 F25.00
G01 Z-0.1000
G01 F120.00
G01 X-17.1940 Y9.1499
G01 X-17.1907 Y9.1511
G01 X-17.1927 Y9.1485
G01 X-17.1982 Y9.1485
G00 Z2.0000
G00 X-16.9885 Y4.9045
G01 F25.00
G01 Z-0.1000
G01 F120.00
G01 X-16.9911 Y4.9120
G01 X-16.9945 Y4.9201
G01 X-17.0016 Y4.9335
G01 X-17.0104 Y4.9465
G01 X-17.0203 Y4.9581
G01 X-17.0291 Y4.9665
G01 X-17.0857 Y5.0155
G01 X-17.0984 Y5.0247
G01 X-17.1108 Y5.0318
G01 X-16.9885 Y5.0318
G01 X-16.9885 Y4.9045
G00 Z2.0000
G00 X-15.6838 Y5.0318
G01 F25.00
G01 Z-0.1000
G01 F120.00
G01 X-15.8115 Y5.0318
G01 X-15.8115 Y4.9096
G01 X-15.8073 Y4.9173
G01 X-15.8028 Y4.9244
G01 X-15.7928 Y4.9375
G01 X-15.7429 Y4.9949
G01 X-15.7330 Y5.0044
G01 X-15.7222 Y5.0128
G01 X-15.7122 Y5.0192
G01 X-15.7014 Y5.0249
G01 X-15.6920 Y5.0289
G01 X-15.6838 Y5.0318
G01 X-15.5500 Y5.0932
G01 X-15.8730 Y5.0932
G01 X-15.8730 Y1.7000
G01 X-15.8755 Y1.6483
G01 X-15.8825 Y1.6009
G01 X-15.8835 Y1.5953
G01 X-15.8875 Y1.5792
G01 X-15.8947 Y1.5506
G01 X-15.8969 Y1.5434
G01 X-15.9131 Y1.4983
G01 X-15.9335 Y1.4549
G01 X-15.9371 Y1.4483
G01 X-15.9598 Y1.4104
G01 X-15.9640 Y1.4041
G01 X-15.9926 Y1.3657
G01 X-16.0260 Y1.3287
G01 X-17.5287 Y-0.1740
G01 X-17.5657 Y-0.2074
G01 X-17.6072 Y-0.2382
G01 X-17.6516 Y-0.2648
G01 X-17.6949 Y-0.2854
G01 X-17.7018 Y-0.2883
G01 X-17.7434 Y-0.3031
G01 X-17.7506 Y-0.3053
G01 X-17.7972 Y-0.3169
G01 X-17.8502 Y-0.3246
G01 X-17.9000 Y-0.3270
G01 X-19.8732 Y-0.3270
G01 X-19.8732 Y-0.6500
G01 X-19.8734 Y-0.6556
G01 X-19.8743 Y-0.6631
G01 X-19.8771 Y-0.6741
G01 X-19.8798 Y-0.6811
G01 X-19.8823 Y-0.6862
G01 X-19.8861 Y-0.6927
G01 X-19.8895 Y-0.6972
G01 X-19.8970 Y-0.7056
G01 X-19.9028 Y-0.7105
G01 X-19.9073 Y-0.7139
G01 X-19.9172 Y-0.7194
G01 X-19.9224 Y-0.7217
G01 X-19.9295 Y-0.7240
G01 X-19.9406 Y-0.7262
G01 X-19.9500 Y-0.7268
G01 X-21.6519 Y-0.7268
