(G-CODE GENERATED BY FLATCAM v8.994 - www.flatcam.org - Version Date: 2020/11/7)

(Name: M¾dulo Patas-B_Cu.gbr_panelized_ncc_cnc)
(Type: G-code from Geometry)
(Units: MM)

(Created on Sunday, 19 October 2025 at 18:14)

(This preprocessor is the default preprocessor used by FlatCAM.)
(It is made to work with MACH3 compatible motion controllers.)

(TOOL DIAMETER: 0.2 mm)
(Feedrate_XY: 120.0 mm/min)
(Feedrate_Z: 25.0 mm/min)
(Feedrate rapids 1500.0 mm/min)

(Z_Cut: -0.1866 mm)
(Z_Move: 2.0 mm)
(Z Start: None mm)
(Z End: 2.5 mm)
(X,Y End: 0.0000, 0.0000 mm)
(Steps per circle: 64)
(Preprocessor Geometry: default)

(X range:  -38.5005 ...   37.9905  mm)
(Y range:  -24.6015 ...   20.7005  mm)

(Spindle Speed: 10000.0 RPM)
G21
G90
G94

G01 F120.00

M5
G00 Z15.0000
G00 X0.0000 Y0.0000
T1
M6    
(MSG, Change to Tool Dia = 0.2000)
M0
G00 Z15.0000

M03 S10000.0
G01 F120.00
G00 X3.5726 Y2.6952
G01 F25.00
G01 Z-0.1866
G01 F120.00
G01 X3.6179 Y2.8044
G01 X3.6836 Y2.9028
G01 X5.6839 Y4.9031
G01 X5.6903 Y4.9102
G01 X5.6973 Y4.9198
G01 X5.7345 Y4.9872
G01 X5.7397 Y4.9983
G01 X5.7428 Y5.0076
G01 X5.7451 Y5.0172
G01 X5.7492 Y5.0535
G01 X5.7495 Y5.0615
G01 X5.7495 Y5.9848
G01 X5.7583 Y6.0287
G01 X5.7915 Y6.0785
G01 X5.8413 Y6.1118
G01 X5.8852 Y6.1205
G01 X7.6149 Y6.1205
G01 X7.6587 Y6.1118
G01 X7.7085 Y6.0785
G01 X7.7418 Y6.0287
G01 X7.7505 Y5.9848
G01 X7.7505 Y4.2552
G01 X7.7418 Y4.2113
G01 X7.7085 Y4.1615
G01 X7.6587 Y4.1282
G01 X7.6149 Y4.1195
G01 X6.6892 Y4.1195
G01 X6.6773 Y4.1185
G01 X6.6657 Y4.1161
G01 X6.5963 Y4.0958
G01 X6.5893 Y4.0934
G01 X6.5826 Y4.0906
G01 X6.5760 Y4.0873
G01 X6.5697 Y4.0835
G01 X6.5637 Y4.0792
G01 X6.5411 Y4.0610
G01 X6.5332 Y4.0539
G01 X4.8145 Y2.3352
G01 X4.8068 Y2.3261
G01 X4.8002 Y2.3162
G01 X4.7656 Y2.2528
G01 X4.7623 Y2.2462
G01 X4.7595 Y2.2394
G01 X4.7572 Y2.2324
G01 X4.7555 Y2.2252
G01 X4.7542 Y2.2180
G01 X4.7511 Y2.1892
G01 X4.7505 Y2.1785
G01 X4.7505 Y-8.3585
G01 X4.7512 Y-8.3704
G01 X4.7533 Y-8.3821
G01 X4.7743 Y-8.4537
G01 X4.7766 Y-8.4607
G01 X4.7794 Y-8.4675
G01 X4.7828 Y-8.4740
G01 X4.7866 Y-8.4803
G01 X4.7908 Y-8.4863
G01 X4.8090 Y-8.5089
G01 X4.8161 Y-8.5169
G01 X5.8349 Y-9.5356
G01 X5.8439 Y-9.5432
G01 X5.8539 Y-9.5498
G01 X5.9194 Y-9.5856
G01 X5.9261 Y-9.5887
G01 X5.9330 Y-9.5913
G01 X5.9424 Y-9.5940
G01 X5.9496 Y-9.5954
G01 X5.9809 Y-9.5989
G01 X5.9915 Y-9.5995
G01 X12.0305 Y-9.5995
G01 X12.0400 Y-9.5990
G01 X12.0494 Y-9.5977
G01 X12.0587 Y-9.5954
G01 X12.1257 Y-9.5758
G01 X12.1327 Y-9.5734
G01 X12.1395 Y-9.5706
G01 X12.1482 Y-9.5660
G01 X12.1564 Y-9.5607
G01 X12.1809 Y-9.5410
G01 X12.1870 Y-9.5358
G01 X13.0399 Y-8.6829
G01 X13.0478 Y-8.6740
G01 X13.0520 Y-8.6682
G01 X13.0558 Y-8.6622
G01 X13.0916 Y-8.5966
G01 X13.0966 Y-8.5852
G01 X13.0995 Y-8.5757
G01 X13.1019 Y-8.5636
G01 X13.1025 Y-8.5561
G01 X13.1026 Y-8.5487
G01 X13.0972 Y-8.4716
G01 X13.0958 Y-8.4617
G01 X13.0926 Y-8.4497
G01 X13.0880 Y-8.4382
G01 X13.0820 Y-8.4274
G01 X13.0777 Y-8.4212
G01 X13.0344 Y-8.3633
G01 X13.0261 Y-8.3541
G01 X13.0167 Y-8.3459
G01 X13.0064 Y-8.3390
G01 X12.9954 Y-8.3334
G01 X12.9230 Y-8.3063
G01 X12.9159 Y-8.3041
G01 X12.9062 Y-8.3021
G01 X12.8964 Y-8.3010
G01 X12.8851 Y-8.3006
G01 X11.4052 Y-8.3005
G01 X11.3613 Y-8.2918
G01 X11.3115 Y-8.2585
G01 X11.2783 Y-8.2087
G01 X11.2695 Y-8.1648
G01 X11.2694 Y-8.1197
G01 X11.2685 Y-8.1103
G01 X11.2667 Y-8.1009
G01 X11.2443 Y-8.0246
G01 X11.2416 Y-8.0176
G01 X11.2383 Y-8.0109
G01 X11.2346 Y-8.0044
G01 X11.2290 Y-7.9963
G01 X11.2225 Y-7.9888
G01 X11.2172 Y-7.9835
G01 X11.1625 Y-7.9361
G01 X11.1547 Y-7.9300
G01 X11.1440 Y-7.9234
G01 X11.1327 Y-7.9183
G01 X11.1207 Y-7.9146
G01 X11.0645 Y-7.9023
G01 X11.0527 Y-7.9008
G01 X11.0455 Y-7.9005
G01 X7.2109 Y-7.9005
G01 X7.1296 Y-7.8844
G01 X7.0981 Y-7.8810
G01 X7.0907 Y-7.8805
G01 X5.9852 Y-7.8805
G01 X5.9413 Y-7.8718
G01 X5.8915 Y-7.8385
G01 X5.8583 Y-7.7887
G01 X5.8495 Y-7.7448
G01 X5.8495 Y-6.0152
G01 X5.8583 Y-5.9713
G01 X5.8915 Y-5.9215
G01 X5.9413 Y-5.8882
G01 X5.9852 Y-5.8795
G01 X7.7149 Y-5.8795
G01 X7.7587 Y-5.8882
G01 X7.8085 Y-5.9215
G01 X7.8418 Y-5.9713
G01 X7.8505 Y-6.0152
G01 X7.8506 Y-6.4803
G01 X7.8519 Y-6.4921
G01 X7.8539 Y-6.5014
G01 X7.8743 Y-6.5707
G01 X7.8766 Y-6.5778
G01 X7.8817 Y-6.5891
G01 X7.8868 Y-6.5976
G01 X7.8926 Y-6.6056
G01 X7.8993 Y-6.6130
G01 X7.9047 Y-6.6181
G01 X7.9575 Y-6.6639
G01 X7.9634 Y-6.6686
G01 X7.9696 Y-6.6728
G01 X7.9760 Y-6.6766
G01 X7.9828 Y-6.6798
G01 X7.9897 Y-6.6826
G01 X7.9969 Y-6.6848
G01 X8.0556 Y-6.6977
G01 X8.0627 Y-6.6988
G01 X8.0698 Y-6.6994
G01 X11.0455 Y-6.6995
G01 X11.0527 Y-6.6992
G01 X11.0621 Y-6.6981
G01 X11.0714 Y-6.6961
G01 X11.1407 Y-6.6758
G01 X11.1501 Y-6.6725
G01 X11.1613 Y-6.6671
G01 X11.1717 Y-6.6604
G01 X11.1794 Y-6.6542
G01 X11.1881 Y-6.6453
G01 X11.2339 Y-6.5925
G01 X11.2386 Y-6.5867
G01 X11.2428 Y-6.5805
G01 X11.2466 Y-6.5740
G01 X11.2499 Y-6.5672
G01 X11.2526 Y-6.5603
G01 X11.2560 Y-6.5483
G01 X11.2685 Y-6.4897
G01 X11.2695 Y-6.4779
G01 X11.2695 Y-6.4352
G01 X11.2783 Y-6.3913
G01 X11.3115 Y-6.3415
G01 X11.3613 Y-6.3082
G01 X11.4052 Y-6.2995
G01 X13.1349 Y-6.2995
G01 X13.1787 Y-6.3082
G01 X13.2285 Y-6.3415
G01 X13.2618 Y-6.3913
G01 X13.2705 Y-6.4352
G01 X13.2705 Y-7.9115
G01 X13.2710 Y-7.9210
G01 X13.2719 Y-7.9281
G01 X13.2746 Y-7.9397
G01 X13.2943 Y-8.0067
G01 X13.2975 Y-8.0161
G01 X13.3029 Y-8.0273
G01 X13.3096 Y-8.0377
G01 X13.3159 Y-8.0454
G01 X13.3247 Y-8.0541
G01 X13.3814 Y-8.1030
G01 X13.3916 Y-8.1100
G01 X13.4026 Y-8.1157
G01 X13.4142 Y-8.1200
G01 X13.4263 Y-8.1229
G01 X13.4979 Y-8.1332
G01 X13.5078 Y-8.1341
G01 X13.5178 Y-8.1341
G01 X13.5276 Y-8.1330
G01 X13.5397 Y-8.1303
G01 X13.5491 Y-8.1271
G01 X13.6217 Y-8.0940
G01 X13.6323 Y-8.0876
G01 X13.6420 Y-8.0800
G01 X13.6529 Y-8.0699
G01 X13.8289 Y-7.8936
G01 X13.8347 Y-7.8861
G01 X13.8399 Y-7.8781
G01 X13.8745 Y-7.8147
G01 X13.8798 Y-7.8034
G01 X13.8830 Y-7.7939
G01 X13.8848 Y-7.7866
G01 X13.8863 Y-7.7767
G01 X13.8867 Y-7.7693
G01 X13.8866 Y-7.7618
G01 X13.8834 Y-7.6971
G01 X13.8821 Y-7.6852
G01 X13.8806 Y-7.6781
G01 X13.8786 Y-7.6712
G01 X13.8342 Y-7.5343
G01 X13.8095 Y-7.3787
G01 X13.8095 Y-7.2213
G01 X13.8342 Y-7.0657
G01 X13.8828 Y-6.9159
G01 X13.9543 Y-6.7756
G01 X14.0469 Y-6.6482
G01 X14.1582 Y-6.5369
G01 X14.2856 Y-6.4443
G01 X14.4260 Y-6.3728
G01 X14.5757 Y-6.3241
G01 X14.7313 Y-6.2995
G01 X14.8888 Y-6.2995
G01 X15.0443 Y-6.3241
G01 X15.1941 Y-6.3728
G01 X15.3344 Y-6.4443
G01 X15.4618 Y-6.5369
G01 X15.5732 Y-6.6482
G01 X15.6657 Y-6.7756
G01 X15.7372 Y-6.9159
G01 X15.7859 Y-7.0657
G01 X15.8105 Y-7.2213
G01 X15.8105 Y-7.3787
G01 X15.7894 Y-7.5121
G01 X15.7859 Y-7.5343
G01 X15.7372 Y-7.6841
G01 X15.6657 Y-7.8244
G01 X15.5732 Y-7.9518
G01 X15.4618 Y-8.0631
G01 X15.3344 Y-8.1557
G01 X15.2210 Y-8.2136
G01 X15.2123 Y-8.2193
G01 X15.1809 Y-8.2421
G01 X15.1747 Y-8.2470
G01 X15.1690 Y-8.2523
G01 X12.7548 Y-10.6664
G01 X12.6565 Y-10.7322
G01 X12.5472 Y-10.7774
G01 X12.4312 Y-10.8005
G01 X5.5909 Y-10.8005
G01 X5.4749 Y-10.7774
G01 X5.3656 Y-10.7322
G01 X5.2672 Y-10.6664
G01 X3.6836 Y-9.0828
G01 X3.6179 Y-8.9844
G01 X3.5726 Y-8.8752
G01 X3.5495 Y-8.7591
G01 X3.5495 Y2.5791
G01 X3.5726 Y2.6952
G00 Z2.0000
G00 X7.4538 Y-2.5334
G01 F25.00
G01 Z-0.1866
G01 F120.00
G01 X7.5218 Y-2.4718
G01 X7.5834 Y-2.4038
G01 X14.1479 Y4.1606
G01 X14.2872 Y4.2537
G01 X14.4419 Y4.3178
G01 X14.6063 Y4.3505
G01 X26.6355 Y4.3505
G01 X26.6427 Y4.3508
G01 X26.6521 Y4.3519
G01 X26.6637 Y4.3546
G01 X26.7307 Y4.3742
G01 X26.7401 Y4.3775
G01 X26.7491 Y4.3817
G01 X26.7577 Y4.3867
G01 X26.7676 Y4.3942
G01 X26.7748 Y4.4010
G01 X26.8255 Y4.4594
G01 X26.8315 Y4.4674
G01 X26.8377 Y4.4782
G01 X26.8426 Y4.4897
G01 X26.8455 Y4.4993
G01 X26.8572 Y4.5532
G01 X26.8591 Y4.5650
G01 X26.8595 Y4.5745
G01 X26.8595 Y6.4855
G01 X26.8588 Y6.4974
G01 X26.8572 Y6.5068
G01 X26.8555 Y6.5137
G01 X26.8358 Y6.5807
G01 X26.8325 Y6.5901
G01 X26.8283 Y6.5991
G01 X26.8233 Y6.6076
G01 X26.8158 Y6.6176
G01 X26.8090 Y6.6248
G01 X26.7506 Y6.6755
G01 X26.7426 Y6.6814
G01 X26.7318 Y6.6877
G01 X26.7203 Y6.6926
G01 X26.7083 Y6.6960
G01 X26.6545 Y6.7077
G01 X26.6450 Y6.7090
G01 X26.6355 Y6.7095
G01 X7.0979 Y6.7095
G01 X7.0848 Y6.7086
G01 X7.0387 Y6.7012
G01 X7.0286 Y6.6985
G01 X6.9843 Y6.6841
G01 X6.8288 Y6.6595
G01 X6.6713 Y6.6595
G01 X6.5157 Y6.6841
G01 X6.3660 Y6.7328
G01 X6.2256 Y6.8043
G01 X6.0982 Y6.8969
G01 X5.9869 Y7.0082
G01 X5.8943 Y7.1356
G01 X5.8228 Y7.2759
G01 X5.7742 Y7.4257
G01 X5.7495 Y7.5813
G01 X5.7495 Y7.7387
G01 X5.7742 Y7.8943
G01 X5.8228 Y8.0441
G01 X5.8943 Y8.1844
G01 X5.9869 Y8.3118
G01 X6.0982 Y8.4231
G01 X6.2256 Y8.5157
G01 X6.3660 Y8.5872
G01 X6.5157 Y8.6359
G01 X6.6713 Y8.6605
G01 X6.8288 Y8.6605
G01 X6.9843 Y8.6359
G01 X7.1341 Y8.5872
G01 X7.2744 Y8.5157
G01 X7.3623 Y8.4519
G01 X7.3703 Y8.4469
G01 X7.3789 Y8.4426
G01 X7.4513 Y8.4165
G01 X7.4582 Y8.4143
G01 X7.4676 Y8.4122
G01 X7.4748 Y8.4112
G01 X7.4920 Y8.4105
G01 X27.2650 Y8.4105
G01 X27.2768 Y8.4112
G01 X27.2885 Y8.4133
G01 X27.3602 Y8.4342
G01 X27.3671 Y8.4366
G01 X27.3783 Y8.4416
G01 X27.3888 Y8.4479
G01 X27.4154 Y8.4690
G01 X27.4233 Y8.4761
G01 X36.0739 Y17.1267
G01 X36.0788 Y17.1319
G01 X36.0847 Y17.1394
G01 X36.0910 Y17.1495
G01 X36.1245 Y17.2108
G01 X36.1297 Y17.2219
G01 X36.1335 Y17.2336
G01 X36.1355 Y17.2432
G01 X36.1390 Y17.2744
G01 X36.1395 Y17.2824
G01 X36.1395 Y18.5520
G01 X36.1385 Y18.5638
G01 X36.1361 Y18.5755
G01 X36.1151 Y18.6472
G01 X36.1116 Y18.6563
G01 X36.1084 Y18.6630
G01 X36.1048 Y18.6694
G01 X36.1007 Y18.6755
G01 X36.0961 Y18.6813
G01 X36.0912 Y18.6867
G01 X36.0521 Y18.7263
G01 X36.0442 Y18.7329
G01 X36.0315 Y18.7415
G01 X35.9983 Y18.7913
G01 X35.9895 Y18.8352
G01 X35.9895 Y20.5648
G01 X35.9983 Y20.6087
G01 X36.0315 Y20.6585
G01 X36.0813 Y20.6918
G01 X36.1252 Y20.7005
G01 X37.8549 Y20.7005
G01 X37.8987 Y20.6918
G01 X37.9485 Y20.6585
G01 X37.9818 Y20.6087
G01 X37.9905 Y20.5648
G01 X37.9905 Y18.8352
G01 X37.9818 Y18.7913
G01 X37.9485 Y18.7415
G01 X37.9381 Y18.7345
G01 X37.9324 Y18.7302
G01 X37.9271 Y18.7255
G01 X37.9220 Y18.7204
G01 X37.8726 Y18.6613
G01 X37.8668 Y18.6533
G01 X37.8631 Y18.6470
G01 X37.8579 Y18.6359
G01 X37.8540 Y18.6243
G01 X37.8426 Y18.5700
G01 X37.8411 Y18.5598
G01 X37.8405 Y18.5496
G01 X37.8405 Y16.7562
G01 X37.8078 Y16.5919
G01 X37.7437 Y16.4371
G01 X37.6507 Y16.2978
G01 X30.1457 Y8.7929
G01 X30.1378 Y8.7840
G01 X30.1310 Y8.7742
G01 X30.0940 Y8.7066
G01 X30.0908 Y8.6998
G01 X30.0874 Y8.6905
G01 X30.0850 Y8.6809
G01 X30.0837 Y8.6736
G01 X30.0830 Y8.6637
G01 X30.0830 Y8.6562
G01 X30.0882 Y8.5840
G01 X30.0898 Y8.5717
G01 X30.0930 Y8.5597
G01 X30.0976 Y8.5482
G01 X30.1011 Y8.5416
G01 X30.1050 Y8.5353
G01 X30.1528 Y8.4714
G01 X30.1613 Y8.4624
G01 X30.1709 Y8.4544
G01 X30.1813 Y8.4478
G01 X30.1925 Y8.4424
G01 X30.2603 Y8.4171
G01 X30.2673 Y8.4148
G01 X30.2745 Y8.4130
G01 X30.2818 Y8.4117
G01 X30.2892 Y8.4110
G01 X30.3005 Y8.4106
G01 X34.6640 Y8.4105
G01 X34.6734 Y8.4112
G01 X34.6827 Y8.4127
G01 X34.7413 Y8.4268
G01 X34.7526 Y8.4302
G01 X34.7634 Y8.4349
G01 X34.8660 Y8.4872
G01 X35.0157 Y8.5359
G01 X35.1713 Y8.5605
G01 X35.3288 Y8.5605
G01 X35.4843 Y8.5359
G01 X35.6341 Y8.4872
G01 X35.7744 Y8.4157
G01 X35.9018 Y8.3231
G01 X36.0132 Y8.2118
G01 X36.1057 Y8.0844
G01 X36.1772 Y7.9441
G01 X36.2259 Y7.7943
G01 X36.2505 Y7.6387
G01 X36.2505 Y7.4813
G01 X36.2259 Y7.3257
G01 X36.1772 Y7.1759
G01 X36.1057 Y7.0356
G01 X36.0132 Y6.9082
G01 X35.9018 Y6.7969
G01 X35.7744 Y6.7043
G01 X35.6341 Y6.6328
G01 X35.4843 Y6.5841
G01 X35.3288 Y6.5595
G01 X35.1713 Y6.5595
G01 X35.0157 Y6.5841
G01 X34.8660 Y6.6328
G01 X34.7634 Y6.6851
G01 X34.7526 Y6.6898
G01 X34.7413 Y6.6932
G01 X34.6827 Y6.7073
G01 X34.6734 Y6.7088
G01 X34.6640 Y6.7095
G01 X28.7845 Y6.7095
G01 X28.7727 Y6.7088
G01 X28.7609 Y6.7067
G01 X28.6846 Y6.6842
G01 X28.6754 Y6.6805
G01 X28.6666 Y6.6759
G01 X28.6583 Y6.6704
G01 X28.6488 Y6.6625
G01 X28.6419 Y6.6553
G01 X28.5945 Y6.6006
G01 X28.5886 Y6.5926
G01 X28.5835 Y6.5840
G01 X28.5792 Y6.5749
G01 X28.5752 Y6.5631
G01 X28.5615 Y6.4997
G01 X28.5608 Y6.4926
G01 X28.5605 Y6.4855
G01 X28.5606 Y3.9427
G01 X28.5615 Y3.9308
G01 X28.5639 Y3.9192
G01 X28.5850 Y3.8475
G01 X28.5875 Y3.8406
G01 X28.5916 Y3.8317
G01 X28.5953 Y3.8253
G01 X28.6008 Y3.8172
G01 X28.6207 Y3.7926
G01 X28.6261 Y3.7867
G01 X34.5166 Y-2.1038
G01 X34.5783 Y-2.1718
G01 X34.6462 Y-2.2334
G01 X35.4371 Y-3.0242
G01 X35.4442 Y-3.0304
G01 X35.4518 Y-3.0359
G01 X35.5032 Y-3.0674
G01 X35.5136 Y-3.0729
G01 X35.5246 Y-3.0772
G01 X35.6341 Y-3.1128
G01 X35.7744 Y-3.1843
G01 X35.7988 Y-3.2019
G01 X35.8049 Y-3.2056
G01 X35.8112 Y-3.2088
G01 X35.8200 Y-3.2124
G01 X35.8858 Y-3.2359
G01 X35.8978 Y-3.2394
G01 X35.9076 Y-3.2410
G01 X35.9175 Y-3.2417
G01 X35.9249 Y-3.2416
G01 X35.9348 Y-3.2406
G01 X35.9421 Y-3.2391
G01 X36.0102 Y-3.2233
G01 X36.0220 Y-3.2198
G01 X36.0334 Y-3.2148
G01 X36.0420 Y-3.2098
G01 X36.0519 Y-3.2024
G01 X36.0592 Y-3.1956
G01 X36.1096 Y-3.1438
G01 X36.1172 Y-3.1345
G01 X36.1236 Y-3.1244
G01 X36.1288 Y-3.1135
G01 X36.1327 Y-3.1022
G01 X36.1481 Y-3.0396
G01 X36.1495 Y-3.0325
G01 X36.1504 Y-3.0228
G01 X36.1505 Y-1.8001
G01 X36.1598 Y-1.7734
G01 X36.1807 Y-1.6901
G01 X36.1822 Y-1.6829
G01 X36.1955 Y-1.5931
G01 X36.2000 Y-1.5000
G01 X36.1955 Y-1.4069
G01 X36.1822 Y-1.3171
G01 X36.1807 Y-1.3099
G01 X36.1598 Y-1.2266
G01 X36.1505 Y-1.1999
G01 X36.1505 Y3.1775
G01 X36.1503 Y3.1846
G01 X36.1491 Y3.1941
G01 X36.1465 Y3.2057
G01 X36.1268 Y3.2727
G01 X36.1226 Y3.2842
G01 X36.1183 Y3.2930
G01 X36.1117 Y3.3034
G01 X36.0921 Y3.3279
G01 X36.0868 Y3.3340
G01 X35.4652 Y3.9556
G01 X35.4561 Y3.9632
G01 X35.4462 Y3.9698
G01 X35.3784 Y4.0067
G01 X35.3671 Y4.0113
G01 X35.3600 Y4.0134
G01 X35.3528 Y4.0150
G01 X35.3192 Y4.0189
G01 X35.3085 Y4.0195
G01 X34.3852 Y4.0195
G01 X34.3413 Y4.0282
G01 X34.2915 Y4.0615
G01 X34.2583 Y4.1113
G01 X34.2495 Y4.1552
G01 X34.2495 Y5.8848
G01 X34.2583 Y5.9287
G01 X34.2915 Y5.9785
G01 X34.3413 Y6.0118
G01 X34.3852 Y6.0205
G01 X36.1149 Y6.0205
G01 X36.1587 Y6.0118
G01 X36.2085 Y5.9785
G01 X36.2418 Y5.9287
G01 X36.2505 Y5.8848
G01 X36.2506 Y4.9591
G01 X36.2515 Y4.9473
G01 X36.2539 Y4.9356
G01 X36.2743 Y4.8663
G01 X36.2766 Y4.8593
G01 X36.2794 Y4.8525
G01 X36.2840 Y4.8438
G01 X36.2894 Y4.8356
G01 X36.3090 Y4.8111
G01 X36.3161 Y4.8031
G01 X37.2175 Y3.9018
G01 X37.2832 Y3.8034
G01 X37.3284 Y3.6942
G01 X37.3515 Y3.5781
G01 X37.3515 Y-18.8601
G01 X37.3284 Y-18.9762
G01 X37.2832 Y-19.0854
G01 X37.2175 Y-19.1838
G01 X31.9338 Y-24.4674
G01 X31.8355 Y-24.5332
G01 X31.7262 Y-24.5784
G01 X31.6102 Y-24.6015
G01 X28.4899 Y-24.6015
G01 X28.3739 Y-24.5784
G01 X28.2646 Y-24.5332
G01 X28.1662 Y-24.4674
G01 X27.1492 Y-23.4505
G01 X27.1392 Y-23.4421
G01 X27.1078 Y-23.4193
G01 X27.0990 Y-23.4136
G01 X26.9856 Y-23.3557
G01 X26.8582 Y-23.2631
G01 X26.7469 Y-23.1518
G01 X26.6543 Y-23.0244
G01 X26.5828 Y-22.8841
G01 X26.5342 Y-22.7343
G01 X26.5095 Y-22.5787
G01 X26.5095 Y-22.4213
G01 X26.5342 Y-22.2657
G01 X26.5828 Y-22.1159
G01 X26.6543 Y-21.9756
G01 X26.7469 Y-21.8482
G01 X26.8582 Y-21.7369
G01 X26.9856 Y-21.6443
G01 X27.1260 Y-21.5728
G01 X27.2757 Y-21.5241
G01 X27.4313 Y-21.4995
G01 X27.5888 Y-21.4995
G01 X27.7443 Y-21.5241
G01 X27.8941 Y-21.5728
G01 X28.0344 Y-21.6443
G01 X28.1618 Y-21.7369
G01 X28.2732 Y-21.8482
G01 X28.3657 Y-21.9756
G01 X28.4372 Y-22.1159
G01 X28.4859 Y-22.2657
G01 X28.5105 Y-22.4213
G01 X28.5105 Y-22.5787
G01 X28.4859 Y-22.7343
G01 X28.4407 Y-22.8735
G01 X28.4380 Y-22.8850
G01 X28.4367 Y-22.8968
G01 X28.4345 Y-22.9716
G01 X28.4353 Y-22.9840
G01 X28.4375 Y-22.9963
G01 X28.4413 Y-23.0082
G01 X28.4454 Y-23.0173
G01 X28.4813 Y-23.0799
G01 X28.4881 Y-23.0898
G01 X28.4961 Y-23.0988
G01 X28.6706 Y-23.2732
G01 X28.6779 Y-23.2792
G01 X28.6878 Y-23.2858
G01 X28.7534 Y-23.3216
G01 X28.7648 Y-23.3266
G01 X28.7767 Y-23.3301
G01 X28.7889 Y-23.3321
G01 X28.7964 Y-23.3326
G01 X28.8038 Y-23.3325
G01 X28.8760 Y-23.3274
G01 X28.8858 Y-23.3262
G01 X28.8955 Y-23.3240
G01 X28.9050 Y-23.3209
G01 X28.9140 Y-23.3169
G01 X28.9227 Y-23.3120
G01 X28.9288 Y-23.3077
G01 X28.9886 Y-23.2628
G01 X28.9942 Y-23.2578
G01 X28.9993 Y-23.2524
G01 X29.0070 Y-23.2427
G01 X29.0123 Y-23.2343
G01 X29.0176 Y-23.2231
G01 X29.0429 Y-23.1553
G01 X29.0465 Y-23.1435
G01 X29.0479 Y-23.1362
G01 X29.0488 Y-23.1288
G01 X29.0495 Y-23.1115
G01 X29.0495 Y-21.6352
G01 X29.0583 Y-21.5913
G01 X29.0915 Y-21.5415
G01 X29.1413 Y-21.5082
G01 X29.1852 Y-21.4995
G01 X30.1085 Y-21.4995
G01 X30.1180 Y-21.4990
G01 X30.1274 Y-21.4977
G01 X30.1344 Y-21.4961
G01 X30.2037 Y-21.4758
G01 X30.2130 Y-21.4725
G01 X30.2241 Y-21.4673
G01 X30.2324 Y-21.4621
G01 X30.2589 Y-21.4410
G01 X30.2669 Y-21.4339
G01 X34.5839 Y-17.1169
G01 X34.5888 Y-17.1116
G01 X34.5933 Y-17.1061
G01 X34.5973 Y-17.1002
G01 X34.6010 Y-17.0941
G01 X34.6356 Y-17.0306
G01 X34.6405 Y-17.0194
G01 X34.6435 Y-17.0100
G01 X34.6455 Y-17.0004
G01 X34.6490 Y-16.9692
G01 X34.6495 Y-16.9585
G01 X34.6495 Y-7.8021
G01 X34.6485 Y-7.7903
G01 X34.6461 Y-7.7786
G01 X34.6258 Y-7.7093
G01 X34.6234 Y-7.7022
G01 X34.6183 Y-7.6909
G01 X34.6133 Y-7.6824
G01 X34.6058 Y-7.6724
G01 X34.5972 Y-7.6635
G01 X34.5425 Y-7.6161
G01 X34.5367 Y-7.6114
G01 X34.5305 Y-7.6072
G01 X34.5240 Y-7.6034
G01 X34.5173 Y-7.6002
G01 X34.5103 Y-7.5974
G01 X34.4983 Y-7.5940
G01 X34.4398 Y-7.5815
G01 X34.4279 Y-7.5805
G01 X34.3852 Y-7.5805
G01 X34.3413 Y-7.5718
G01 X34.2915 Y-7.5385
G01 X34.2583 Y-7.4887
G01 X34.2495 Y-7.4448
G01 X34.2495 Y-5.7152
G01 X34.2583 Y-5.6713
G01 X34.2915 Y-5.6215
G01 X34.3413 Y-5.5882
G01 X34.3852 Y-5.5795
G01 X35.9289 Y-5.5795
G01 X35.9408 Y-5.5785
G01 X35.9524 Y-5.5761
G01 X36.0217 Y-5.5558
G01 X36.0334 Y-5.5515
G01 X36.0423 Y-5.5471
G01 X36.0507 Y-5.5419
G01 X36.0567 Y-5.5374
G01 X36.0641 Y-5.5307
G01 X36.0691 Y-5.5253
G01 X36.1149 Y-5.4725
G01 X36.1196 Y-5.4667
G01 X36.1238 Y-5.4605
G01 X36.1276 Y-5.4540
G01 X36.1309 Y-5.4472
G01 X36.1336 Y-5.4403
G01 X36.1358 Y-5.4331
G01 X36.1482 Y-5.3768
G01 X36.1501 Y-5.3650
G01 X36.1505 Y-5.3555
G01 X36.1505 Y-5.0621
G01 X36.1498 Y-5.0502
G01 X36.1482 Y-5.0408
G01 X36.1465 Y-5.0339
G01 X36.1268 Y-4.9668
G01 X36.1235 Y-4.9575
G01 X36.1182 Y-4.9463
G01 X36.1129 Y-4.9379
G01 X36.1068 Y-4.9300
G01 X36.0982 Y-4.9211
G01 X36.0397 Y-4.8705
G01 X36.0295 Y-4.8635
G01 X36.0229 Y-4.8599
G01 X36.0162 Y-4.8568
G01 X36.0068 Y-4.8535
G01 X35.9947 Y-4.8507
G01 X35.9231 Y-4.8403
G01 X35.9111 Y-4.8393
G01 X35.9039 Y-4.8394
G01 X35.8968 Y-4.8401
G01 X35.8850 Y-4.8422
G01 X35.8735 Y-4.8458
G01 X35.8094 Y-4.8721
G01 X35.8030 Y-4.8755
G01 X35.7968 Y-4.8794
G01 X35.7744 Y-4.8957
G01 X35.6341 Y-4.9672
G01 X35.4843 Y-5.0159
G01 X35.3288 Y-5.0405
G01 X35.1713 Y-5.0405
G01 X35.0157 Y-5.0159
G01 X34.8660 Y-4.9672
G01 X34.7256 Y-4.8957
G01 X34.5982 Y-4.8031
G01 X34.4869 Y-4.6918
G01 X34.3943 Y-4.5644
G01 X34.3228 Y-4.4241
G01 X34.2872 Y-4.3145
G01 X34.2819 Y-4.3014
G01 X34.2774 Y-4.2932
G01 X34.2459 Y-4.2418
G01 X34.2389 Y-4.2323
G01 X34.2326 Y-4.2254
G01 X28.9412 Y1.0660
G01 X28.9321 Y1.0737
G01 X28.9222 Y1.0802
G01 X28.8566 Y1.1160
G01 X28.8499 Y1.1192
G01 X28.8429 Y1.1218
G01 X28.8358 Y1.1240
G01 X28.8285 Y1.1255
G01 X28.8162 Y1.1270
G01 X28.8062 Y1.1270
G01 X28.7316 Y1.1216
G01 X28.7218 Y1.1202
G01 X28.7145 Y1.1185
G01 X28.7074 Y1.1162
G01 X28.6982 Y1.1124
G01 X28.6916 Y1.1090
G01 X28.6833 Y1.1036
G01 X28.6234 Y1.0588
G01 X28.6177 Y1.0540
G01 X28.6124 Y1.0487
G01 X28.6075 Y1.0431
G01 X28.6030 Y1.0371
G01 X28.5978 Y1.0287
G01 X28.5925 Y1.0175
G01 X28.5663 Y0.9474
G01 X28.5636 Y0.9379
G01 X28.5621 Y0.9306
G01 X28.5610 Y0.9208
G01 X28.5606 Y0.9095
G01 X28.5605 Y-4.5149
G01 X28.5608 Y-4.5221
G01 X28.5615 Y-4.5292
G01 X28.5628 Y-4.5362
G01 X28.5646 Y-4.5431
G01 X28.5850 Y-4.6125
G01 X28.5894 Y-4.6239
G01 X28.5940 Y-4.6326
G01 X28.5994 Y-4.6408
G01 X28.6190 Y-4.6654
G01 X28.6243 Y-4.6714
G01 X30.2371 Y-6.2842
G01 X30.2442 Y-6.2904
G01 X30.2518 Y-6.2959
G01 X30.3032 Y-6.3274
G01 X30.3136 Y-6.3329
G01 X30.3246 Y-6.3372
G01 X30.4341 Y-6.3728
G01 X30.5744 Y-6.4443
G01 X30.7018 Y-6.5369
G01 X30.8132 Y-6.6482
G01 X30.9057 Y-6.7756
G01 X30.9772 Y-6.9159
G01 X31.0259 Y-7.0657
G01 X31.0505 Y-7.2213
G01 X31.0505 Y-7.3787
G01 X31.0259 Y-7.5343
G01 X30.9772 Y-7.6841
G01 X30.9057 Y-7.8244
G01 X30.8132 Y-7.9518
G01 X30.7018 Y-8.0631
G01 X30.5744 Y-8.1557
G01 X30.4341 Y-8.2272
G01 X30.2843 Y-8.2759
G01 X30.1288 Y-8.3005
G01 X29.9713 Y-8.3005
G01 X29.8157 Y-8.2759
G01 X29.6660 Y-8.2272
G01 X29.5256 Y-8.1557
G01 X29.3982 Y-8.0631
G01 X29.2869 Y-7.9518
G01 X29.1943 Y-7.8244
G01 X29.1228 Y-7.6841
G01 X29.0872 Y-7.5745
G01 X29.0829 Y-7.5636
G01 X29.0774 Y-7.5532
G01 X29.0471 Y-7.5038
G01 X29.0432 Y-7.4979
G01 X29.0374 Y-7.4905
G01 X28.2434 Y-6.6962
G01 X28.1818 Y-6.6282
G01 X28.1138 Y-6.5666
G01 X27.0494 Y-5.5022
G01 X26.9563 Y-5.3629
G01 X26.8922 Y-5.2081
G01 X26.8595 Y-5.0438
G01 X26.8595 Y2.4279
G01 X26.8585 Y2.4397
G01 X26.8561 Y2.4514
G01 X26.8343 Y2.5254
G01 X26.8295 Y2.5369
G01 X26.8246 Y2.5456
G01 X26.8174 Y2.5556
G01 X26.8108 Y2.5630
G01 X26.8053 Y2.5681
G01 X26.7506 Y2.6155
G01 X26.7426 Y2.6214
G01 X26.7318 Y2.6277
G01 X26.7203 Y2.6326
G01 X26.7107 Y2.6354
G01 X26.6545 Y2.6477
G01 X26.6427 Y2.6492
G01 X26.6355 Y2.6495
G01 X15.1351 Y2.6495
G01 X15.1232 Y2.6488
G01 X15.1162 Y2.6477
G01 X15.1092 Y2.6461
G01 X15.0399 Y2.6258
G01 X15.0329 Y2.6234
G01 X15.0261 Y2.6206
G01 X15.0174 Y2.6160
G01 X15.0092 Y2.6107
G01 X14.9847 Y2.5910
G01 X14.9767 Y2.5839
G01 X7.8675 Y-4.5254
G01 X7.8611 Y-4.5323
G01 X7.8542 Y-4.5418
G01 X7.8227 Y-4.5932
G01 X7.8181 Y-4.6014
G01 X7.8128 Y-4.6145
G01 X7.7772 Y-4.7241
G01 X7.7057 Y-4.8644
G01 X7.6132 Y-4.9918
G01 X7.5018 Y-5.1031
G01 X7.3744 Y-5.1957
G01 X7.2341 Y-5.2672
G01 X7.0843 Y-5.3159
G01 X6.9288 Y-5.3405
G01 X6.7713 Y-5.3405
G01 X6.6157 Y-5.3159
G01 X6.4660 Y-5.2672
G01 X6.3256 Y-5.1957
G01 X6.1982 Y-5.1031
G01 X6.0869 Y-4.9918
G01 X5.9943 Y-4.8644
G01 X5.9228 Y-4.7241
G01 X5.8742 Y-4.5743
G01 X5.8495 Y-4.4187
G01 X5.8495 Y-4.2613
G01 X5.8742 Y-4.1057
G01 X5.9228 Y-3.9559
G01 X5.9943 Y-3.8156
G01 X6.0869 Y-3.6882
G01 X6.1982 Y-3.5769
G01 X6.3256 Y-3.4843
G01 X6.4660 Y-3.4128
G01 X6.5755 Y-3.3772
G01 X6.5865 Y-3.3729
G01 X6.5968 Y-3.3674
G01 X6.6462 Y-3.3371
G01 X6.6577 Y-3.3289
G01 X6.6647 Y-3.3226
G01 X7.4538 Y-2.5334
G00 Z2.0000
G00 X6.6451 Y-3.4130
G01 F25.00
G01 Z-0.1866
G01 F120.00
G01 X6.5743 Y-3.4309
G01 X6.4865 Y-3.4623
G01 X6.4022 Y-3.5022
G01 X6.3222 Y-3.5501
G01 X6.2474 Y-3.6056
G01 X6.1783 Y-3.6682
G01 X6.1157 Y-3.7373
G01 X6.0601 Y-3.8122
G01 X6.0122 Y-3.8922
G01 X5.9723 Y-3.9765
G01 X5.9409 Y-4.0642
G01 X5.9183 Y-4.1547
G01 X5.9046 Y-4.2469
G01 X5.9000 Y-4.3400
G01 X5.9046 Y-4.4331
G01 X5.9183 Y-4.5253
G01 X5.9409 Y-4.6158
G01 X5.9723 Y-4.7035
G01 X6.0122 Y-4.7878
G01 X6.0601 Y-4.8678
G01 X6.1157 Y-4.9427
G01 X6.1783 Y-5.0118
G01 X6.2474 Y-5.0744
G01 X6.3222 Y-5.1299
G01 X6.4022 Y-5.1778
G01 X6.4865 Y-5.2177
G01 X6.5743 Y-5.2491
G01 X6.6647 Y-5.2717
G01 X6.7569 Y-5.2854
G01 X6.8500 Y-5.2900
G01 X6.9431 Y-5.2854
G01 X7.0354 Y-5.2717
G01 X7.1258 Y-5.2491
G01 X7.2090 Y-5.2195
G01 X7.2181 Y-5.2157
G01 X7.2979 Y-5.1778
G01 X7.3778 Y-5.1299
G01 X7.4488 Y-5.0774
G01 X7.4564 Y-5.0712
G01 X7.5218 Y-5.0118
G01 X7.5844 Y-4.9427
G01 X7.6371 Y-4.8718
G01 X7.6425 Y-4.8636
G01 X7.6878 Y-4.7878
G01 X7.7257 Y-4.7080
G01 X7.7295 Y-4.6990
G01 X7.7591 Y-4.6158
G01 X7.7770 Y-4.5449
G01 X15.0215 Y2.6996
G01 X26.9097 Y2.6996
G01 X26.9097 Y-4.9600
G01 X26.9135 Y-5.0384
G01 X26.9242 Y-5.1113
G01 X26.9256 Y-5.1185
G01 X26.9428 Y-5.1876
G01 X26.9457 Y-5.1970
G01 X26.9706 Y-5.2663
G01 X27.0020 Y-5.3329
G01 X27.0066 Y-5.3416
G01 X27.0446 Y-5.4047
G01 X27.0883 Y-5.4639
G01 X27.0929 Y-5.4696
G01 X27.1441 Y-5.5259
G01 X29.1231 Y-7.5049
G01 X29.1409 Y-7.5758
G01 X29.1723 Y-7.6635
G01 X29.2122 Y-7.7478
G01 X29.2575 Y-7.8236
G01 X29.2630 Y-7.8318
G01 X29.3126 Y-7.8988
G01 X29.3189 Y-7.9064
G01 X29.3783 Y-7.9718
G01 X29.4474 Y-8.0344
G01 X29.5182 Y-8.0871
G01 X29.5264 Y-8.0925
G01 X29.6022 Y-8.1378
G01 X29.6865 Y-8.1777
G01 X29.7743 Y-8.2091
G01 X29.8599 Y-8.2307
G01 X29.8695 Y-8.2326
G01 X29.9569 Y-8.2454
G01 X30.0500 Y-8.2500
G01 X30.1382 Y-8.2458
G01 X30.1480 Y-8.2448
G01 X30.2354 Y-8.2317
G01 X30.3258 Y-8.2091
G01 X30.4090 Y-8.1795
G01 X30.4181 Y-8.1757
G01 X30.4979 Y-8.1378
G01 X30.5737 Y-8.0925
G01 X30.5818 Y-8.0871
G01 X30.6527 Y-8.0344
G01 X30.7218 Y-7.9718
G01 X30.7812 Y-7.9064
G01 X30.7874 Y-7.8988
G01 X30.8399 Y-7.8278
G01 X30.8878 Y-7.7478
G01 X30.9257 Y-7.6680
G01 X30.9295 Y-7.6590
G01 X30.9591 Y-7.5758
G01 X30.9818 Y-7.4853
G01 X30.9948 Y-7.3980
G01 X30.9958 Y-7.3882
G01 X31.0000 Y-7.3000
G01 X30.9955 Y-7.2069
G01 X30.9818 Y-7.1147
G01 X30.9604 Y-7.0290
G01 X30.9576 Y-7.0196
G01 X30.9295 Y-6.9410
G01 X30.9257 Y-6.9320
G01 X30.8878 Y-6.8522
G01 X30.8399 Y-6.7722
G01 X30.7844 Y-6.6973
G01 X30.7235 Y-6.6300
G01 X30.6564 Y-6.5688
G01 X30.6488 Y-6.5626
G01 X30.5778 Y-6.5101
G01 X30.4979 Y-6.4622
G01 X30.4181 Y-6.4243
G01 X30.4090 Y-6.4205
G01 X30.3258 Y-6.3909
G01 X30.2549 Y-6.3730
G01 X28.5104 Y-4.6285
G01 X28.5104 Y1.5678
G01 X34.3231 Y-4.2449
G01 X34.3409 Y-4.3158
G01 X34.3723 Y-4.4035
G01 X34.4122 Y-4.4878
G01 X34.4575 Y-4.5636
G01 X34.4630 Y-4.5718
G01 X34.5126 Y-4.6388
G01 X34.5189 Y-4.6464
G01 X34.5783 Y-4.7118
G01 X34.6455 Y-4.7728
G01 X34.6512 Y-4.7774
G01 X34.7222 Y-4.8299
G01 X34.7979 Y-4.8754
G01 X34.8066 Y-4.8800
G01 X34.8820 Y-4.9157
G01 X34.8911 Y-4.9195
G01 X34.9743 Y-4.9491
G01 X35.0647 Y-4.9717
G01 X35.1569 Y-4.9854
G01 X35.2500 Y-4.9900
G01 X35.3431 Y-4.9854
G01 X35.4305 Y-4.9726
G01 X35.4401 Y-4.9707
G01 X35.5211 Y-4.9504
G01 X35.5305 Y-4.9476
G01 X35.6136 Y-4.9177
G01 X35.6979 Y-4.8778
G01 X35.7778 Y-4.8299
G01 X35.8508 Y-4.7759
G01 X35.8564 Y-4.7712
G01 X35.9218 Y-4.7118
G01 X35.9844 Y-4.6427
G01 X36.0399 Y-4.5678
G01 X36.0878 Y-4.4878
G01 X36.1277 Y-4.4035
G01 X36.1591 Y-4.3158
G01 X36.1818 Y-4.2253
G01 X36.1955 Y-4.1331
G01 X36.2000 Y-4.0400
G01 X36.1955 Y-3.9469
G01 X36.1818 Y-3.8547
G01 X36.1591 Y-3.7642
G01 X36.1277 Y-3.6765
G01 X36.0878 Y-3.5922
G01 X36.0399 Y-3.5122
G01 X35.9874 Y-3.4412
G01 X35.9828 Y-3.4354
G01 X35.9218 Y-3.3682
G01 X35.8564 Y-3.3088
G01 X35.8488 Y-3.3026
G01 X35.7818 Y-3.2529
G01 X35.7737 Y-3.2475
G01 X35.6979 Y-3.2022
G01 X35.6136 Y-3.1623
G01 X35.5258 Y-3.1309
G01 X35.4549 Y-3.1130
G01 X28.5104 Y3.8315
G01 X28.5104 Y6.7596
G01 X34.7394 Y6.7596
G01 X34.8022 Y6.7222
G01 X34.8820 Y6.6843
G01 X34.8911 Y6.6805
G01 X34.9743 Y6.6509
G01 X35.0647 Y6.6283
G01 X35.1520 Y6.6152
G01 X35.1618 Y6.6142
G01 X35.2525 Y6.6100
G01 X35.3382 Y6.6142
G01 X35.3480 Y6.6152
G01 X35.4354 Y6.6283
G01 X35.5211 Y6.6496
G01 X35.5305 Y6.6524
G01 X35.6136 Y6.6823
G01 X35.6979 Y6.7222
G01 X35.7778 Y6.7701
G01 X35.8488 Y6.8226
G01 X35.8564 Y6.8288
G01 X35.9218 Y6.8882
G01 X35.9812 Y6.9536
G01 X35.9874 Y6.9612
G01 X36.0399 Y7.0322
G01 X36.0878 Y7.1122
G01 X36.1257 Y7.1920
G01 X36.1295 Y7.2010
G01 X36.1591 Y7.2842
G01 X36.1807 Y7.3699
G01 X36.1826 Y7.3795
G01 X36.1955 Y7.4669
G01 X36.1999 Y7.5551
G01 X36.1999 Y7.5649
G01 X36.1955 Y7.6531
G01 X36.1826 Y7.7405
G01 X36.1807 Y7.7501
G01 X36.1591 Y7.8358
G01 X36.1277 Y7.9235
G01 X36.0901 Y8.0034
G01 X36.0854 Y8.0121
G01 X36.0399 Y8.0878
G01 X35.9874 Y8.1588
G01 X35.9812 Y8.1664
G01 X35.9218 Y8.2318
G01 X35.8527 Y8.2944
G01 X35.7778 Y8.3499
G01 X35.7021 Y8.3954
G01 X35.6935 Y8.4000
G01 X35.6136 Y8.4377
G01 X35.5305 Y8.4676
G01 X35.5211 Y8.4704
G01 X35.4354 Y8.4917
G01 X35.3431 Y8.5054
G01 X35.2500 Y8.5100
G01 X35.1569 Y8.5054
G01 X35.0647 Y8.4917
G01 X34.9743 Y8.4691
G01 X34.8865 Y8.4377
G01 X34.8022 Y8.3978
G01 X34.7394 Y8.3604
G01 X29.6422 Y8.3604
G01 X37.5560 Y16.2741
G01 X37.6087 Y16.3323
G01 X37.6555 Y16.3953
G01 X37.6935 Y16.4584
G01 X37.6981 Y16.4671
G01 X37.7295 Y16.5337
G01 X37.7544 Y16.6030
G01 X37.7572 Y16.6124
G01 X37.7750 Y16.6839
G01 X37.7859 Y16.7567
G01 X37.7869 Y16.7664
G01 X37.7904 Y16.8400
G01 X37.7904 Y18.7500
G01 X37.8425 Y18.7500
G01 X37.8547 Y18.7511
G01 X37.8667 Y18.7536
G01 X37.8760 Y18.7567
G01 X37.8850 Y18.7607
G01 X37.8935 Y18.7655
G01 X37.9035 Y18.7727
G01 X37.9124 Y18.7810
G01 X37.9203 Y18.7904
G01 X37.9258 Y18.7986
G01 X37.9304 Y18.8072
G01 X37.9350 Y18.8186
G01 X37.9381 Y18.8305
G01 X37.9398 Y18.8426
G01 X37.9400 Y18.8500
G01 X37.9400 Y20.5500
G01 X37.9395 Y20.5598
G01 X37.9386 Y20.5671
G01 X37.9364 Y20.5767
G01 X37.9342 Y20.5837
G01 X37.9304 Y20.5928
G01 X37.9270 Y20.5993
G01 X37.9232 Y20.6056
G01 X37.9189 Y20.6115
G01 X37.9124 Y20.6190
G01 X37.9035 Y20.6273
G01 X37.8935 Y20.6345
G01 X37.8828 Y20.6404
G01 X37.8714 Y20.6450
G01 X37.8619 Y20.6476
G01 X37.8523 Y20.6492
G01 X37.8400 Y20.6500
G01 X36.1376 Y20.6500
G01 X36.1278 Y20.6492
G01 X36.1157 Y20.6470
G01 X36.1063 Y20.6442
G01 X36.0973 Y20.6404
G01 X36.0865 Y20.6345
G01 X36.0785 Y20.6288
G01 X36.0711 Y20.6224
G01 X36.0643 Y20.6153
G01 X36.0583 Y20.6076
G01 X36.0543 Y20.6014
G01 X36.0507 Y20.5950
G01 X36.0467 Y20.5860
G01 X36.0436 Y20.5767
G01 X36.0419 Y20.5695
G01 X36.0405 Y20.5598
G01 X36.0401 Y20.5525
G01 X36.0401 Y18.8475
G01 X36.0411 Y18.8353
G01 X36.0436 Y18.8233
G01 X36.0476 Y18.8117
G01 X36.0530 Y18.8007
G01 X36.0597 Y18.7904
G01 X36.0676 Y18.7810
G01 X36.0766 Y18.7727
G01 X36.0845 Y18.7669
G01 X36.0951 Y18.7607
G01 X36.1040 Y18.7567
G01 X36.1157 Y18.7530
G01 X36.1254 Y18.7511
G01 X36.1376 Y18.7500
G01 X36.1897 Y18.7500
G01 X36.1897 Y17.1715
G01 X27.3785 Y8.3604
G01 X7.3904 Y8.3604
G01 X7.3508 Y8.3959
G01 X7.2818 Y8.4471
G01 X7.2758 Y8.4512
G01 X7.1979 Y8.4978
G01 X7.1181 Y8.5357
G01 X7.1113 Y8.5386
G01 X7.0258 Y8.5691
G01 X6.9354 Y8.5917
G01 X6.8431 Y8.6054
G01 X6.7500 Y8.6100
G01 X6.6569 Y8.6054
G01 X6.5695 Y8.5926
G01 X6.5599 Y8.5907
G01 X6.4790 Y8.5704
G01 X6.4696 Y8.5676
G01 X6.3865 Y8.5377
G01 X6.3022 Y8.4978
G01 X6.2222 Y8.4499
G01 X6.1493 Y8.3959
G01 X6.0818 Y8.3351
G01 X6.0749 Y8.3282
G01 X6.0157 Y8.2627
G01 X5.9601 Y8.1878
G01 X5.9146 Y8.1121
G01 X5.9100 Y8.1034
G01 X5.8723 Y8.0235
G01 X5.8409 Y7.9358
G01 X5.8183 Y7.8453
G01 X5.8052 Y7.7580
G01 X5.8042 Y7.7482
G01 X5.8000 Y7.6600
G01 X5.8046 Y7.5669
G01 X5.8174 Y7.4795
G01 X5.8194 Y7.4699
G01 X5.8409 Y7.3842
G01 X5.8706 Y7.3010
G01 X5.8743 Y7.2920
G01 X5.9122 Y7.2122
G01 X5.9601 Y7.1322
G01 X6.0157 Y7.0573
G01 X6.0749 Y6.9918
G01 X6.0818 Y6.9849
G01 X6.1474 Y6.9256
G01 X6.2222 Y6.8701
G01 X6.2979 Y6.8246
G01 X6.3066 Y6.8200
G01 X6.3865 Y6.7823
G01 X6.4743 Y6.7509
G01 X6.5599 Y6.7293
G01 X6.5695 Y6.7274
G01 X6.6594 Y6.7144
G01 X6.7500 Y6.7100
G01 X6.8382 Y6.7142
G01 X6.8456 Y6.7148
G01 X6.9305 Y6.7274
G01 X6.9378 Y6.7288
G01 X7.0234 Y6.7502
G01 X7.0506 Y6.7596
G01 X26.9097 Y6.7596
G01 X26.9097 Y4.3004
G01 X14.6900 Y4.3004
G01 X14.6116 Y4.2965
G01 X14.5387 Y4.2858
G01 X14.5291 Y4.2839
G01 X14.4577 Y4.2659
G01 X14.3883 Y4.2412
G01 X14.3793 Y4.2374
G01 X14.3149 Y4.2070
G01 X14.2495 Y4.1681
G01 X14.2414 Y4.1626
G01 X14.1823 Y4.1187
G01 X14.1241 Y4.0659
G01 X6.6451 Y-3.4130
G00 Z2.0000
G00 X7.1236 Y-7.8300
G01 F25.00
G01 Z-0.1866
G01 F120.00
G01 X7.1627 Y-7.8397
G01 X7.2112 Y-7.8470
G01 X7.2210 Y-7.8479
G01 X7.2700 Y-7.8502
G01 X11.3200 Y-7.8502
G01 X11.3200 Y-8.1500
G01 X11.3205 Y-8.1598
G01 X11.3219 Y-8.1695
G01 X11.3236 Y-8.1767
G01 X11.3259 Y-8.1837
G01 X11.3286 Y-8.1905
G01 X11.3318 Y-8.1971
G01 X11.3355 Y-8.2035
G01 X11.3397 Y-8.2096
G01 X11.3443 Y-8.2153
G01 X11.3493 Y-8.2207
G01 X11.3547 Y-8.2257
G01 X11.3605 Y-8.2303
G01 X11.3665 Y-8.2345
G01 X11.3729 Y-8.2382
G01 X11.3840 Y-8.2433
G01 X11.3910 Y-8.2457
G01 X11.3981 Y-8.2476
G01 X11.4102 Y-8.2495
G01 X11.4200 Y-8.2500
G01 X13.1200 Y-8.2500
G01 X13.1323 Y-8.2492
G01 X13.1419 Y-8.2476
G01 X13.1491 Y-8.2457
G01 X13.1583 Y-8.2424
G01 X13.1650 Y-8.2393
G01 X13.1735 Y-8.2345
G01 X13.1796 Y-8.2303
G01 X13.1872 Y-8.2241
G01 X13.1924 Y-8.2190
G01 X13.1973 Y-8.2134
G01 X13.2018 Y-8.2076
G01 X13.2070 Y-8.1993
G01 X13.2104 Y-8.1928
G01 X13.2133 Y-8.1860
G01 X13.2157 Y-8.1790
G01 X13.2181 Y-8.1695
G01 X13.2193 Y-8.1622
G01 X13.2199 Y-8.1549
G01 X13.2200 Y-6.4500
G01 X13.2193 Y-6.4378
G01 X13.2176 Y-6.4281
G01 X13.2150 Y-6.4186
G01 X13.2124 Y-6.4117
G01 X13.2093 Y-6.4050
G01 X13.2058 Y-6.3986
G01 X13.2018 Y-6.3924
G01 X13.1957 Y-6.3847
G01 X13.1890 Y-6.3776
G01 X13.1835 Y-6.3727
G01 X13.1756 Y-6.3669
G01 X13.1693 Y-6.3630
G01 X13.1628 Y-6.3596
G01 X13.1560 Y-6.3567
G01 X13.1491 Y-6.3543
G01 X13.1395 Y-6.3519
G01 X13.1323 Y-6.3508
G01 X13.1249 Y-6.3501
G01 X11.4200 Y-6.3500
G01 X11.4127 Y-6.3503
G01 X11.4029 Y-6.3515
G01 X11.3957 Y-6.3530
G01 X11.3887 Y-6.3550
G01 X11.3818 Y-6.3576
G01 X11.3729 Y-6.3618
G01 X11.3665 Y-6.3655
G01 X11.3605 Y-6.3697
G01 X11.3547 Y-6.3743
G01 X11.3493 Y-6.3793
G01 X11.3443 Y-6.3847
G01 X11.3397 Y-6.3904
G01 X11.3355 Y-6.3965
G01 X11.3318 Y-6.4029
G01 X11.3286 Y-6.4095
G01 X11.3259 Y-6.4163
G01 X11.3236 Y-6.4233
G01 X11.3219 Y-6.4305
G01 X11.3205 Y-6.4402
G01 X11.3200 Y-6.4500
G01 X11.3200 Y-6.7498
G01 X7.8000 Y-6.7498
G01 X7.8000 Y-6.0300
G01 X7.7998 Y-6.0226
G01 X7.7981 Y-6.0105
G01 X7.7964 Y-6.0033
G01 X7.7942 Y-5.9963
G01 X7.7893 Y-5.9850
G01 X7.7858 Y-5.9786
G01 X7.7818 Y-5.9724
G01 X7.7741 Y-5.9628
G01 X7.7690 Y-5.9576
G01 X7.7635 Y-5.9527
G01 X7.7535 Y-5.9455
G01 X7.7472 Y-5.9418
G01 X7.7405 Y-5.9386
G01 X7.7314 Y-5.9350
G01 X7.7219 Y-5.9324
G01 X7.7098 Y-5.9305
G01 X7.7000 Y-5.9300
G01 X6.0000 Y-5.9300
G01 X5.9927 Y-5.9303
G01 X5.9854 Y-5.9311
G01 X5.9781 Y-5.9324
G01 X5.9710 Y-5.9343
G01 X5.9640 Y-5.9367
G01 X5.9573 Y-5.9396
G01 X5.9465 Y-5.9455
G01 X5.9366 Y-5.9527
G01 X5.9276 Y-5.9610
G01 X5.9197 Y-5.9704
G01 X5.9130 Y-5.9807
G01 X5.9076 Y-5.9917
G01 X5.9036 Y-6.0033
G01 X5.9011 Y-6.0153
G01 X5.9001 Y-6.0275
G01 X5.9000 Y-7.7300
G01 X5.9003 Y-7.7374
G01 X5.9011 Y-7.7447
G01 X5.9025 Y-7.7519
G01 X5.9043 Y-7.7590
G01 X5.9086 Y-7.7705
G01 X5.9118 Y-7.7771
G01 X5.9155 Y-7.7835
G01 X5.9227 Y-7.7934
G01 X5.9311 Y-7.8024
G01 X5.9385 Y-7.8088
G01 X5.9486 Y-7.8158
G01 X5.9595 Y-7.8214
G01 X5.9710 Y-7.8257
G01 X5.9829 Y-7.8285
G01 X5.9951 Y-7.8299
G01 X7.1236 Y-7.8300
G00 Z2.0000
G00 X13.9998 Y-7.7941
G01 F25.00
G01 Z-0.1866
G01 F120.00
G01 X12.1441 Y-9.6498
G01 X5.8779 Y-9.6498
G01 X4.7002 Y-8.4721
G01 X4.7002 Y2.2921
G01 X6.5782 Y4.1700
G01 X7.6000 Y4.1700
G01 X7.6074 Y4.1703
G01 X7.6147 Y4.1711
G01 X7.6243 Y4.1730
G01 X7.6337 Y4.1758
G01 X7.6428 Y4.1796
G01 X7.6514 Y4.1842
G01 X7.6576 Y4.1882
G01 X7.6653 Y4.1943
G01 X7.6707 Y4.1993
G01 X7.6757 Y4.2047
G01 X7.6818 Y4.2124
G01 X7.6870 Y4.2207
G01 X7.6914 Y4.2295
G01 X7.6942 Y4.2363
G01 X7.6970 Y4.2457
G01 X7.6986 Y4.2529
G01 X7.6998 Y4.2626
G01 X7.7000 Y4.2700
G01 X7.7000 Y5.9725
G01 X7.6993 Y5.9822
G01 X7.6976 Y5.9919
G01 X7.6950 Y6.0014
G01 X7.6914 Y6.0105
G01 X7.6870 Y6.0193
G01 X7.6818 Y6.0276
G01 X7.6757 Y6.0353
G01 X7.6690 Y6.0424
G01 X7.6615 Y6.0488
G01 X7.6535 Y6.0545
G01 X7.6450 Y6.0593
G01 X7.6360 Y6.0633
G01 X7.6291 Y6.0657
G01 X7.6195 Y6.0681
G01 X7.6098 Y6.0695
G01 X7.6000 Y6.0700
G01 X5.9000 Y6.0700
G01 X5.8927 Y6.0697
G01 X5.8854 Y6.0689
G01 X5.8734 Y6.0664
G01 X5.8663 Y6.0642
G01 X5.8595 Y6.0614
G01 X5.8486 Y6.0558
G01 X5.8385 Y6.0488
G01 X5.8293 Y6.0407
G01 X5.8212 Y6.0315
G01 X5.8143 Y6.0214
G01 X5.8086 Y6.0105
G01 X5.8043 Y5.9990
G01 X5.8015 Y5.9871
G01 X5.8001 Y5.9749
G01 X5.8000 Y4.9481
G01 X3.7576 Y2.9055
G01 X3.7247 Y2.8691
G01 X3.6954 Y2.8297
G01 X3.6899 Y2.8215
G01 X3.6672 Y2.7836
G01 X3.6626 Y2.7750
G01 X3.6417 Y2.7306
G01 X3.6235 Y2.6797
G01 X3.6104 Y2.6273
G01 X3.6031 Y2.5788
G01 X3.6021 Y2.5690
G01 X3.5998 Y2.5200
G01 X3.5998 Y-8.7000
G01 X3.6021 Y-8.7490
G01 X3.6031 Y-8.7588
G01 X3.6104 Y-8.8073
G01 X3.6222 Y-8.8550
G01 X3.6250 Y-8.8644
G01 X3.6417 Y-8.9106
G01 X3.6626 Y-8.9550
G01 X3.6672 Y-8.9636
G01 X3.6925 Y-9.0057
G01 X3.7217 Y-9.0452
G01 X3.7279 Y-9.0528
G01 X3.7610 Y-9.0891
G01 X5.2627 Y-10.5908
G01 X5.3010 Y-10.6253
G01 X5.3403 Y-10.6547
G01 X5.3485 Y-10.6601
G01 X5.3907 Y-10.6853
G01 X5.4395 Y-10.7083
G01 X5.4856 Y-10.7250
G01 X5.4950 Y-10.7278
G01 X5.5427 Y-10.7397
G01 X5.5961 Y-10.7476
G01 X5.6500 Y-10.7502
G01 X12.3720 Y-10.7502
G01 X12.4211 Y-10.7479
G01 X12.4284 Y-10.7473
G01 X12.4794 Y-10.7397
G01 X12.5270 Y-10.7278
G01 X12.5364 Y-10.7250
G01 X12.5780 Y-10.7101
G01 X12.5871 Y-10.7064
G01 X12.6314 Y-10.6853
G01 X12.6777 Y-10.6575
G01 X12.7211 Y-10.6253
G01 X12.7575 Y-10.5925
G01 X15.1717 Y-8.1784
G01 X15.2535 Y-8.1400
G01 X15.2621 Y-8.1354
G01 X15.3378 Y-8.0899
G01 X15.4088 Y-8.0374
G01 X15.4164 Y-8.0312
G01 X15.4818 Y-7.9718
G01 X15.5412 Y-7.9064
G01 X15.5459 Y-7.9008
G01 X15.5999 Y-7.8278
G01 X15.6454 Y-7.7521
G01 X15.6501 Y-7.7434
G01 X15.6877 Y-7.6635
G01 X15.7191 Y-7.5758
G01 X15.7407 Y-7.4901
G01 X15.7426 Y-7.4805
G01 X15.7548 Y-7.3980
G01 X15.7558 Y-7.3882
G01 X15.7600 Y-7.3000
G01 X15.7555 Y-7.2069
G01 X15.7418 Y-7.1147
G01 X15.7204 Y-7.0290
G01 X15.7176 Y-7.0196
G01 X15.6895 Y-6.9410
G01 X15.6857 Y-6.9320
G01 X15.6478 Y-6.8522
G01 X15.6013 Y-6.7743
G01 X15.5971 Y-6.7682
G01 X15.5444 Y-6.6973
G01 X15.4818 Y-6.6282
G01 X15.4127 Y-6.5656
G01 X15.3378 Y-6.5101
G01 X15.2579 Y-6.4622
G01 X15.1736 Y-6.4223
G01 X15.0858 Y-6.3909
G01 X14.9954 Y-6.3683
G01 X14.9031 Y-6.3546
G01 X14.8100 Y-6.3500
G01 X14.7169 Y-6.3546
G01 X14.6247 Y-6.3683
G01 X14.5343 Y-6.3909
G01 X14.4465 Y-6.4223
G01 X14.3622 Y-6.4622
G01 X14.2843 Y-6.5088
G01 X14.2782 Y-6.5129
G01 X14.2074 Y-6.5656
G01 X14.1383 Y-6.6282
G01 X14.0757 Y-6.6973
G01 X14.0201 Y-6.7722
G01 X13.9722 Y-6.8522
G01 X13.9323 Y-6.9365
G01 X13.9009 Y-7.0242
G01 X13.8788 Y-7.1123
G01 X13.8774 Y-7.1195
G01 X13.8646 Y-7.2069
G01 X13.8600 Y-7.3000
G01 X13.8646 Y-7.3931
G01 X13.8778 Y-7.4829
G01 X13.8794 Y-7.4901
G01 X13.9009 Y-7.5758
G01 X13.9314 Y-7.6613
G01 X13.9343 Y-7.6680
G01 X13.9711 Y-7.7456
G01 X13.9998 Y-7.7941
G00 Z2.0000
G00 X17.3451 Y-8.2499
G01 F25.00
G01 Z-0.1866
G01 F120.00
G01 X17.3549 Y-8.2499
G01 X17.4431 Y-8.2454
G01 X17.5354 Y-8.2317
G01 X17.6258 Y-8.2091
G01 X17.7136 Y-8.1777
G01 X17.7979 Y-8.1378
G01 X17.8778 Y-8.0899
G01 X17.9527 Y-8.0344
G01 X18.0218 Y-7.9718
G01 X18.0844 Y-7.9027
G01 X18.1399 Y-7.8278
G01 X18.1878 Y-7.7478
G01 X18.2277 Y-7.6635
G01 X18.2591 Y-7.5758
G01 X18.2818 Y-7.4853
G01 X18.2955 Y-7.3931
G01 X18.3000 Y-7.3000
G01 X18.2955 Y-7.2069
G01 X18.2818 Y-7.1147
G01 X18.2591 Y-7.0242
G01 X18.2277 Y-6.9365
G01 X18.1878 Y-6.8522
G01 X18.1399 Y-6.7722
G01 X18.0844 Y-6.6973
G01 X18.0218 Y-6.6282
G01 X17.9527 Y-6.5656
G01 X17.8778 Y-6.5101
G01 X17.7979 Y-6.4622
G01 X17.7136 Y-6.4223
G01 X17.6258 Y-6.3909
G01 X17.5354 Y-6.3683
G01 X17.4431 Y-6.3546
G01 X17.3500 Y-6.3500
G01 X17.2569 Y-6.3546
G01 X17.1647 Y-6.3683
G01 X17.0743 Y-6.3909
G01 X16.9865 Y-6.4223
G01 X16.9022 Y-6.4622
G01 X16.8222 Y-6.5101
G01 X16.7474 Y-6.5656
G01 X16.6783 Y-6.6282
G01 X16.6157 Y-6.6973
G01 X16.5601 Y-6.7722
G01 X16.5122 Y-6.8522
G01 X16.4723 Y-6.9365
G01 X16.4409 Y-7.0242
G01 X16.4183 Y-7.1147
G01 X16.4046 Y-7.2069
G01 X16.4000 Y-7.3000
G01 X16.4046 Y-7.3931
G01 X16.4183 Y-7.4853
G01 X16.4409 Y-7.5758
G01 X16.4723 Y-7.6635
G01 X16.5122 Y-7.7478
G01 X16.5601 Y-7.8278
G01 X16.6157 Y-7.9027
G01 X16.6783 Y-7.9718
G01 X16.7474 Y-8.0344
G01 X16.8222 Y-8.0899
G01 X16.9022 Y-8.1378
G01 X16.9865 Y-8.1777
G01 X17.0743 Y-8.2091
G01 X17.1647 Y-8.2317
G01 X17.2569 Y-8.2454
G01 X17.3451 Y-8.2499
G00 Z2.0000
G00 X18.1132 Y-6.6482
G01 F25.00
G01 Z-0.1866
G01 F120.00
G01 X18.2057 Y-6.7756
G01 X18.2772 Y-6.9159
G01 X18.3259 Y-7.0657
G01 X18.3505 Y-7.2213
G01 X18.3505 Y-7.3787
G01 X18.3259 Y-7.5343
G01 X18.2772 Y-7.6841
G01 X18.2057 Y-7.8244
G01 X18.1132 Y-7.9518
G01 X18.0018 Y-8.0631
G01 X17.8744 Y-8.1557
G01 X17.7341 Y-8.2272
G01 X17.5843 Y-8.2759
G01 X17.4288 Y-8.3005
G01 X17.2713 Y-8.3005
G01 X17.1157 Y-8.2759
G01 X16.9660 Y-8.2272
G01 X16.8256 Y-8.1557
G01 X16.6982 Y-8.0631
G01 X16.5869 Y-7.9518
G01 X16.4943 Y-7.8244
G01 X16.4228 Y-7.6841
G01 X16.3742 Y-7.5343
G01 X16.3495 Y-7.3787
G01 X16.3495 Y-7.2213
G01 X16.3742 Y-7.0657
G01 X16.4228 Y-6.9159
G01 X16.4943 Y-6.7756
G01 X16.5869 Y-6.6482
G01 X16.6982 Y-6.5369
G01 X16.8256 Y-6.4443
G01 X16.9660 Y-6.3728
G01 X17.1157 Y-6.3241
G01 X17.2713 Y-6.2995
G01 X17.4288 Y-6.2995
G01 X17.5843 Y-6.3241
G01 X17.7341 Y-6.3728
G01 X17.8744 Y-6.4443
G01 X18.0018 Y-6.5369
G01 X18.1132 Y-6.6482
G00 Z2.0000
G00 X19.8851 Y-8.2499
G01 F25.00
G01 Z-0.1866
G01 F120.00
G01 X19.8949 Y-8.2499
G01 X19.9831 Y-8.2454
G01 X20.0754 Y-8.2317
G01 X20.1658 Y-8.2091
G01 X20.2536 Y-8.1777
G01 X20.3379 Y-8.1378
G01 X20.4178 Y-8.0899
G01 X20.4927 Y-8.0344
G01 X20.5618 Y-7.9718
G01 X20.6244 Y-7.9027
G01 X20.6799 Y-7.8278
G01 X20.7278 Y-7.7478
G01 X20.7677 Y-7.6635
G01 X20.7991 Y-7.5758
G01 X20.8218 Y-7.4853
G01 X20.8355 Y-7.3931
G01 X20.8400 Y-7.3000
G01 X20.8355 Y-7.2069
G01 X20.8218 Y-7.1147
G01 X20.7991 Y-7.0242
G01 X20.7677 Y-6.9365
G01 X20.7278 Y-6.8522
G01 X20.6799 Y-6.7722
G01 X20.6244 Y-6.6973
G01 X20.5618 Y-6.6282
G01 X20.4927 Y-6.5656
G01 X20.4178 Y-6.5101
G01 X20.3379 Y-6.4622
G01 X20.2536 Y-6.4223
G01 X20.1658 Y-6.3909
G01 X20.0754 Y-6.3683
G01 X19.9831 Y-6.3546
G01 X19.8900 Y-6.3500
G01 X19.7969 Y-6.3546
G01 X19.7047 Y-6.3683
G01 X19.6143 Y-6.3909
G01 X19.5265 Y-6.4223
G01 X19.4422 Y-6.4622
G01 X19.3622 Y-6.5101
G01 X19.2874 Y-6.5656
G01 X19.2183 Y-6.6282
G01 X19.1557 Y-6.6973
G01 X19.1001 Y-6.7722
G01 X19.0522 Y-6.8522
G01 X19.0123 Y-6.9365
G01 X18.9809 Y-7.0242
G01 X18.9583 Y-7.1147
G01 X18.9446 Y-7.2069
G01 X18.9400 Y-7.3000
G01 X18.9446 Y-7.3931
G01 X18.9583 Y-7.4853
G01 X18.9809 Y-7.5758
G01 X19.0123 Y-7.6635
G01 X19.0522 Y-7.7478
G01 X19.1001 Y-7.8278
G01 X19.1557 Y-7.9027
G01 X19.2183 Y-7.9718
G01 X19.2874 Y-8.0344
G01 X19.3622 Y-8.0899
G01 X19.4422 Y-8.1378
G01 X19.5265 Y-8.1777
G01 X19.6143 Y-8.2091
G01 X19.7047 Y-8.2317
G01 X19.7969 Y-8.2454
G01 X19.8851 Y-8.2499
G00 Z2.0000
G00 X20.6532 Y-6.6482
G01 F25.00
G01 Z-0.1866
G01 F120.00
G01 X20.7457 Y-6.7756
G01 X20.8172 Y-6.9159
G01 X20.8659 Y-7.0657
G01 X20.8905 Y-7.2213
G01 X20.8905 Y-7.3787
G01 X20.8659 Y-7.5343
G01 X20.8172 Y-7.6841
G01 X20.7457 Y-7.8244
G01 X20.6532 Y-7.9518
G01 X20.5418 Y-8.0631
G01 X20.4144 Y-8.1557
G01 X20.2741 Y-8.2272
G01 X20.1243 Y-8.2759
G01 X19.9688 Y-8.3005
G01 X19.8113 Y-8.3005
G01 X19.6557 Y-8.2759
G01 X19.5060 Y-8.2272
G01 X19.3656 Y-8.1557
G01 X19.2382 Y-8.0631
G01 X19.1269 Y-7.9518
G01 X19.0343 Y-7.8244
G01 X18.9628 Y-7.6841
G01 X18.9142 Y-7.5343
G01 X18.8895 Y-7.3787
G01 X18.8895 Y-7.2213
G01 X18.9142 Y-7.0657
G01 X18.9628 Y-6.9159
G01 X19.0343 Y-6.7756
G01 X19.1269 Y-6.6482
G01 X19.2382 Y-6.5369
G01 X19.3656 Y-6.4443
G01 X19.5060 Y-6.3728
G01 X19.6557 Y-6.3241
G01 X19.8113 Y-6.2995
G01 X19.9688 Y-6.2995
G01 X20.1243 Y-6.3241
G01 X20.2741 Y-6.3728
G01 X20.4144 Y-6.4443
G01 X20.5418 Y-6.5369
G01 X20.6532 Y-6.6482
G00 Z2.0000
G00 X22.4251 Y-8.2499
G01 F25.00
G01 Z-0.1866
G01 F120.00
G01 X22.4349 Y-8.2499
G01 X22.5231 Y-8.2454
G01 X22.6154 Y-8.2317
G01 X22.7058 Y-8.2091
G01 X22.7936 Y-8.1777
G01 X22.8779 Y-8.1378
G01 X22.9578 Y-8.0899
G01 X23.0327 Y-8.0344
G01 X23.1018 Y-7.9718
G01 X23.1644 Y-7.9027
G01 X23.2199 Y-7.8278
G01 X23.2678 Y-7.7478
G01 X23.3077 Y-7.6635
G01 X23.3391 Y-7.5758
G01 X23.3618 Y-7.4853
G01 X23.3755 Y-7.3931
G01 X23.3800 Y-7.3000
G01 X23.3755 Y-7.2069
G01 X23.3618 Y-7.1147
G01 X23.3391 Y-7.0242
G01 X23.3077 Y-6.9365
G01 X23.2678 Y-6.8522
G01 X23.2199 Y-6.7722
G01 X23.1644 Y-6.6973
G01 X23.1018 Y-6.6282
G01 X23.0327 Y-6.5656
G01 X22.9578 Y-6.5101
G01 X22.8779 Y-6.4622
G01 X22.7936 Y-6.4223
G01 X22.7058 Y-6.3909
G01 X22.6154 Y-6.3683
G01 X22.5231 Y-6.3546
G01 X22.4300 Y-6.3500
G01 X22.3369 Y-6.3546
G01 X22.2447 Y-6.3683
G01 X22.1543 Y-6.3909
G01 X22.0665 Y-6.4223
G01 X21.9822 Y-6.4622
G01 X21.9022 Y-6.5101
G01 X21.8274 Y-6.5656
G01 X21.7583 Y-6.6282
G01 X21.6957 Y-6.6973
G01 X21.6401 Y-6.7722
G01 X21.5922 Y-6.8522
G01 X21.5523 Y-6.9365
G01 X21.5209 Y-7.0242
G01 X21.4983 Y-7.1147
G01 X21.4846 Y-7.2069
G01 X21.4800 Y-7.3000
G01 X21.4846 Y-7.3931
G01 X21.4983 Y-7.4853
G01 X21.5209 Y-7.5758
G01 X21.5523 Y-7.6635
G01 X21.5922 Y-7.7478
G01 X21.6401 Y-7.8278
G01 X21.6957 Y-7.9027
G01 X21.7583 Y-7.9718
G01 X21.8274 Y-8.0344
G01 X21.9022 Y-8.0899
G01 X21.9822 Y-8.1378
G01 X22.0665 Y-8.1777
G01 X22.1543 Y-8.2091
G01 X22.2447 Y-8.2317
G01 X22.3369 Y-8.2454
G01 X22.4251 Y-8.2499
G00 Z2.0000
G00 X23.1932 Y-6.6482
G01 F25.00
G01 Z-0.1866
G01 F120.00
G01 X23.2857 Y-6.7756
G01 X23.3572 Y-6.9159
G01 X23.4059 Y-7.0657
G01 X23.4305 Y-7.2213
G01 X23.4305 Y-7.3787
G01 X23.4059 Y-7.5343
G01 X23.3572 Y-7.6841
G01 X23.2857 Y-7.8244
G01 X23.1932 Y-7.9518
G01 X23.0818 Y-8.0631
G01 X22.9544 Y-8.1557
G01 X22.8141 Y-8.2272
G01 X22.6643 Y-8.2759
G01 X22.5088 Y-8.3005
G01 X22.3513 Y-8.3005
G01 X22.1957 Y-8.2759
G01 X22.0460 Y-8.2272
G01 X21.9056 Y-8.1557
G01 X21.7782 Y-8.0631
G01 X21.6669 Y-7.9518
G01 X21.5743 Y-7.8244
G01 X21.5028 Y-7.6841
G01 X21.4542 Y-7.5343
G01 X21.4295 Y-7.3787
G01 X21.4295 Y-7.2213
G01 X21.4542 Y-7.0657
G01 X21.5028 Y-6.9159
G01 X21.5743 Y-6.7756
G01 X21.6669 Y-6.6482
G01 X21.7782 Y-6.5369
G01 X21.9056 Y-6.4443
G01 X22.0460 Y-6.3728
G01 X22.1957 Y-6.3241
G01 X22.3513 Y-6.2995
G01 X22.5088 Y-6.2995
G01 X22.6643 Y-6.3241
G01 X22.8141 Y-6.3728
G01 X22.9544 Y-6.4443
G01 X23.0818 Y-6.5369
G01 X23.1932 Y-6.6482
G00 Z2.0000
G00 X24.9651 Y-8.2499
G01 F25.00
G01 Z-0.1866
G01 F120.00
G01 X24.9749 Y-8.2499
G01 X25.0631 Y-8.2454
G01 X25.1554 Y-8.2317
G01 X25.2458 Y-8.2091
G01 X25.3336 Y-8.1777
G01 X25.4179 Y-8.1378
G01 X25.4978 Y-8.0899
G01 X25.5727 Y-8.0344
G01 X25.6418 Y-7.9718
G01 X25.7044 Y-7.9027
G01 X25.7599 Y-7.8278
G01 X25.8078 Y-7.7478
G01 X25.8477 Y-7.6635
G01 X25.8791 Y-7.5758
G01 X25.9018 Y-7.4853
G01 X25.9155 Y-7.3931
G01 X25.9200 Y-7.3000
G01 X25.9155 Y-7.2069
G01 X25.9018 Y-7.1147
G01 X25.8791 Y-7.0242
G01 X25.8477 Y-6.9365
G01 X25.8078 Y-6.8522
G01 X25.7599 Y-6.7722
G01 X25.7044 Y-6.6973
G01 X25.6418 Y-6.6282
G01 X25.5727 Y-6.5656
G01 X25.4978 Y-6.5101
G01 X25.4179 Y-6.4622
G01 X25.3336 Y-6.4223
G01 X25.2458 Y-6.3909
G01 X25.1554 Y-6.3683
G01 X25.0631 Y-6.3546
G01 X24.9700 Y-6.3500
G01 X24.8769 Y-6.3546
G01 X24.7847 Y-6.3683
G01 X24.6943 Y-6.3909
G01 X24.6065 Y-6.4223
G01 X24.5222 Y-6.4622
G01 X24.4422 Y-6.5101
G01 X24.3674 Y-6.5656
G01 X24.2983 Y-6.6282
G01 X24.2357 Y-6.6973
G01 X24.1801 Y-6.7722
G01 X24.1322 Y-6.8522
G01 X24.0923 Y-6.9365
G01 X24.0609 Y-7.0242
G01 X24.0383 Y-7.1147
G01 X24.0246 Y-7.2069
G01 X24.0200 Y-7.3000
G01 X24.0246 Y-7.3931
G01 X24.0383 Y-7.4853
G01 X24.0609 Y-7.5758
G01 X24.0923 Y-7.6635
G01 X24.1322 Y-7.7478
G01 X24.1801 Y-7.8278
G01 X24.2357 Y-7.9027
G01 X24.2983 Y-7.9718
G01 X24.3674 Y-8.0344
G01 X24.4422 Y-8.0899
G01 X24.5222 Y-8.1378
G01 X24.6065 Y-8.1777
G01 X24.6943 Y-8.2091
G01 X24.7847 Y-8.2317
G01 X24.8769 Y-8.2454
G01 X24.9651 Y-8.2499
G00 Z2.0000
G00 X25.7332 Y-6.6482
G01 F25.00
G01 Z-0.1866
G01 F120.00
G01 X25.8257 Y-6.7756
G01 X25.8972 Y-6.9159
G01 X25.9459 Y-7.0657
G01 X25.9705 Y-7.2213
G01 X25.9705 Y-7.3787
G01 X25.9459 Y-7.5343
G01 X25.8972 Y-7.6841
G01 X25.8257 Y-7.8244
G01 X25.7332 Y-7.9518
G01 X25.6218 Y-8.0631
G01 X25.4944 Y-8.1557
G01 X25.3541 Y-8.2272
G01 X25.2043 Y-8.2759
G01 X25.0488 Y-8.3005
G01 X24.8913 Y-8.3005
G01 X24.7357 Y-8.2759
G01 X24.5860 Y-8.2272
G01 X24.4456 Y-8.1557
G01 X24.3182 Y-8.0631
G01 X24.2069 Y-7.9518
G01 X24.1143 Y-7.8244
G01 X24.0428 Y-7.6841
G01 X23.9942 Y-7.5343
G01 X23.9695 Y-7.3787
G01 X23.9695 Y-7.2213
G01 X23.9942 Y-7.0657
G01 X24.0428 Y-6.9159
G01 X24.1143 Y-6.7756
G01 X24.2069 Y-6.6482
G01 X24.3182 Y-6.5369
G01 X24.4456 Y-6.4443
G01 X24.5860 Y-6.3728
G01 X24.7357 Y-6.3241
G01 X24.8913 Y-6.2995
G01 X25.0488 Y-6.2995
G01 X25.2043 Y-6.3241
G01 X25.3541 Y-6.3728
G01 X25.4944 Y-6.4443
G01 X25.6218 Y-6.5369
G01 X25.7332 Y-6.6482
G00 Z2.0000
G00 X36.0008 Y-7.7300
G01 F25.00
G01 Z-0.1866
G01 F120.00
G01 X36.0008 Y-17.3590
G01 X35.9977 Y-17.3586
G01 X36.0000 Y-17.3123
G01 X36.0002 Y-17.3000
G01 X36.0002 Y-7.7300
G01 X36.0008 Y-7.7300
G01 X36.1000 Y-7.5300
G01 X36.1098 Y-7.5295
G01 X36.1195 Y-7.5281
G01 X36.1267 Y-7.5264
G01 X36.1360 Y-7.5233
G01 X36.1450 Y-7.5193
G01 X36.1535 Y-7.5145
G01 X36.1615 Y-7.5088
G01 X36.1672 Y-7.5041
G01 X36.1741 Y-7.4972
G01 X36.1789 Y-7.4915
G01 X36.1845 Y-7.4835
G01 X36.1893 Y-7.4750
G01 X36.1924 Y-7.4683
G01 X36.1957 Y-7.4590
G01 X36.1981 Y-7.4495
G01 X36.1995 Y-7.4398
G01 X36.2000 Y-7.4300
G01 X36.2000 Y-5.7300
G01 X36.1998 Y-5.7226
G01 X36.1989 Y-5.7153
G01 X36.1970 Y-5.7057
G01 X36.1950 Y-5.6986
G01 X36.1924 Y-5.6917
G01 X36.1882 Y-5.6829
G01 X36.1845 Y-5.6765
G01 X36.1789 Y-5.6685
G01 X36.1724 Y-5.6610
G01 X36.1672 Y-5.6559
G01 X36.1615 Y-5.6512
G01 X36.1535 Y-5.6455
G01 X36.1450 Y-5.6407
G01 X36.1383 Y-5.6376
G01 X36.1291 Y-5.6343
G01 X36.1219 Y-5.6324
G01 X36.1123 Y-5.6308
G01 X36.1049 Y-5.6301
G01 X34.4000 Y-5.6300
G01 X34.3927 Y-5.6303
G01 X34.3854 Y-5.6311
G01 X34.3781 Y-5.6324
G01 X34.3687 Y-5.6350
G01 X34.3618 Y-5.6376
G01 X34.3529 Y-5.6418
G01 X34.3465 Y-5.6455
G01 X34.3385 Y-5.6512
G01 X34.3311 Y-5.6576
G01 X34.3259 Y-5.6628
G01 X34.3197 Y-5.6704
G01 X34.3155 Y-5.6765
G01 X34.3107 Y-5.6850
G01 X34.3076 Y-5.6917
G01 X34.3043 Y-5.7010
G01 X34.3025 Y-5.7081
G01 X34.3008 Y-5.7178
G01 X34.3001 Y-5.7251
G01 X34.3000 Y-7.4300
G01 X34.3005 Y-7.4398
G01 X34.3015 Y-7.4471
G01 X34.3030 Y-7.4543
G01 X34.3051 Y-7.4614
G01 X34.3076 Y-7.4683
G01 X34.3107 Y-7.4750
G01 X34.3143 Y-7.4814
G01 X34.3183 Y-7.4876
G01 X34.3227 Y-7.4934
G01 X34.3276 Y-7.4990
G01 X34.3347 Y-7.5057
G01 X34.3405 Y-7.5103
G01 X34.3465 Y-7.5145
G01 X34.3529 Y-7.5182
G01 X34.3595 Y-7.5214
G01 X34.3663 Y-7.5242
G01 X34.3734 Y-7.5264
G01 X34.3805 Y-7.5281
G01 X34.3902 Y-7.5295
G01 X34.4000 Y-7.5300
G01 X34.6998 Y-7.5300
G01 X34.6998 Y-17.0721
G01 X30.2219 Y-21.5500
G01 X29.1976 Y-21.5500
G01 X29.1878 Y-21.5508
G01 X29.1781 Y-21.5524
G01 X29.1663 Y-21.5558
G01 X29.1573 Y-21.5596
G01 X29.1486 Y-21.5642
G01 X29.1405 Y-21.5697
G01 X29.1311 Y-21.5776
G01 X29.1243 Y-21.5847
G01 X29.1197 Y-21.5904
G01 X29.1143 Y-21.5986
G01 X29.1107 Y-21.6050
G01 X29.1067 Y-21.6140
G01 X29.1036 Y-21.6233
G01 X29.1019 Y-21.6305
G01 X29.1005 Y-21.6402
G01 X29.1001 Y-21.6475
G01 X29.1001 Y-23.3525
G01 X29.1011 Y-23.3647
G01 X29.1025 Y-23.3719
G01 X29.1043 Y-23.3790
G01 X29.1067 Y-23.3860
G01 X29.1096 Y-23.3928
G01 X29.1130 Y-23.3993
G01 X29.1169 Y-23.4056
G01 X29.1212 Y-23.4115
G01 X29.1259 Y-23.4172
G01 X29.1311 Y-23.4224
G01 X29.1366 Y-23.4273
G01 X29.1424 Y-23.4318
G01 X29.1486 Y-23.4358
G01 X29.1595 Y-23.4414
G01 X29.1687 Y-23.4450
G01 X29.1805 Y-23.4481
G01 X29.1902 Y-23.4495
G01 X29.2000 Y-23.4500
G01 X30.9000 Y-23.4500
G01 X30.9098 Y-23.4495
G01 X30.9171 Y-23.4485
G01 X30.9267 Y-23.4464
G01 X30.9360 Y-23.4433
G01 X30.9450 Y-23.4393
G01 X30.9514 Y-23.4358
G01 X30.9596 Y-23.4303
G01 X30.9672 Y-23.4241
G01 X30.9741 Y-23.4172
G01 X30.9803 Y-23.4096
G01 X30.9858 Y-23.4014
G01 X30.9904 Y-23.3928
G01 X30.9950 Y-23.3814
G01 X30.9976 Y-23.3719
G01 X30.9993 Y-23.3622
G01 X31.0000 Y-23.3525
G01 X31.0000 Y-22.3281
G01 X35.6391 Y-17.6891
G01 X35.6754 Y-17.6491
G01 X35.7075 Y-17.6057
G01 X35.7353 Y-17.5594
G01 X35.7574 Y-17.5128
G01 X35.7601 Y-17.5060
G01 X35.7766 Y-17.4597
G01 X35.7897 Y-17.4073
G01 X35.7976 Y-17.3539
G01 X35.8002 Y-17.3000
G01 X35.8002 Y-7.5300
G01 X36.1000 Y-7.5300
G00 Z2.0000
G00 X36.1505 Y-17.7716
G01 F25.00
G01 Z-0.1866
G01 F120.00
G01 X36.1498 Y-17.7597
G01 X36.1477 Y-17.7480
G01 X36.1268 Y-17.6764
G01 X36.1244 Y-17.6693
G01 X36.1215 Y-17.6625
G01 X36.1182 Y-17.6558
G01 X36.1143 Y-17.6495
G01 X36.1084 Y-17.6415
G01 X36.1000 Y-17.6323
G01 X36.0435 Y-17.5832
G01 X36.0377 Y-17.5786
G01 X36.0316 Y-17.5744
G01 X36.0251 Y-17.5706
G01 X36.0184 Y-17.5673
G01 X36.0092 Y-17.5638
G01 X35.9972 Y-17.5607
G01 X35.9231 Y-17.5499
G01 X35.9157 Y-17.5491
G01 X35.9083 Y-17.5489
G01 X35.9008 Y-17.5492
G01 X35.8934 Y-17.5501
G01 X35.8837 Y-17.5521
G01 X35.8719 Y-17.5560
G01 X35.8038 Y-17.5869
G01 X35.7972 Y-17.5903
G01 X35.7908 Y-17.5941
G01 X35.7848 Y-17.5983
G01 X35.7790 Y-17.6030
G01 X35.7703 Y-17.6117
G01 X35.7450 Y-17.6407
G01 X35.7403 Y-17.6472
G01 X35.7165 Y-17.6828
G01 X31.1128 Y-22.2866
G01 X31.1054 Y-22.2958
G01 X31.1002 Y-22.3038
G01 X31.0656 Y-22.3672
G01 X31.0604 Y-22.3783
G01 X31.0572 Y-22.3876
G01 X31.0546 Y-22.3996
G01 X31.0511 Y-22.4308
G01 X31.0505 Y-22.4415
G01 X31.0505 Y-23.1115
G01 X31.0508 Y-23.1186
G01 X31.0519 Y-23.1281
G01 X31.0539 Y-23.1374
G01 X31.0743 Y-23.2067
G01 X31.0766 Y-23.2138
G01 X31.0817 Y-23.2251
G01 X31.0882 Y-23.2357
G01 X31.0959 Y-23.2454
G01 X31.1029 Y-23.2524
G01 X31.1614 Y-23.3030
G01 X31.1716 Y-23.3100
G01 X31.1826 Y-23.3157
G01 X31.1942 Y-23.3200
G01 X31.2063 Y-23.3229
G01 X31.2779 Y-23.3332
G01 X31.2853 Y-23.3340
G01 X31.2953 Y-23.3342
G01 X31.3076 Y-23.3330
G01 X31.3197 Y-23.3303
G01 X31.3291 Y-23.3271
G01 X31.4017 Y-23.2940
G01 X31.4123 Y-23.2876
G01 X31.4183 Y-23.2832
G01 X31.4239 Y-23.2784
G01 X31.4329 Y-23.2699
G01 X36.0882 Y-18.6144
G01 X36.0957 Y-18.6052
G01 X36.1008 Y-18.5972
G01 X36.1355 Y-18.5338
G01 X36.1397 Y-18.5249
G01 X36.1431 Y-18.5157
G01 X36.1461 Y-18.5038
G01 X36.1502 Y-18.4675
G01 X36.1505 Y-18.4595
G01 X36.1505 Y-17.7716
G00 Z2.0000
G00 X27.1483 Y-23.3784
G01 F25.00
G01 Z-0.1866
G01 F120.00
G01 X28.1600 Y-24.3901
G01 X28.1962 Y-24.4231
G01 X28.2038 Y-24.4293
G01 X28.2433 Y-24.4585
G01 X28.2854 Y-24.4838
G01 X28.2940 Y-24.4885
G01 X28.3385 Y-24.5093
G01 X28.3846 Y-24.5260
G01 X28.3940 Y-24.5288
G01 X28.4369 Y-24.5396
G01 X28.4465 Y-24.5415
G01 X28.4951 Y-24.5486
G01 X28.5490 Y-24.5512
G01 X31.5510 Y-24.5512
G01 X31.6050 Y-24.5486
G01 X31.6584 Y-24.5407
G01 X31.7107 Y-24.5275
G01 X31.7570 Y-24.5111
G01 X31.7638 Y-24.5084
G01 X31.8104 Y-24.4863
G01 X31.8567 Y-24.4585
G01 X31.9001 Y-24.4263
G01 X31.9401 Y-24.3901
G01 X37.1401 Y-19.1901
G01 X37.1764 Y-19.1501
G01 X37.2057 Y-19.1107
G01 X37.2111 Y-19.1025
G01 X37.2363 Y-19.0604
G01 X37.2574 Y-19.0160
G01 X37.2611 Y-19.0070
G01 X37.2776 Y-18.9607
G01 X37.2907 Y-18.9083
G01 X37.2980 Y-18.8598
G01 X37.2990 Y-18.8500
G01 X37.3012 Y-18.8010
G01 X37.3011 Y3.5239
G01 X37.2986 Y3.5729
G01 X37.2907 Y3.6263
G01 X37.2776 Y3.6787
G01 X37.2611 Y3.7250
G01 X37.2574 Y3.7340
G01 X37.2385 Y3.7740
G01 X37.2339 Y3.7826
G01 X37.2085 Y3.8247
G01 X37.1764 Y3.8681
G01 X37.1401 Y3.9081
G01 X36.2000 Y4.8481
G01 X36.2000 Y5.8700
G01 X36.1998 Y5.8774
G01 X36.1989 Y5.8847
G01 X36.1976 Y5.8919
G01 X36.1957 Y5.8990
G01 X36.1933 Y5.9060
G01 X36.1904 Y5.9128
G01 X36.1870 Y5.9193
G01 X36.1832 Y5.9256
G01 X36.1773 Y5.9334
G01 X36.1724 Y5.9390
G01 X36.1672 Y5.9441
G01 X36.1615 Y5.9488
G01 X36.1556 Y5.9531
G01 X36.1493 Y5.9570
G01 X36.1428 Y5.9604
G01 X36.1360 Y5.9633
G01 X36.1291 Y5.9657
G01 X36.1219 Y5.9676
G01 X36.1147 Y5.9689
G01 X36.1074 Y5.9697
G01 X36.1000 Y5.9700
G01 X34.3976 Y5.9700
G01 X34.3878 Y5.9692
G01 X34.3781 Y5.9676
G01 X34.3710 Y5.9657
G01 X34.3618 Y5.9624
G01 X34.3529 Y5.9582
G01 X34.3445 Y5.9531
G01 X34.3366 Y5.9473
G01 X34.3293 Y5.9407
G01 X34.3227 Y5.9334
G01 X34.3169 Y5.9256
G01 X34.3118 Y5.9171
G01 X34.3076 Y5.9083
G01 X34.3043 Y5.8990
G01 X34.3019 Y5.8895
G01 X34.3005 Y5.8798
G01 X34.3001 Y5.8725
G01 X34.3000 Y4.1700
G01 X34.3003 Y4.1626
G01 X34.3015 Y4.1529
G01 X34.3036 Y4.1433
G01 X34.3067 Y4.1340
G01 X34.3096 Y4.1272
G01 X34.3143 Y4.1186
G01 X34.3197 Y4.1104
G01 X34.3259 Y4.1028
G01 X34.3329 Y4.0959
G01 X34.3405 Y4.0897
G01 X34.3486 Y4.0842
G01 X34.3551 Y4.0807
G01 X34.3640 Y4.0767
G01 X34.3710 Y4.0743
G01 X34.3805 Y4.0719
G01 X34.3902 Y4.0705
G01 X34.4000 Y4.0700
G01 X35.4219 Y4.0700
G01 X36.2008 Y3.2911
G01 X36.2008 Y-18.5731
G01 X31.3231 Y-23.4508
G01 X28.7769 Y-23.4508
G01 X28.3203 Y-22.9941
G01 X28.3490 Y-22.9456
G01 X28.3867 Y-22.8658
G01 X28.3895 Y-22.8590
G01 X28.4198 Y-22.7734
G01 X28.4418 Y-22.6853
G01 X28.4548 Y-22.5980
G01 X28.4558 Y-22.5882
G01 X28.4600 Y-22.4975
G01 X28.4555 Y-22.4069
G01 X28.4426 Y-22.3195
G01 X28.4407 Y-22.3099
G01 X28.4191 Y-22.2242
G01 X28.3895 Y-22.1410
G01 X28.3857 Y-22.1320
G01 X28.3478 Y-22.0522
G01 X28.2999 Y-21.9722
G01 X28.2474 Y-21.9012
G01 X28.2412 Y-21.8936
G01 X28.1818 Y-21.8282
G01 X28.1164 Y-21.7688
G01 X28.1088 Y-21.7626
G01 X28.0378 Y-21.7101
G01 X27.9579 Y-21.6622
G01 X27.8736 Y-21.6223
G01 X27.7905 Y-21.5924
G01 X27.7811 Y-21.5896
G01 X27.6954 Y-21.5683
G01 X27.6080 Y-21.5552
G01 X27.5982 Y-21.5542
G01 X27.5125 Y-21.5500
G01 X27.5051 Y-21.5501
G01 X27.4169 Y-21.5546
G01 X27.3295 Y-21.5674
G01 X27.3199 Y-21.5693
G01 X27.2390 Y-21.5896
G01 X27.2296 Y-21.5924
G01 X27.1465 Y-21.6223
G01 X27.0622 Y-21.6622
G01 X26.9822 Y-21.7101
G01 X26.9074 Y-21.7656
G01 X26.8383 Y-21.8282
G01 X26.7757 Y-21.8973
G01 X26.7201 Y-21.9722
G01 X26.6746 Y-22.0479
G01 X26.6700 Y-22.0566
G01 X26.6343 Y-22.1320
G01 X26.6306 Y-22.1410
G01 X26.6009 Y-22.2242
G01 X26.5783 Y-22.3147
G01 X26.5646 Y-22.4069
G01 X26.5601 Y-22.4951
G01 X26.5601 Y-22.5049
G01 X26.5642 Y-22.5882
G01 X26.5652 Y-22.5980
G01 X26.5783 Y-22.6853
G01 X26.6009 Y-22.7758
G01 X26.6323 Y-22.8635
G01 X26.6722 Y-22.9478
G01 X26.7201 Y-23.0278
G01 X26.7757 Y-23.1027
G01 X26.8383 Y-23.1718
G01 X26.9036 Y-23.2312
G01 X26.9112 Y-23.2374
G01 X26.9782 Y-23.2871
G01 X26.9864 Y-23.2925
G01 X27.0622 Y-23.3378
G01 X27.1483 Y-23.3784
G00 Z2.0000
G00 X25.7332 Y-21.8482
G01 F25.00
G01 Z-0.1866
G01 F120.00
G01 X25.8257 Y-21.9756
G01 X25.8972 Y-22.1159
G01 X25.9459 Y-22.2657
G01 X25.9705 Y-22.4213
G01 X25.9705 Y-22.5787
G01 X25.9459 Y-22.7343
G01 X25.8972 Y-22.8841
G01 X25.8257 Y-23.0244
G01 X25.7332 Y-23.1518
G01 X25.6218 Y-23.2631
G01 X25.4944 Y-23.3557
G01 X25.3541 Y-23.4272
G01 X25.2043 Y-23.4759
G01 X25.0488 Y-23.5005
G01 X24.8913 Y-23.5005
G01 X24.7357 Y-23.4759
G01 X24.5860 Y-23.4272
G01 X24.4456 Y-23.3557
G01 X24.3182 Y-23.2631
G01 X24.2069 Y-23.1518
G01 X24.1143 Y-23.0244
G01 X24.0428 Y-22.8841
G01 X23.9942 Y-22.7343
G01 X23.9695 Y-22.5787
G01 X23.9695 Y-22.4213
G01 X23.9942 Y-22.2657
G01 X24.0428 Y-22.1159
G01 X24.1143 Y-21.9756
G01 X24.2069 Y-21.8482
G01 X24.3182 Y-21.7369
G01 X24.4456 Y-21.6443
G01 X24.5860 Y-21.5728
G01 X24.7357 Y-21.5241
G01 X24.8913 Y-21.4995
G01 X25.0488 Y-21.4995
G01 X25.2043 Y-21.5241
G01 X25.3541 Y-21.5728
G01 X25.4944 Y-21.6443
G01 X25.6218 Y-21.7369
G01 X25.7332 Y-21.8482
G00 Z2.0000
G00 X24.9651 Y-23.4499
G01 F25.00
G01 Z-0.1866
G01 F120.00
G01 X24.9749 Y-23.4499
G01 X25.0631 Y-23.4454
G01 X25.1554 Y-23.4317
G01 X25.2458 Y-23.4091
G01 X25.3336 Y-23.3777
G01 X25.4179 Y-23.3378
G01 X25.4978 Y-23.2899
G01 X25.5727 Y-23.2344
G01 X25.6418 Y-23.1718
G01 X25.7044 Y-23.1027
G01 X25.7599 Y-23.0278
G01 X25.8078 Y-22.9478
G01 X25.8477 Y-22.8635
G01 X25.8791 Y-22.7758
G01 X25.9018 Y-22.6853
G01 X25.9155 Y-22.5931
G01 X25.9200 Y-22.5000
G01 X25.9155 Y-22.4069
G01 X25.9018 Y-22.3147
G01 X25.8791 Y-22.2242
G01 X25.8477 Y-22.1365
G01 X25.8078 Y-22.0522
G01 X25.7599 Y-21.9722
G01 X25.7044 Y-21.8973
G01 X25.6418 Y-21.8282
G01 X25.5727 Y-21.7656
G01 X25.4978 Y-21.7101
G01 X25.4179 Y-21.6622
G01 X25.3336 Y-21.6223
G01 X25.2458 Y-21.5909
G01 X25.1554 Y-21.5683
G01 X25.0631 Y-21.5546
G01 X24.9700 Y-21.5500
G01 X24.8769 Y-21.5546
G01 X24.7847 Y-21.5683
G01 X24.6943 Y-21.5909
G01 X24.6065 Y-21.6223
G01 X24.5222 Y-21.6622
G01 X24.4422 Y-21.7101
G01 X24.3674 Y-21.7656
G01 X24.2983 Y-21.8282
G01 X24.2357 Y-21.8973
G01 X24.1801 Y-21.9722
G01 X24.1322 Y-22.0522
G01 X24.0923 Y-22.1365
G01 X24.0609 Y-22.2242
G01 X24.0383 Y-22.3147
G01 X24.0246 Y-22.4069
G01 X24.0200 Y-22.5000
G01 X24.0246 Y-22.5931
G01 X24.0383 Y-22.6853
G01 X24.0609 Y-22.7758
G01 X24.0923 Y-22.8635
G01 X24.1322 Y-22.9478
G01 X24.1801 Y-23.0278
G01 X24.2357 Y-23.1027
G01 X24.2983 Y-23.1718
G01 X24.3674 Y-23.2344
G01 X24.4422 Y-23.2899
G01 X24.5222 Y-23.3378
G01 X24.6065 Y-23.3777
G01 X24.6943 Y-23.4091
G01 X24.7847 Y-23.4317
G01 X24.8769 Y-23.4454
G01 X24.9651 Y-23.4499
G00 Z2.0000
G00 X23.1932 Y-21.8482
G01 F25.00
G01 Z-0.1866
G01 F120.00
G01 X23.2857 Y-21.9756
G01 X23.3572 Y-22.1159
G01 X23.4059 Y-22.2657
G01 X23.4305 Y-22.4213
G01 X23.4305 Y-22.5787
G01 X23.4059 Y-22.7343
G01 X23.3572 Y-22.8841
G01 X23.2857 Y-23.0244
G01 X23.1932 Y-23.1518
G01 X23.0818 Y-23.2631
G01 X22.9544 Y-23.3557
G01 X22.8141 Y-23.4272
G01 X22.6643 Y-23.4759
G01 X22.5088 Y-23.5005
G01 X22.3513 Y-23.5005
G01 X22.1957 Y-23.4759
G01 X22.0460 Y-23.4272
G01 X21.9056 Y-23.3557
G01 X21.7782 Y-23.2631
G01 X21.6669 Y-23.1518
G01 X21.5743 Y-23.0244
G01 X21.5028 Y-22.8841
G01 X21.4542 Y-22.7343
G01 X21.4295 Y-22.5787
G01 X21.4295 Y-22.4213
G01 X21.4542 Y-22.2657
G01 X21.5028 Y-22.1159
G01 X21.5743 Y-21.9756
G01 X21.6669 Y-21.8482
G01 X21.7782 Y-21.7369
G01 X21.9056 Y-21.6443
G01 X22.0460 Y-21.5728
G01 X22.1957 Y-21.5241
G01 X22.3513 Y-21.4995
G01 X22.5088 Y-21.4995
G01 X22.6643 Y-21.5241
G01 X22.8141 Y-21.5728
G01 X22.9544 Y-21.6443
G01 X23.0818 Y-21.7369
G01 X23.1932 Y-21.8482
G00 Z2.0000
G00 X22.4251 Y-23.4499
G01 F25.00
G01 Z-0.1866
G01 F120.00
G01 X22.4349 Y-23.4499
G01 X22.5231 Y-23.4454
G01 X22.6154 Y-23.4317
G01 X22.7058 Y-23.4091
G01 X22.7936 Y-23.3777
G01 X22.8779 Y-23.3378
G01 X22.9578 Y-23.2899
G01 X23.0327 Y-23.2344
G01 X23.1018 Y-23.1718
G01 X23.1644 Y-23.1027
G01 X23.2199 Y-23.0278
G01 X23.2678 Y-22.9478
G01 X23.3077 Y-22.8635
G01 X23.3391 Y-22.7758
G01 X23.3618 Y-22.6853
G01 X23.3755 Y-22.5931
G01 X23.3800 Y-22.5000
G01 X23.3755 Y-22.4069
G01 X23.3618 Y-22.3147
G01 X23.3391 Y-22.2242
G01 X23.3077 Y-22.1365
G01 X23.2678 Y-22.0522
G01 X23.2199 Y-21.9722
G01 X23.1644 Y-21.8973
G01 X23.1018 Y-21.8282
G01 X23.0327 Y-21.7656
G01 X22.9578 Y-21.7101
G01 X22.8779 Y-21.6622
G01 X22.7936 Y-21.6223
G01 X22.7058 Y-21.5909
G01 X22.6154 Y-21.5683
G01 X22.5231 Y-21.5546
G01 X22.4300 Y-21.5500
G01 X22.3369 Y-21.5546
G01 X22.2447 Y-21.5683
G01 X22.1543 Y-21.5909
G01 X22.0665 Y-21.6223
G01 X21.9822 Y-21.6622
G01 X21.9022 Y-21.7101
G01 X21.8274 Y-21.7656
G01 X21.7583 Y-21.8282
G01 X21.6957 Y-21.8973
G01 X21.6401 Y-21.9722
G01 X21.5922 Y-22.0522
G01 X21.5523 Y-22.1365
G01 X21.5209 Y-22.2242
G01 X21.4983 Y-22.3147
G01 X21.4846 Y-22.4069
G01 X21.4800 Y-22.5000
G01 X21.4846 Y-22.5931
G01 X21.4983 Y-22.6853
G01 X21.5209 Y-22.7758
G01 X21.5523 Y-22.8635
G01 X21.5922 Y-22.9478
G01 X21.6401 Y-23.0278
G01 X21.6957 Y-23.1027
G01 X21.7583 Y-23.1718
G01 X21.8274 Y-23.2344
G01 X21.9022 Y-23.2899
G01 X21.9822 Y-23.3378
G01 X22.0665 Y-23.3777
G01 X22.1543 Y-23.4091
G01 X22.2447 Y-23.4317
G01 X22.3369 Y-23.4454
G01 X22.4251 Y-23.4499
G00 Z2.0000
G00 X20.6532 Y-21.8482
G01 F25.00
G01 Z-0.1866
G01 F120.00
G01 X20.7457 Y-21.9756
G01 X20.8172 Y-22.1159
G01 X20.8659 Y-22.2657
G01 X20.8905 Y-22.4213
G01 X20.8905 Y-22.5787
G01 X20.8659 Y-22.7343
G01 X20.8172 Y-22.8841
G01 X20.7457 Y-23.0244
G01 X20.6532 Y-23.1518
G01 X20.5418 Y-23.2631
G01 X20.4144 Y-23.3557
G01 X20.2741 Y-23.4272
G01 X20.1243 Y-23.4759
G01 X19.9688 Y-23.5005
G01 X19.8113 Y-23.5005
G01 X19.6557 Y-23.4759
G01 X19.5060 Y-23.4272
G01 X19.3656 Y-23.3557
G01 X19.2382 Y-23.2631
G01 X19.1269 Y-23.1518
G01 X19.0343 Y-23.0244
G01 X18.9628 Y-22.8841
G01 X18.9142 Y-22.7343
G01 X18.8895 Y-22.5787
G01 X18.8895 Y-22.4213
G01 X18.9142 Y-22.2657
G01 X18.9628 Y-22.1159
G01 X19.0343 Y-21.9756
G01 X19.1269 Y-21.8482
G01 X19.2382 Y-21.7369
G01 X19.3656 Y-21.6443
G01 X19.5060 Y-21.5728
G01 X19.6557 Y-21.5241
G01 X19.8113 Y-21.4995
G01 X19.9688 Y-21.4995
G01 X20.1243 Y-21.5241
G01 X20.2741 Y-21.5728
G01 X20.4144 Y-21.6443
G01 X20.5418 Y-21.7369
G01 X20.6532 Y-21.8482
G00 Z2.0000
G00 X19.8851 Y-23.4499
G01 F25.00
G01 Z-0.1866
G01 F120.00
G01 X19.8949 Y-23.4499
G01 X19.9831 Y-23.4454
G01 X20.0754 Y-23.4317
G01 X20.1658 Y-23.4091
G01 X20.2536 Y-23.3777
G01 X20.3379 Y-23.3378
G01 X20.4178 Y-23.2899
G01 X20.4927 Y-23.2344
G01 X20.5618 Y-23.1718
G01 X20.6244 Y-23.1027
G01 X20.6799 Y-23.0278
G01 X20.7278 Y-22.9478
G01 X20.7677 Y-22.8635
G01 X20.7991 Y-22.7758
G01 X20.8218 Y-22.6853
G01 X20.8355 Y-22.5931
G01 X20.8400 Y-22.5000
G01 X20.8355 Y-22.4069
G01 X20.8218 Y-22.3147
G01 X20.7991 Y-22.2242
G01 X20.7677 Y-22.1365
G01 X20.7278 Y-22.0522
G01 X20.6799 Y-21.9722
G01 X20.6244 Y-21.8973
G01 X20.5618 Y-21.8282
G01 X20.4927 Y-21.7656
G01 X20.4178 Y-21.7101
G01 X20.3379 Y-21.6622
G01 X20.2536 Y-21.6223
G01 X20.1658 Y-21.5909
G01 X20.0754 Y-21.5683
G01 X19.9831 Y-21.5546
G01 X19.8900 Y-21.5500
G01 X19.7969 Y-21.5546
G01 X19.7047 Y-21.5683
G01 X19.6143 Y-21.5909
G01 X19.5265 Y-21.6223
G01 X19.4422 Y-21.6622
G01 X19.3622 Y-21.7101
G01 X19.2874 Y-21.7656
G01 X19.2183 Y-21.8282
G01 X19.1557 Y-21.8973
G01 X19.1001 Y-21.9722
G01 X19.0522 Y-22.0522
G01 X19.0123 Y-22.1365
G01 X18.9809 Y-22.2242
G01 X18.9583 Y-22.3147
G01 X18.9446 Y-22.4069
G01 X18.9400 Y-22.5000
G01 X18.9446 Y-22.5931
G01 X18.9583 Y-22.6853
G01 X18.9809 Y-22.7758
G01 X19.0123 Y-22.8635
G01 X19.0522 Y-22.9478
G01 X19.1001 Y-23.0278
G01 X19.1557 Y-23.1027
G01 X19.2183 Y-23.1718
G01 X19.2874 Y-23.2344
G01 X19.3622 Y-23.2899
G01 X19.4422 Y-23.3378
G01 X19.5265 Y-23.3777
G01 X19.6143 Y-23.4091
G01 X19.7047 Y-23.4317
G01 X19.7969 Y-23.4454
G01 X19.8851 Y-23.4499
G00 Z2.0000
G00 X18.1132 Y-21.8482
G01 F25.00
G01 Z-0.1866
G01 F120.00
G01 X18.2057 Y-21.9756
G01 X18.2772 Y-22.1159
G01 X18.3259 Y-22.2657
G01 X18.3505 Y-22.4213
G01 X18.3505 Y-22.5787
G01 X18.3259 Y-22.7343
G01 X18.2772 Y-22.8841
G01 X18.2057 Y-23.0244
G01 X18.1132 Y-23.1518
G01 X18.0018 Y-23.2631
G01 X17.8744 Y-23.3557
G01 X17.7341 Y-23.4272
G01 X17.5843 Y-23.4759
G01 X17.4288 Y-23.5005
G01 X17.2713 Y-23.5005
G01 X17.1157 Y-23.4759
G01 X16.9660 Y-23.4272
G01 X16.8256 Y-23.3557
G01 X16.6982 Y-23.2631
G01 X16.5869 Y-23.1518
G01 X16.4943 Y-23.0244
G01 X16.4228 Y-22.8841
G01 X16.3742 Y-22.7343
G01 X16.3495 Y-22.5787
G01 X16.3495 Y-22.4213
G01 X16.3742 Y-22.2657
G01 X16.4228 Y-22.1159
G01 X16.4943 Y-21.9756
G01 X16.5869 Y-21.8482
G01 X16.6982 Y-21.7369
G01 X16.8256 Y-21.6443
G01 X16.9660 Y-21.5728
G01 X17.1157 Y-21.5241
G01 X17.2713 Y-21.4995
G01 X17.4288 Y-21.4995
G01 X17.5843 Y-21.5241
G01 X17.7341 Y-21.5728
G01 X17.8744 Y-21.6443
G01 X18.0018 Y-21.7369
G01 X18.1132 Y-21.8482
G00 Z2.0000
G00 X17.3451 Y-23.4499
G01 F25.00
G01 Z-0.1866
G01 F120.00
G01 X17.3549 Y-23.4499
G01 X17.4431 Y-23.4454
G01 X17.5354 Y-23.4317
G01 X17.6258 Y-23.4091
G01 X17.7136 Y-23.3777
G01 X17.7979 Y-23.3378
G01 X17.8778 Y-23.2899
G01 X17.9527 Y-23.2344
G01 X18.0218 Y-23.1718
G01 X18.0844 Y-23.1027
G01 X18.1399 Y-23.0278
G01 X18.1878 Y-22.9478
G01 X18.2277 Y-22.8635
G01 X18.2591 Y-22.7758
G01 X18.2818 Y-22.6853
G01 X18.2955 Y-22.5931
G01 X18.3000 Y-22.5000
G01 X18.2955 Y-22.4069
G01 X18.2818 Y-22.3147
G01 X18.2591 Y-22.2242
G01 X18.2277 Y-22.1365
G01 X18.1878 Y-22.0522
G01 X18.1399 Y-21.9722
G01 X18.0844 Y-21.8973
G01 X18.0218 Y-21.8282
G01 X17.9527 Y-21.7656
G01 X17.8778 Y-21.7101
G01 X17.7979 Y-21.6622
G01 X17.7136 Y-21.6223
G01 X17.6258 Y-21.5909
G01 X17.5354 Y-21.5683
G01 X17.4431 Y-21.5546
G01 X17.3500 Y-21.5500
G01 X17.2569 Y-21.5546
G01 X17.1647 Y-21.5683
G01 X17.0743 Y-21.5909
G01 X16.9865 Y-21.6223
G01 X16.9022 Y-21.6622
G01 X16.8222 Y-21.7101
G01 X16.7474 Y-21.7656
G01 X16.6783 Y-21.8282
G01 X16.6157 Y-21.8973
G01 X16.5601 Y-21.9722
G01 X16.5122 Y-22.0522
G01 X16.4723 Y-22.1365
G01 X16.4409 Y-22.2242
G01 X16.4183 Y-22.3147
G01 X16.4046 Y-22.4069
G01 X16.4000 Y-22.5000
G01 X16.4046 Y-22.5931
G01 X16.4183 Y-22.6853
G01 X16.4409 Y-22.7758
G01 X16.4723 Y-22.8635
G01 X16.5122 Y-22.9478
G01 X16.5601 Y-23.0278
G01 X16.6157 Y-23.1027
G01 X16.6783 Y-23.1718
G01 X16.7474 Y-23.2344
G01 X16.8222 Y-23.2899
G01 X16.9022 Y-23.3378
G01 X16.9865 Y-23.3777
G01 X17.0743 Y-23.4091
G01 X17.1647 Y-23.4317
G01 X17.2569 Y-23.4454
G01 X17.3451 Y-23.4499
G00 Z2.0000
G00 X15.5732 Y-21.8482
G01 F25.00
G01 Z-0.1866
G01 F120.00
G01 X15.6657 Y-21.9756
G01 X15.7372 Y-22.1159
G01 X15.7859 Y-22.2657
G01 X15.8105 Y-22.4213
G01 X15.8105 Y-22.5787
G01 X15.7859 Y-22.7343
G01 X15.7372 Y-22.8841
G01 X15.6657 Y-23.0244
G01 X15.5732 Y-23.1518
G01 X15.4618 Y-23.2631
G01 X15.3344 Y-23.3557
G01 X15.1941 Y-23.4272
G01 X15.0443 Y-23.4759
G01 X14.8888 Y-23.5005
G01 X14.7313 Y-23.5005
G01 X14.5757 Y-23.4759
G01 X14.4260 Y-23.4272
G01 X14.2856 Y-23.3557
G01 X14.1582 Y-23.2631
G01 X14.0469 Y-23.1518
G01 X13.9543 Y-23.0244
G01 X13.8828 Y-22.8841
G01 X13.8342 Y-22.7343
G01 X13.8095 Y-22.5787
G01 X13.8095 Y-22.4213
G01 X13.8342 Y-22.2657
G01 X13.8828 Y-22.1159
G01 X13.9543 Y-21.9756
G01 X14.0469 Y-21.8482
G01 X14.1582 Y-21.7369
G01 X14.2856 Y-21.6443
G01 X14.4260 Y-21.5728
G01 X14.5757 Y-21.5241
G01 X14.7313 Y-21.4995
G01 X14.8888 Y-21.4995
G01 X15.0443 Y-21.5241
G01 X15.1941 Y-21.5728
G01 X15.3344 Y-21.6443
G01 X15.4618 Y-21.7369
G01 X15.5732 Y-21.8482
G00 Z2.0000
G00 X14.8051 Y-23.4499
G01 F25.00
G01 Z-0.1866
G01 F120.00
G01 X14.8149 Y-23.4499
G01 X14.9031 Y-23.4454
G01 X14.9954 Y-23.4317
G01 X15.0858 Y-23.4091
G01 X15.1736 Y-23.3777
G01 X15.2579 Y-23.3378
G01 X15.3378 Y-23.2899
G01 X15.4127 Y-23.2344
G01 X15.4818 Y-23.1718
G01 X15.5444 Y-23.1027
G01 X15.5999 Y-23.0278
G01 X15.6478 Y-22.9478
G01 X15.6877 Y-22.8635
G01 X15.7191 Y-22.7758
G01 X15.7418 Y-22.6853
G01 X15.7555 Y-22.5931
G01 X15.7600 Y-22.5000
G01 X15.7555 Y-22.4069
G01 X15.7418 Y-22.3147
G01 X15.7191 Y-22.2242
G01 X15.6877 Y-22.1365
G01 X15.6478 Y-22.0522
G01 X15.5999 Y-21.9722
G01 X15.5444 Y-21.8973
G01 X15.4818 Y-21.8282
G01 X15.4127 Y-21.7656
G01 X15.3378 Y-21.7101
G01 X15.2579 Y-21.6622
G01 X15.1736 Y-21.6223
G01 X15.0858 Y-21.5909
G01 X14.9954 Y-21.5683
G01 X14.9031 Y-21.5546
G01 X14.8100 Y-21.5500
G01 X14.7169 Y-21.5546
G01 X14.6247 Y-21.5683
G01 X14.5343 Y-21.5909
G01 X14.4465 Y-21.6223
G01 X14.3622 Y-21.6622
G01 X14.2822 Y-21.7101
G01 X14.2074 Y-21.7656
G01 X14.1383 Y-21.8282
G01 X14.0757 Y-21.8973
G01 X14.0201 Y-21.9722
G01 X13.9722 Y-22.0522
G01 X13.9323 Y-22.1365
G01 X13.9009 Y-22.2242
G01 X13.8783 Y-22.3147
G01 X13.8646 Y-22.4069
G01 X13.8600 Y-22.5000
G01 X13.8646 Y-22.5931
G01 X13.8783 Y-22.6853
G01 X13.9009 Y-22.7758
G01 X13.9323 Y-22.8635
G01 X13.9722 Y-22.9478
G01 X14.0201 Y-23.0278
G01 X14.0757 Y-23.1027
G01 X14.1383 Y-23.1718
G01 X14.2074 Y-23.2344
G01 X14.2822 Y-23.2899
G01 X14.3622 Y-23.3378
G01 X14.4465 Y-23.3777
G01 X14.5343 Y-23.4091
G01 X14.6247 Y-23.4317
G01 X14.7169 Y-23.4454
G01 X14.8051 Y-23.4499
G00 Z2.0000
G00 X13.0332 Y-21.8482
G01 F25.00
G01 Z-0.1866
G01 F120.00
G01 X13.1257 Y-21.9756
G01 X13.1972 Y-22.1159
G01 X13.2459 Y-22.2657
G01 X13.2705 Y-22.4213
G01 X13.2705 Y-22.5787
G01 X13.2459 Y-22.7343
G01 X13.1972 Y-22.8841
G01 X13.1257 Y-23.0244
G01 X13.0332 Y-23.1518
G01 X12.9218 Y-23.2631
G01 X12.7944 Y-23.3557
G01 X12.6541 Y-23.4272
G01 X12.5043 Y-23.4759
G01 X12.3488 Y-23.5005
G01 X12.1913 Y-23.5005
G01 X12.0357 Y-23.4759
G01 X11.8860 Y-23.4272
G01 X11.7456 Y-23.3557
G01 X11.6182 Y-23.2631
G01 X11.5069 Y-23.1518
G01 X11.4143 Y-23.0244
G01 X11.3428 Y-22.8841
G01 X11.2942 Y-22.7343
G01 X11.2695 Y-22.5787
G01 X11.2695 Y-22.4213
G01 X11.2942 Y-22.2657
G01 X11.3428 Y-22.1159
G01 X11.4143 Y-21.9756
G01 X11.5069 Y-21.8482
G01 X11.6182 Y-21.7369
G01 X11.7456 Y-21.6443
G01 X11.8860 Y-21.5728
G01 X12.0357 Y-21.5241
G01 X12.1913 Y-21.4995
G01 X12.3488 Y-21.4995
G01 X12.5043 Y-21.5241
G01 X12.6541 Y-21.5728
G01 X12.7944 Y-21.6443
G01 X12.9218 Y-21.7369
G01 X13.0332 Y-21.8482
G00 Z2.0000
G00 X12.2651 Y-23.4499
G01 F25.00
G01 Z-0.1866
G01 F120.00
G01 X12.2749 Y-23.4499
G01 X12.3631 Y-23.4454
G01 X12.4554 Y-23.4317
G01 X12.5458 Y-23.4091
G01 X12.6336 Y-23.3777
G01 X12.7179 Y-23.3378
G01 X12.7978 Y-23.2899
G01 X12.8727 Y-23.2344
G01 X12.9418 Y-23.1718
G01 X13.0044 Y-23.1027
G01 X13.0599 Y-23.0278
G01 X13.1078 Y-22.9478
G01 X13.1477 Y-22.8635
G01 X13.1791 Y-22.7758
G01 X13.2018 Y-22.6853
G01 X13.2155 Y-22.5931
G01 X13.2200 Y-22.5000
G01 X13.2155 Y-22.4069
G01 X13.2018 Y-22.3147
G01 X13.1791 Y-22.2242
G01 X13.1477 Y-22.1365
G01 X13.1078 Y-22.0522
G01 X13.0599 Y-21.9722
G01 X13.0044 Y-21.8973
G01 X12.9418 Y-21.8282
G01 X12.8727 Y-21.7656
G01 X12.7978 Y-21.7101
G01 X12.7179 Y-21.6622
G01 X12.6336 Y-21.6223
G01 X12.5458 Y-21.5909
G01 X12.4554 Y-21.5683
G01 X12.3631 Y-21.5546
G01 X12.2700 Y-21.5500
G01 X12.1769 Y-21.5546
G01 X12.0847 Y-21.5683
G01 X11.9943 Y-21.5909
G01 X11.9065 Y-21.6223
G01 X11.8222 Y-21.6622
G01 X11.7422 Y-21.7101
G01 X11.6674 Y-21.7656
G01 X11.5983 Y-21.8282
G01 X11.5357 Y-21.8973
G01 X11.4801 Y-21.9722
G01 X11.4322 Y-22.0522
G01 X11.3923 Y-22.1365
G01 X11.3609 Y-22.2242
G01 X11.3383 Y-22.3147
G01 X11.3246 Y-22.4069
G01 X11.3200 Y-22.5000
G01 X11.3246 Y-22.5931
G01 X11.3383 Y-22.6853
G01 X11.3609 Y-22.7758
G01 X11.3923 Y-22.8635
G01 X11.4322 Y-22.9478
G01 X11.4801 Y-23.0278
G01 X11.5357 Y-23.1027
G01 X11.5983 Y-23.1718
G01 X11.6674 Y-23.2344
G01 X11.7422 Y-23.2899
G01 X11.8222 Y-23.3378
G01 X11.9065 Y-23.3777
G01 X11.9943 Y-23.4091
G01 X12.0847 Y-23.4317
G01 X12.1769 Y-23.4454
G01 X12.2651 Y-23.4499
G00 Z2.0000
G00 X-5.8995 Y-17.7716
G01 F25.00
G01 Z-0.1866
G01 F120.00
G01 X-5.9002 Y-17.7597
G01 X-5.9023 Y-17.7480
G01 X-5.9232 Y-17.6764
G01 X-5.9256 Y-17.6693
G01 X-5.9285 Y-17.6625
G01 X-5.9319 Y-17.6558
G01 X-5.9357 Y-17.6495
G01 X-5.9416 Y-17.6415
G01 X-5.9500 Y-17.6323
G01 X-6.0065 Y-17.5832
G01 X-6.0123 Y-17.5786
G01 X-6.0184 Y-17.5744
G01 X-6.0249 Y-17.5706
G01 X-6.0316 Y-17.5673
G01 X-6.0409 Y-17.5638
G01 X-6.0529 Y-17.5607
G01 X-6.1269 Y-17.5499
G01 X-6.1343 Y-17.5491
G01 X-6.1418 Y-17.5489
G01 X-6.1492 Y-17.5492
G01 X-6.1566 Y-17.5501
G01 X-6.1663 Y-17.5521
G01 X-6.1781 Y-17.5560
G01 X-6.2462 Y-17.5869
G01 X-6.2529 Y-17.5903
G01 X-6.2592 Y-17.5941
G01 X-6.2653 Y-17.5983
G01 X-6.2710 Y-17.6030
G01 X-6.2797 Y-17.6117
G01 X-6.3050 Y-17.6407
G01 X-6.3097 Y-17.6472
G01 X-6.3336 Y-17.6828
G01 X-10.9372 Y-22.2866
G01 X-10.9446 Y-22.2958
G01 X-10.9498 Y-22.3038
G01 X-10.9844 Y-22.3672
G01 X-10.9896 Y-22.3783
G01 X-10.9928 Y-22.3876
G01 X-10.9954 Y-22.3996
G01 X-10.9989 Y-22.4308
G01 X-10.9995 Y-22.4415
G01 X-10.9995 Y-23.1115
G01 X-10.9992 Y-23.1186
G01 X-10.9981 Y-23.1281
G01 X-10.9961 Y-23.1374
G01 X-10.9758 Y-23.2067
G01 X-10.9734 Y-23.2138
G01 X-10.9683 Y-23.2251
G01 X-10.9619 Y-23.2357
G01 X-10.9542 Y-23.2454
G01 X-10.9472 Y-23.2524
G01 X-10.8887 Y-23.3030
G01 X-10.8784 Y-23.3100
G01 X-10.8674 Y-23.3157
G01 X-10.8558 Y-23.3200
G01 X-10.8437 Y-23.3229
G01 X-10.7721 Y-23.3332
G01 X-10.7647 Y-23.3340
G01 X-10.7547 Y-23.3342
G01 X-10.7424 Y-23.3330
G01 X-10.7303 Y-23.3303
G01 X-10.7209 Y-23.3271
G01 X-10.6483 Y-23.2940
G01 X-10.6419 Y-23.2903
G01 X-10.6357 Y-23.2862
G01 X-10.6262 Y-23.2784
G01 X-10.6171 Y-23.2699
G01 X-5.9618 Y-18.6144
G01 X-5.9558 Y-18.6071
G01 X-5.9492 Y-18.5972
G01 X-5.9146 Y-18.5338
G01 X-5.9103 Y-18.5249
G01 X-5.9062 Y-18.5134
G01 X-5.9040 Y-18.5038
G01 X-5.8998 Y-18.4675
G01 X-5.8995 Y-18.4595
G01 X-5.8995 Y-17.7716
G00 Z2.0000
G00 X-6.0492 Y-7.7300
G01 F25.00
G01 Z-0.1866
G01 F120.00
G01 X-6.0498 Y-7.7300
G01 X-6.0498 Y-17.3000
G01 X-6.0500 Y-17.3123
G01 X-6.0523 Y-17.3586
G01 X-6.0492 Y-17.3590
G01 X-6.0492 Y-7.7300
G01 X-5.9500 Y-7.5300
G01 X-6.2498 Y-7.5300
G01 X-6.2498 Y-17.3000
G01 X-6.2524 Y-17.3539
G01 X-6.2603 Y-17.4073
G01 X-6.2735 Y-17.4597
G01 X-6.2917 Y-17.5106
G01 X-6.3147 Y-17.5594
G01 X-6.3425 Y-17.6057
G01 X-6.3747 Y-17.6491
G01 X-6.4109 Y-17.6891
G01 X-11.0500 Y-22.3281
G01 X-11.0500 Y-23.3525
G01 X-11.0508 Y-23.3622
G01 X-11.0530 Y-23.3743
G01 X-11.0558 Y-23.3837
G01 X-11.0596 Y-23.3928
G01 X-11.0642 Y-23.4014
G01 X-11.0697 Y-23.4096
G01 X-11.0759 Y-23.4172
G01 X-11.0828 Y-23.4241
G01 X-11.0904 Y-23.4303
G01 X-11.0986 Y-23.4358
G01 X-11.1050 Y-23.4393
G01 X-11.1140 Y-23.4433
G01 X-11.1233 Y-23.4464
G01 X-11.1329 Y-23.4485
G01 X-11.1402 Y-23.4495
G01 X-11.1500 Y-23.4500
G01 X-12.8500 Y-23.4500
G01 X-12.8598 Y-23.4495
G01 X-12.8695 Y-23.4481
G01 X-12.8814 Y-23.4450
G01 X-12.8905 Y-23.4414
G01 X-12.9014 Y-23.4358
G01 X-12.9076 Y-23.4318
G01 X-12.9134 Y-23.4273
G01 X-12.9190 Y-23.4224
G01 X-12.9241 Y-23.4172
G01 X-12.9288 Y-23.4115
G01 X-12.9331 Y-23.4056
G01 X-12.9370 Y-23.3993
G01 X-12.9404 Y-23.3928
G01 X-12.9450 Y-23.3814
G01 X-12.9470 Y-23.3743
G01 X-12.9485 Y-23.3671
G01 X-12.9495 Y-23.3598
G01 X-12.9500 Y-23.3525
G01 X-12.9500 Y-21.6475
G01 X-12.9492 Y-21.6378
G01 X-12.9481 Y-21.6305
G01 X-12.9457 Y-21.6210
G01 X-12.9433 Y-21.6140
G01 X-12.9393 Y-21.6050
G01 X-12.9358 Y-21.5986
G01 X-12.9318 Y-21.5924
G01 X-12.9257 Y-21.5847
G01 X-12.9172 Y-21.5759
G01 X-12.9096 Y-21.5697
G01 X-12.9014 Y-21.5642
G01 X-12.8928 Y-21.5596
G01 X-12.8814 Y-21.5550
G01 X-12.8719 Y-21.5524
G01 X-12.8622 Y-21.5508
G01 X-12.8525 Y-21.5500
G01 X-11.8281 Y-21.5500
G01 X-7.3502 Y-17.0721
G01 X-7.3502 Y-7.5300
G01 X-7.6500 Y-7.5300
G01 X-7.6598 Y-7.5295
G01 X-7.6695 Y-7.5281
G01 X-7.6767 Y-7.5264
G01 X-7.6837 Y-7.5242
G01 X-7.6905 Y-7.5214
G01 X-7.6971 Y-7.5182
G01 X-7.7035 Y-7.5145
G01 X-7.7096 Y-7.5103
G01 X-7.7153 Y-7.5057
G01 X-7.7207 Y-7.5007
G01 X-7.7257 Y-7.4953
G01 X-7.7303 Y-7.4896
G01 X-7.7345 Y-7.4835
G01 X-7.7382 Y-7.4771
G01 X-7.7414 Y-7.4705
G01 X-7.7442 Y-7.4637
G01 X-7.7464 Y-7.4567
G01 X-7.7481 Y-7.4495
G01 X-7.7495 Y-7.4398
G01 X-7.7500 Y-7.4300
G01 X-7.7500 Y-5.7275
G01 X-7.7492 Y-5.7178
G01 X-7.7476 Y-5.7081
G01 X-7.7450 Y-5.6986
G01 X-7.7414 Y-5.6895
G01 X-7.7370 Y-5.6807
G01 X-7.7318 Y-5.6724
G01 X-7.7257 Y-5.6647
G01 X-7.7190 Y-5.6576
G01 X-7.7115 Y-5.6512
G01 X-7.7035 Y-5.6455
G01 X-7.6971 Y-5.6418
G01 X-7.6883 Y-5.6376
G01 X-7.6814 Y-5.6350
G01 X-7.6719 Y-5.6324
G01 X-7.6622 Y-5.6308
G01 X-7.6525 Y-5.6300
G01 X-5.9500 Y-5.6300
G01 X-5.9402 Y-5.6305
G01 X-5.9305 Y-5.6319
G01 X-5.9210 Y-5.6343
G01 X-5.9117 Y-5.6376
G01 X-5.9029 Y-5.6418
G01 X-5.8944 Y-5.6469
G01 X-5.8847 Y-5.6543
G01 X-5.8776 Y-5.6610
G01 X-5.8727 Y-5.6666
G01 X-5.8669 Y-5.6744
G01 X-5.8618 Y-5.6829
G01 X-5.8576 Y-5.6917
G01 X-5.8543 Y-5.7010
G01 X-5.8519 Y-5.7105
G01 X-5.8505 Y-5.7202
G01 X-5.8500 Y-5.7275
G01 X-5.8501 Y-7.4349
G01 X-5.8511 Y-7.4447
G01 X-5.8530 Y-7.4543
G01 X-5.8558 Y-7.4637
G01 X-5.8596 Y-7.4728
G01 X-5.8642 Y-7.4814
G01 X-5.8697 Y-7.4896
G01 X-5.8759 Y-7.4972
G01 X-5.8810 Y-7.5024
G01 X-5.8885 Y-7.5088
G01 X-5.8965 Y-7.5145
G01 X-5.9050 Y-7.5193
G01 X-5.9140 Y-7.5233
G01 X-5.9233 Y-7.5264
G01 X-5.9329 Y-7.5285
G01 X-5.9426 Y-7.5297
G01 X-5.9500 Y-7.5300
G00 Z2.0000
G00 X-16.3169 Y-6.6482
G01 F25.00
G01 Z-0.1866
G01 F120.00
G01 X-16.2243 Y-6.7756
G01 X-16.1528 Y-6.9159
G01 X-16.1041 Y-7.0657
G01 X-16.0795 Y-7.2213
G01 X-16.0795 Y-7.3787
G01 X-16.1041 Y-7.5343
G01 X-16.1528 Y-7.6841
G01 X-16.2243 Y-7.8244
G01 X-16.3169 Y-7.9518
G01 X-16.4282 Y-8.0631
G01 X-16.5556 Y-8.1557
G01 X-16.6959 Y-8.2272
G01 X-16.8457 Y-8.2759
G01 X-17.0013 Y-8.3005
G01 X-17.1587 Y-8.3005
G01 X-17.3143 Y-8.2759
G01 X-17.4641 Y-8.2272
G01 X-17.6044 Y-8.1557
G01 X-17.7318 Y-8.0631
G01 X-17.8431 Y-7.9518
G01 X-17.9357 Y-7.8244
G01 X-18.0072 Y-7.6841
G01 X-18.0559 Y-7.5343
G01 X-18.0805 Y-7.3787
G01 X-18.0805 Y-7.2213
G01 X-18.0559 Y-7.0657
G01 X-18.0072 Y-6.9159
G01 X-17.9357 Y-6.7756
G01 X-17.8431 Y-6.6482
G01 X-17.7318 Y-6.5369
G01 X-17.6044 Y-6.4443
G01 X-17.4641 Y-6.3728
G01 X-17.3143 Y-6.3241
G01 X-17.1587 Y-6.2995
G01 X-17.0013 Y-6.2995
G01 X-16.8457 Y-6.3241
G01 X-16.6959 Y-6.3728
G01 X-16.5556 Y-6.4443
G01 X-16.4282 Y-6.5369
G01 X-16.3169 Y-6.6482
G00 Z2.0000
G00 X-17.0849 Y-8.2499
G01 F25.00
G01 Z-0.1866
G01 F120.00
G01 X-17.0751 Y-8.2499
G01 X-16.9869 Y-8.2454
G01 X-16.8947 Y-8.2317
G01 X-16.8042 Y-8.2091
G01 X-16.7165 Y-8.1777
G01 X-16.6322 Y-8.1378
G01 X-16.5522 Y-8.0899
G01 X-16.4773 Y-8.0344
G01 X-16.4082 Y-7.9718
G01 X-16.3456 Y-7.9027
G01 X-16.2901 Y-7.8278
G01 X-16.2422 Y-7.7478
G01 X-16.2023 Y-7.6635
G01 X-16.1709 Y-7.5758
G01 X-16.1483 Y-7.4853
G01 X-16.1346 Y-7.3931
G01 X-16.1300 Y-7.3000
G01 X-16.1346 Y-7.2069
G01 X-16.1483 Y-7.1147
G01 X-16.1709 Y-7.0242
G01 X-16.2023 Y-6.9365
G01 X-16.2422 Y-6.8522
G01 X-16.2901 Y-6.7722
G01 X-16.3456 Y-6.6973
G01 X-16.4082 Y-6.6282
G01 X-16.4773 Y-6.5656
G01 X-16.5522 Y-6.5101
G01 X-16.6322 Y-6.4622
G01 X-16.7165 Y-6.4223
G01 X-16.8042 Y-6.3909
G01 X-16.8947 Y-6.3683
G01 X-16.9869 Y-6.3546
G01 X-17.0800 Y-6.3500
G01 X-17.1731 Y-6.3546
G01 X-17.2653 Y-6.3683
G01 X-17.3558 Y-6.3909
G01 X-17.4435 Y-6.4223
G01 X-17.5278 Y-6.4622
G01 X-17.6078 Y-6.5101
G01 X-17.6827 Y-6.5656
G01 X-17.7518 Y-6.6282
G01 X-17.8144 Y-6.6973
G01 X-17.8699 Y-6.7722
G01 X-17.9178 Y-6.8522
G01 X-17.9577 Y-6.9365
G01 X-17.9891 Y-7.0242
G01 X-18.0117 Y-7.1147
G01 X-18.0254 Y-7.2069
G01 X-18.0300 Y-7.3000
G01 X-18.0254 Y-7.3931
G01 X-18.0117 Y-7.4853
G01 X-17.9891 Y-7.5758
G01 X-17.9577 Y-7.6635
G01 X-17.9178 Y-7.7478
G01 X-17.8699 Y-7.8278
G01 X-17.8144 Y-7.9027
G01 X-17.7518 Y-7.9718
G01 X-17.6827 Y-8.0344
G01 X-17.6078 Y-8.0899
G01 X-17.5278 Y-8.1378
G01 X-17.4435 Y-8.1777
G01 X-17.3558 Y-8.2091
G01 X-17.2653 Y-8.2317
G01 X-17.1731 Y-8.2454
G01 X-17.0849 Y-8.2499
G00 Z2.0000
G00 X-18.8569 Y-6.6482
G01 F25.00
G01 Z-0.1866
G01 F120.00
G01 X-18.7643 Y-6.7756
G01 X-18.6928 Y-6.9159
G01 X-18.6441 Y-7.0657
G01 X-18.6195 Y-7.2213
G01 X-18.6195 Y-7.3787
G01 X-18.6441 Y-7.5343
G01 X-18.6928 Y-7.6841
G01 X-18.7643 Y-7.8244
G01 X-18.8569 Y-7.9518
G01 X-18.9682 Y-8.0631
G01 X-19.0956 Y-8.1557
G01 X-19.2359 Y-8.2272
G01 X-19.3857 Y-8.2759
G01 X-19.5413 Y-8.3005
G01 X-19.6987 Y-8.3005
G01 X-19.8543 Y-8.2759
G01 X-20.0041 Y-8.2272
G01 X-20.1444 Y-8.1557
G01 X-20.2718 Y-8.0631
G01 X-20.3831 Y-7.9518
G01 X-20.4757 Y-7.8244
G01 X-20.5472 Y-7.6841
G01 X-20.5959 Y-7.5343
G01 X-20.6205 Y-7.3787
G01 X-20.6205 Y-7.2213
G01 X-20.5959 Y-7.0657
G01 X-20.5472 Y-6.9159
G01 X-20.4757 Y-6.7756
G01 X-20.3831 Y-6.6482
G01 X-20.2718 Y-6.5369
G01 X-20.1444 Y-6.4443
G01 X-20.0041 Y-6.3728
G01 X-19.8543 Y-6.3241
G01 X-19.6987 Y-6.2995
G01 X-19.5413 Y-6.2995
G01 X-19.3857 Y-6.3241
G01 X-19.2359 Y-6.3728
G01 X-19.0956 Y-6.4443
G01 X-18.9682 Y-6.5369
G01 X-18.8569 Y-6.6482
G00 Z2.0000
G00 X-19.6249 Y-8.2499
G01 F25.00
G01 Z-0.1866
G01 F120.00
G01 X-19.6151 Y-8.2499
G01 X-19.5269 Y-8.2454
G01 X-19.4347 Y-8.2317
G01 X-19.3442 Y-8.2091
G01 X-19.2565 Y-8.1777
G01 X-19.1722 Y-8.1378
G01 X-19.0922 Y-8.0899
G01 X-19.0173 Y-8.0344
G01 X-18.9482 Y-7.9718
G01 X-18.8856 Y-7.9027
G01 X-18.8301 Y-7.8278
G01 X-18.7822 Y-7.7478
G01 X-18.7423 Y-7.6635
G01 X-18.7109 Y-7.5758
G01 X-18.6883 Y-7.4853
G01 X-18.6746 Y-7.3931
G01 X-18.6700 Y-7.3000
G01 X-18.6746 Y-7.2069
G01 X-18.6883 Y-7.1147
G01 X-18.7109 Y-7.0242
G01 X-18.7423 Y-6.9365
G01 X-18.7822 Y-6.8522
G01 X-18.8301 Y-6.7722
G01 X-18.8856 Y-6.6973
G01 X-18.9482 Y-6.6282
G01 X-19.0173 Y-6.5656
G01 X-19.0922 Y-6.5101
G01 X-19.1722 Y-6.4622
G01 X-19.2565 Y-6.4223
G01 X-19.3442 Y-6.3909
G01 X-19.4347 Y-6.3683
G01 X-19.5269 Y-6.3546
G01 X-19.6200 Y-6.3500
G01 X-19.7131 Y-6.3546
G01 X-19.8053 Y-6.3683
G01 X-19.8958 Y-6.3909
G01 X-19.9835 Y-6.4223
G01 X-20.0678 Y-6.4622
G01 X-20.1478 Y-6.5101
G01 X-20.2227 Y-6.5656
G01 X-20.2918 Y-6.6282
G01 X-20.3544 Y-6.6973
G01 X-20.4099 Y-6.7722
G01 X-20.4578 Y-6.8522
G01 X-20.4977 Y-6.9365
G01 X-20.5291 Y-7.0242
G01 X-20.5517 Y-7.1147
G01 X-20.5654 Y-7.2069
G01 X-20.5700 Y-7.3000
G01 X-20.5654 Y-7.3931
G01 X-20.5517 Y-7.4853
G01 X-20.5291 Y-7.5758
G01 X-20.4977 Y-7.6635
G01 X-20.4578 Y-7.7478
G01 X-20.4099 Y-7.8278
G01 X-20.3544 Y-7.9027
G01 X-20.2918 Y-7.9718
G01 X-20.2227 Y-8.0344
G01 X-20.1478 Y-8.0899
G01 X-20.0678 Y-8.1378
G01 X-19.9835 Y-8.1777
G01 X-19.8958 Y-8.2091
G01 X-19.8053 Y-8.2317
G01 X-19.7131 Y-8.2454
G01 X-19.6249 Y-8.2499
G00 Z2.0000
G00 X-21.3969 Y-6.6482
G01 F25.00
G01 Z-0.1866
G01 F120.00
G01 X-21.3043 Y-6.7756
G01 X-21.2328 Y-6.9159
G01 X-21.1841 Y-7.0657
G01 X-21.1595 Y-7.2213
G01 X-21.1595 Y-7.3787
G01 X-21.1841 Y-7.5343
G01 X-21.2328 Y-7.6841
G01 X-21.3043 Y-7.8244
G01 X-21.3969 Y-7.9518
G01 X-21.5082 Y-8.0631
G01 X-21.6356 Y-8.1557
G01 X-21.7759 Y-8.2272
G01 X-21.9257 Y-8.2759
G01 X-22.0813 Y-8.3005
G01 X-22.2387 Y-8.3005
G01 X-22.3943 Y-8.2759
G01 X-22.5441 Y-8.2272
G01 X-22.6844 Y-8.1557
G01 X-22.8118 Y-8.0631
G01 X-22.9231 Y-7.9518
G01 X-23.0157 Y-7.8244
G01 X-23.0872 Y-7.6841
G01 X-23.1359 Y-7.5343
G01 X-23.1605 Y-7.3787
G01 X-23.1605 Y-7.2213
G01 X-23.1359 Y-7.0657
G01 X-23.0872 Y-6.9159
G01 X-23.0157 Y-6.7756
G01 X-22.9231 Y-6.6482
G01 X-22.8118 Y-6.5369
G01 X-22.6844 Y-6.4443
G01 X-22.5441 Y-6.3728
G01 X-22.3943 Y-6.3241
G01 X-22.2387 Y-6.2995
G01 X-22.0813 Y-6.2995
G01 X-21.9257 Y-6.3241
G01 X-21.7759 Y-6.3728
G01 X-21.6356 Y-6.4443
G01 X-21.5082 Y-6.5369
G01 X-21.3969 Y-6.6482
G00 Z2.0000
G00 X-22.1649 Y-8.2499
G01 F25.00
G01 Z-0.1866
G01 F120.00
G01 X-22.1551 Y-8.2499
G01 X-22.0669 Y-8.2454
G01 X-21.9747 Y-8.2317
G01 X-21.8842 Y-8.2091
G01 X-21.7965 Y-8.1777
G01 X-21.7122 Y-8.1378
G01 X-21.6322 Y-8.0899
G01 X-21.5573 Y-8.0344
G01 X-21.4882 Y-7.9718
G01 X-21.4256 Y-7.9027
G01 X-21.3701 Y-7.8278
G01 X-21.3222 Y-7.7478
G01 X-21.2823 Y-7.6635
G01 X-21.2509 Y-7.5758
G01 X-21.2283 Y-7.4853
G01 X-21.2146 Y-7.3931
G01 X-21.2100 Y-7.3000
G01 X-21.2146 Y-7.2069
G01 X-21.2283 Y-7.1147
G01 X-21.2509 Y-7.0242
G01 X-21.2823 Y-6.9365
G01 X-21.3222 Y-6.8522
G01 X-21.3701 Y-6.7722
G01 X-21.4256 Y-6.6973
G01 X-21.4882 Y-6.6282
G01 X-21.5573 Y-6.5656
G01 X-21.6322 Y-6.5101
G01 X-21.7122 Y-6.4622
G01 X-21.7965 Y-6.4223
G01 X-21.8842 Y-6.3909
G01 X-21.9747 Y-6.3683
G01 X-22.0669 Y-6.3546
G01 X-22.1600 Y-6.3500
G01 X-22.2531 Y-6.3546
G01 X-22.3453 Y-6.3683
G01 X-22.4358 Y-6.3909
G01 X-22.5235 Y-6.4223
G01 X-22.6078 Y-6.4622
G01 X-22.6878 Y-6.5101
G01 X-22.7627 Y-6.5656
G01 X-22.8318 Y-6.6282
G01 X-22.8944 Y-6.6973
G01 X-22.9499 Y-6.7722
G01 X-22.9978 Y-6.8522
G01 X-23.0377 Y-6.9365
G01 X-23.0691 Y-7.0242
G01 X-23.0917 Y-7.1147
G01 X-23.1054 Y-7.2069
G01 X-23.1100 Y-7.3000
G01 X-23.1054 Y-7.3931
G01 X-23.0917 Y-7.4853
G01 X-23.0691 Y-7.5758
G01 X-23.0377 Y-7.6635
G01 X-22.9978 Y-7.7478
G01 X-22.9499 Y-7.8278
G01 X-22.8944 Y-7.9027
G01 X-22.8318 Y-7.9718
G01 X-22.7627 Y-8.0344
G01 X-22.6878 Y-8.0899
G01 X-22.6078 Y-8.1378
G01 X-22.5235 Y-8.1777
G01 X-22.4358 Y-8.2091
G01 X-22.3453 Y-8.2317
G01 X-22.2531 Y-8.2454
G01 X-22.1649 Y-8.2499
G00 Z2.0000
G00 X-23.9369 Y-6.6482
G01 F25.00
G01 Z-0.1866
G01 F120.00
G01 X-23.8443 Y-6.7756
G01 X-23.7728 Y-6.9159
G01 X-23.7241 Y-7.0657
G01 X-23.6995 Y-7.2213
G01 X-23.6995 Y-7.3787
G01 X-23.7241 Y-7.5343
G01 X-23.7728 Y-7.6841
G01 X-23.8443 Y-7.8244
G01 X-23.9369 Y-7.9518
G01 X-24.0482 Y-8.0631
G01 X-24.1756 Y-8.1557
G01 X-24.3159 Y-8.2272
G01 X-24.4657 Y-8.2759
G01 X-24.6213 Y-8.3005
G01 X-24.7787 Y-8.3005
G01 X-24.9343 Y-8.2759
G01 X-25.0841 Y-8.2272
G01 X-25.2244 Y-8.1557
G01 X-25.3518 Y-8.0631
G01 X-25.4631 Y-7.9518
G01 X-25.5557 Y-7.8244
G01 X-25.6272 Y-7.6841
G01 X-25.6759 Y-7.5343
G01 X-25.7005 Y-7.3787
G01 X-25.7005 Y-7.2213
G01 X-25.6759 Y-7.0657
G01 X-25.6272 Y-6.9159
G01 X-25.5557 Y-6.7756
G01 X-25.4631 Y-6.6482
G01 X-25.3518 Y-6.5369
G01 X-25.2244 Y-6.4443
G01 X-25.0841 Y-6.3728
G01 X-24.9343 Y-6.3241
G01 X-24.7787 Y-6.2995
G01 X-24.6213 Y-6.2995
G01 X-24.4657 Y-6.3241
G01 X-24.3159 Y-6.3728
G01 X-24.1756 Y-6.4443
G01 X-24.0482 Y-6.5369
G01 X-23.9369 Y-6.6482
G00 Z2.0000
G00 X-24.7049 Y-8.2499
G01 F25.00
G01 Z-0.1866
G01 F120.00
G01 X-24.6951 Y-8.2499
G01 X-24.6069 Y-8.2454
G01 X-24.5147 Y-8.2317
G01 X-24.4242 Y-8.2091
G01 X-24.3365 Y-8.1777
G01 X-24.2522 Y-8.1378
G01 X-24.1722 Y-8.0899
G01 X-24.0973 Y-8.0344
G01 X-24.0282 Y-7.9718
G01 X-23.9656 Y-7.9027
G01 X-23.9101 Y-7.8278
G01 X-23.8622 Y-7.7478
G01 X-23.8223 Y-7.6635
G01 X-23.7909 Y-7.5758
G01 X-23.7683 Y-7.4853
G01 X-23.7546 Y-7.3931
G01 X-23.7500 Y-7.3000
G01 X-23.7546 Y-7.2069
G01 X-23.7683 Y-7.1147
G01 X-23.7909 Y-7.0242
G01 X-23.8223 Y-6.9365
G01 X-23.8622 Y-6.8522
G01 X-23.9101 Y-6.7722
G01 X-23.9656 Y-6.6973
G01 X-24.0282 Y-6.6282
G01 X-24.0973 Y-6.5656
G01 X-24.1722 Y-6.5101
G01 X-24.2522 Y-6.4622
G01 X-24.3365 Y-6.4223
G01 X-24.4242 Y-6.3909
G01 X-24.5147 Y-6.3683
G01 X-24.6069 Y-6.3546
G01 X-24.7000 Y-6.3500
G01 X-24.7931 Y-6.3546
G01 X-24.8853 Y-6.3683
G01 X-24.9758 Y-6.3909
G01 X-25.0635 Y-6.4223
G01 X-25.1478 Y-6.4622
G01 X-25.2278 Y-6.5101
G01 X-25.3027 Y-6.5656
G01 X-25.3718 Y-6.6282
G01 X-25.4344 Y-6.6973
G01 X-25.4899 Y-6.7722
G01 X-25.5378 Y-6.8522
G01 X-25.5777 Y-6.9365
G01 X-25.6091 Y-7.0242
G01 X-25.6317 Y-7.1147
G01 X-25.6454 Y-7.2069
G01 X-25.6500 Y-7.3000
G01 X-25.6454 Y-7.3931
G01 X-25.6317 Y-7.4853
G01 X-25.6091 Y-7.5758
G01 X-25.5777 Y-7.6635
G01 X-25.5378 Y-7.7478
G01 X-25.4899 Y-7.8278
G01 X-25.4344 Y-7.9027
G01 X-25.3718 Y-7.9718
G01 X-25.3027 Y-8.0344
G01 X-25.2278 Y-8.0899
G01 X-25.1478 Y-8.1378
G01 X-25.0635 Y-8.1777
G01 X-24.9758 Y-8.2091
G01 X-24.8853 Y-8.2317
G01 X-24.7931 Y-8.2454
G01 X-24.7049 Y-8.2499
G00 Z2.0000
G00 X-28.0502 Y-7.7941
G01 F25.00
G01 Z-0.1866
G01 F120.00
G01 X-29.9059 Y-9.6498
G01 X-36.1721 Y-9.6498
G01 X-37.3498 Y-8.4721
G01 X-37.3498 Y2.2921
G01 X-35.4719 Y4.1700
G01 X-34.4500 Y4.1700
G01 X-34.4426 Y4.1703
G01 X-34.4329 Y4.1715
G01 X-34.4257 Y4.1730
G01 X-34.4186 Y4.1750
G01 X-34.4095 Y4.1786
G01 X-34.4029 Y4.1818
G01 X-34.3944 Y4.1869
G01 X-34.3866 Y4.1927
G01 X-34.3793 Y4.1993
G01 X-34.3727 Y4.2066
G01 X-34.3682 Y4.2124
G01 X-34.3642 Y4.2186
G01 X-34.3596 Y4.2272
G01 X-34.3558 Y4.2363
G01 X-34.3530 Y4.2457
G01 X-34.3511 Y4.2553
G01 X-34.3503 Y4.2626
G01 X-34.3500 Y4.2700
G01 X-34.3500 Y5.9725
G01 X-34.3508 Y5.9822
G01 X-34.3524 Y5.9919
G01 X-34.3550 Y6.0014
G01 X-34.3586 Y6.0105
G01 X-34.3630 Y6.0193
G01 X-34.3682 Y6.0276
G01 X-34.3743 Y6.0353
G01 X-34.3810 Y6.0424
G01 X-34.3885 Y6.0488
G01 X-34.3965 Y6.0545
G01 X-34.4050 Y6.0593
G01 X-34.4117 Y6.0624
G01 X-34.4210 Y6.0657
G01 X-34.4305 Y6.0681
G01 X-34.4402 Y6.0695
G01 X-34.4500 Y6.0700
G01 X-36.1500 Y6.0700
G01 X-36.1574 Y6.0697
G01 X-36.1647 Y6.0689
G01 X-36.1767 Y6.0664
G01 X-36.1837 Y6.0642
G01 X-36.1905 Y6.0614
G01 X-36.2014 Y6.0558
G01 X-36.2115 Y6.0488
G01 X-36.2207 Y6.0407
G01 X-36.2288 Y6.0315
G01 X-36.2358 Y6.0214
G01 X-36.2414 Y6.0105
G01 X-36.2457 Y5.9990
G01 X-36.2485 Y5.9871
G01 X-36.2499 Y5.9749
G01 X-36.2500 Y4.9481
G01 X-38.2925 Y2.9055
G01 X-38.3253 Y2.8691
G01 X-38.3547 Y2.8297
G01 X-38.3601 Y2.8215
G01 X-38.3828 Y2.7836
G01 X-38.3875 Y2.7750
G01 X-38.4083 Y2.7306
G01 X-38.4265 Y2.6797
G01 X-38.4397 Y2.6273
G01 X-38.4470 Y2.5788
G01 X-38.4479 Y2.5690
G01 X-38.4502 Y2.5200
G01 X-38.4502 Y-8.7000
G01 X-38.4479 Y-8.7490
G01 X-38.4470 Y-8.7588
G01 X-38.4397 Y-8.8073
G01 X-38.4278 Y-8.8550
G01 X-38.4250 Y-8.8644
G01 X-38.4083 Y-8.9106
G01 X-38.3875 Y-8.9550
G01 X-38.3828 Y-8.9636
G01 X-38.3575 Y-9.0057
G01 X-38.3283 Y-9.0452
G01 X-38.3221 Y-9.0528
G01 X-38.2891 Y-9.0891
G01 X-36.7873 Y-10.5908
G01 X-36.7491 Y-10.6253
G01 X-36.7097 Y-10.6547
G01 X-36.7015 Y-10.6601
G01 X-36.6594 Y-10.6853
G01 X-36.6106 Y-10.7083
G01 X-36.5644 Y-10.7250
G01 X-36.5550 Y-10.7278
G01 X-36.5073 Y-10.7397
G01 X-36.4539 Y-10.7476
G01 X-36.4000 Y-10.7502
G01 X-29.6780 Y-10.7502
G01 X-29.6290 Y-10.7479
G01 X-29.6216 Y-10.7473
G01 X-29.5707 Y-10.7397
G01 X-29.5230 Y-10.7278
G01 X-29.5136 Y-10.7250
G01 X-29.4720 Y-10.7101
G01 X-29.4630 Y-10.7064
G01 X-29.4186 Y-10.6853
G01 X-29.3723 Y-10.6575
G01 X-29.3289 Y-10.6253
G01 X-29.2925 Y-10.5925
G01 X-26.8783 Y-8.1784
G01 X-26.7966 Y-8.1400
G01 X-26.7879 Y-8.1354
G01 X-26.7122 Y-8.0899
G01 X-26.6412 Y-8.0374
G01 X-26.6336 Y-8.0312
G01 X-26.5682 Y-7.9718
G01 X-26.5088 Y-7.9064
G01 X-26.5041 Y-7.9008
G01 X-26.4501 Y-7.8278
G01 X-26.4046 Y-7.7521
G01 X-26.4000 Y-7.7434
G01 X-26.3623 Y-7.6635
G01 X-26.3309 Y-7.5758
G01 X-26.3093 Y-7.4901
G01 X-26.3074 Y-7.4805
G01 X-26.2952 Y-7.3980
G01 X-26.2942 Y-7.3882
G01 X-26.2900 Y-7.3000
G01 X-26.2946 Y-7.2069
G01 X-26.3083 Y-7.1147
G01 X-26.3296 Y-7.0290
G01 X-26.3324 Y-7.0196
G01 X-26.3605 Y-6.9410
G01 X-26.3643 Y-6.9320
G01 X-26.4022 Y-6.8522
G01 X-26.4488 Y-6.7743
G01 X-26.4529 Y-6.7682
G01 X-26.5056 Y-6.6973
G01 X-26.5682 Y-6.6282
G01 X-26.6373 Y-6.5656
G01 X-26.7122 Y-6.5101
G01 X-26.7922 Y-6.4622
G01 X-26.8765 Y-6.4223
G01 X-26.9642 Y-6.3909
G01 X-27.0547 Y-6.3683
G01 X-27.1469 Y-6.3546
G01 X-27.2400 Y-6.3500
G01 X-27.3331 Y-6.3546
G01 X-27.4253 Y-6.3683
G01 X-27.5158 Y-6.3909
G01 X-27.6035 Y-6.4223
G01 X-27.6878 Y-6.4622
G01 X-27.7657 Y-6.5088
G01 X-27.7718 Y-6.5129
G01 X-27.8427 Y-6.5656
G01 X-27.9118 Y-6.6282
G01 X-27.9744 Y-6.6973
G01 X-28.0299 Y-6.7722
G01 X-28.0778 Y-6.8522
G01 X-28.1177 Y-6.9365
G01 X-28.1491 Y-7.0242
G01 X-28.1712 Y-7.1123
G01 X-28.1726 Y-7.1195
G01 X-28.1854 Y-7.2069
G01 X-28.1900 Y-7.3000
G01 X-28.1854 Y-7.3931
G01 X-28.1722 Y-7.4829
G01 X-28.1707 Y-7.4901
G01 X-28.1491 Y-7.5758
G01 X-28.1186 Y-7.6613
G01 X-28.1157 Y-7.6680
G01 X-28.0790 Y-7.7456
G01 X-28.0502 Y-7.7941
G00 Z2.0000
G00 X-34.9264 Y-7.8300
G01 F25.00
G01 Z-0.1866
G01 F120.00
G01 X-34.8873 Y-7.8397
G01 X-34.8388 Y-7.8470
G01 X-34.8290 Y-7.8479
G01 X-34.7800 Y-7.8502
G01 X-30.7300 Y-7.8502
G01 X-30.7300 Y-8.1500
G01 X-30.7295 Y-8.1598
G01 X-30.7281 Y-8.1695
G01 X-30.7264 Y-8.1767
G01 X-30.7242 Y-8.1837
G01 X-30.7214 Y-8.1905
G01 X-30.7182 Y-8.1971
G01 X-30.7145 Y-8.2035
G01 X-30.7103 Y-8.2096
G01 X-30.7057 Y-8.2153
G01 X-30.7007 Y-8.2207
G01 X-30.6953 Y-8.2257
G01 X-30.6896 Y-8.2303
G01 X-30.6835 Y-8.2345
G01 X-30.6771 Y-8.2382
G01 X-30.6705 Y-8.2414
G01 X-30.6637 Y-8.2442
G01 X-30.6519 Y-8.2476
G01 X-30.6398 Y-8.2495
G01 X-30.6300 Y-8.2500
G01 X-28.9300 Y-8.2500
G01 X-28.9178 Y-8.2492
G01 X-28.9081 Y-8.2476
G01 X-28.9010 Y-8.2457
G01 X-28.8940 Y-8.2433
G01 X-28.8850 Y-8.2393
G01 X-28.8786 Y-8.2358
G01 X-28.8724 Y-8.2318
G01 X-28.8666 Y-8.2273
G01 X-28.8593 Y-8.2207
G01 X-28.8543 Y-8.2153
G01 X-28.8497 Y-8.2096
G01 X-28.8455 Y-8.2035
G01 X-28.8407 Y-8.1950
G01 X-28.8376 Y-8.1883
G01 X-28.8343 Y-8.1790
G01 X-28.8324 Y-8.1719
G01 X-28.8308 Y-8.1622
G01 X-28.8301 Y-8.1549
G01 X-28.8300 Y-6.4500
G01 X-28.8305 Y-6.4402
G01 X-28.8324 Y-6.4281
G01 X-28.8343 Y-6.4210
G01 X-28.8376 Y-6.4117
G01 X-28.8418 Y-6.4029
G01 X-28.8455 Y-6.3965
G01 X-28.8512 Y-6.3885
G01 X-28.8559 Y-6.3828
G01 X-28.8610 Y-6.3776
G01 X-28.8666 Y-6.3727
G01 X-28.8724 Y-6.3682
G01 X-28.8786 Y-6.3642
G01 X-28.8850 Y-6.3607
G01 X-28.8940 Y-6.3567
G01 X-28.9010 Y-6.3543
G01 X-28.9081 Y-6.3524
G01 X-28.9153 Y-6.3511
G01 X-28.9251 Y-6.3501
G01 X-30.6300 Y-6.3500
G01 X-30.6374 Y-6.3503
G01 X-30.6471 Y-6.3515
G01 X-30.6543 Y-6.3530
G01 X-30.6614 Y-6.3550
G01 X-30.6683 Y-6.3576
G01 X-30.6750 Y-6.3607
G01 X-30.6814 Y-6.3642
G01 X-30.6876 Y-6.3682
G01 X-30.6953 Y-6.3743
G01 X-30.7007 Y-6.3793
G01 X-30.7057 Y-6.3847
G01 X-30.7103 Y-6.3904
G01 X-30.7145 Y-6.3965
G01 X-30.7182 Y-6.4029
G01 X-30.7214 Y-6.4095
G01 X-30.7242 Y-6.4163
G01 X-30.7264 Y-6.4233
G01 X-30.7281 Y-6.4305
G01 X-30.7295 Y-6.4402
G01 X-30.7300 Y-6.4500
G01 X-30.7300 Y-6.7498
G01 X-34.2500 Y-6.7498
G01 X-34.2500 Y-6.0300
G01 X-34.2503 Y-6.0226
G01 X-34.2511 Y-6.0153
G01 X-34.2524 Y-6.0081
G01 X-34.2558 Y-5.9963
G01 X-34.2586 Y-5.9895
G01 X-34.2618 Y-5.9829
G01 X-34.2682 Y-5.9724
G01 X-34.2727 Y-5.9666
G01 X-34.2776 Y-5.9610
G01 X-34.2866 Y-5.9527
G01 X-34.2965 Y-5.9455
G01 X-34.3029 Y-5.9418
G01 X-34.3095 Y-5.9386
G01 X-34.3186 Y-5.9350
G01 X-34.3281 Y-5.9324
G01 X-34.3402 Y-5.9305
G01 X-34.3500 Y-5.9300
G01 X-36.0500 Y-5.9300
G01 X-36.0574 Y-5.9303
G01 X-36.0647 Y-5.9311
G01 X-36.0767 Y-5.9336
G01 X-36.0837 Y-5.9358
G01 X-36.0905 Y-5.9386
G01 X-36.0971 Y-5.9418
G01 X-36.1035 Y-5.9455
G01 X-36.1134 Y-5.9527
G01 X-36.1224 Y-5.9610
G01 X-36.1303 Y-5.9704
G01 X-36.1370 Y-5.9807
G01 X-36.1424 Y-5.9917
G01 X-36.1464 Y-6.0033
G01 X-36.1489 Y-6.0153
G01 X-36.1500 Y-6.0275
G01 X-36.1500 Y-7.7300
G01 X-36.1497 Y-7.7374
G01 X-36.1489 Y-7.7447
G01 X-36.1476 Y-7.7519
G01 X-36.1457 Y-7.7590
G01 X-36.1433 Y-7.7660
G01 X-36.1404 Y-7.7728
G01 X-36.1345 Y-7.7835
G01 X-36.1273 Y-7.7934
G01 X-36.1190 Y-7.8024
G01 X-36.1115 Y-7.8088
G01 X-36.1014 Y-7.8158
G01 X-36.0905 Y-7.8214
G01 X-36.0790 Y-7.8257
G01 X-36.0671 Y-7.8285
G01 X-36.0549 Y-7.8299
G01 X-34.9264 Y-7.8300
G00 Z2.0000
G00 X-35.4049 Y-3.4130
G01 F25.00
G01 Z-0.1866
G01 F120.00
G01 X-35.4758 Y-3.4309
G01 X-35.5635 Y-3.4623
G01 X-35.6478 Y-3.5022
G01 X-35.7278 Y-3.5501
G01 X-35.8027 Y-3.6056
G01 X-35.8718 Y-3.6682
G01 X-35.9344 Y-3.7373
G01 X-35.9899 Y-3.8122
G01 X-36.0378 Y-3.8922
G01 X-36.0777 Y-3.9765
G01 X-36.1091 Y-4.0642
G01 X-36.1317 Y-4.1547
G01 X-36.1454 Y-4.2469
G01 X-36.1500 Y-4.3400
G01 X-36.1454 Y-4.4331
G01 X-36.1317 Y-4.5253
G01 X-36.1091 Y-4.6158
G01 X-36.0777 Y-4.7035
G01 X-36.0378 Y-4.7878
G01 X-35.9899 Y-4.8678
G01 X-35.9344 Y-4.9427
G01 X-35.8718 Y-5.0118
G01 X-35.8027 Y-5.0744
G01 X-35.7278 Y-5.1299
G01 X-35.6478 Y-5.1778
G01 X-35.5635 Y-5.2177
G01 X-35.4758 Y-5.2491
G01 X-35.3853 Y-5.2717
G01 X-35.2931 Y-5.2854
G01 X-35.2000 Y-5.2900
G01 X-35.1069 Y-5.2854
G01 X-35.0147 Y-5.2717
G01 X-34.9242 Y-5.2491
G01 X-34.8410 Y-5.2195
G01 X-34.8320 Y-5.2157
G01 X-34.7522 Y-5.1778
G01 X-34.6722 Y-5.1299
G01 X-34.6012 Y-5.0774
G01 X-34.5936 Y-5.0712
G01 X-34.5282 Y-5.0118
G01 X-34.4656 Y-4.9427
G01 X-34.4129 Y-4.8718
G01 X-34.4075 Y-4.8636
G01 X-34.3622 Y-4.7878
G01 X-34.3243 Y-4.7080
G01 X-34.3205 Y-4.6990
G01 X-34.2909 Y-4.6158
G01 X-34.2730 Y-4.5449
G01 X-27.0285 Y2.6996
G01 X-15.1404 Y2.6996
G01 X-15.1404 Y-4.9600
G01 X-15.1365 Y-5.0384
G01 X-15.1258 Y-5.1113
G01 X-15.1245 Y-5.1185
G01 X-15.1072 Y-5.1876
G01 X-15.1043 Y-5.1970
G01 X-15.0794 Y-5.2663
G01 X-15.0481 Y-5.3329
G01 X-15.0434 Y-5.3416
G01 X-15.0055 Y-5.4047
G01 X-14.9617 Y-5.4639
G01 X-14.9571 Y-5.4696
G01 X-14.9059 Y-5.5259
G01 X-12.9270 Y-7.5049
G01 X-12.9091 Y-7.5758
G01 X-12.8777 Y-7.6635
G01 X-12.8378 Y-7.7478
G01 X-12.7925 Y-7.8236
G01 X-12.7871 Y-7.8318
G01 X-12.7374 Y-7.8988
G01 X-12.7312 Y-7.9064
G01 X-12.6718 Y-7.9718
G01 X-12.6027 Y-8.0344
G01 X-12.5318 Y-8.0871
G01 X-12.5236 Y-8.0925
G01 X-12.4478 Y-8.1378
G01 X-12.3635 Y-8.1777
G01 X-12.2758 Y-8.2091
G01 X-12.1901 Y-8.2307
G01 X-12.1805 Y-8.2326
G01 X-12.0931 Y-8.2454
G01 X-12.0000 Y-8.2500
G01 X-11.9118 Y-8.2458
G01 X-11.9020 Y-8.2448
G01 X-11.8147 Y-8.2317
G01 X-11.7242 Y-8.2091
G01 X-11.6410 Y-8.1795
G01 X-11.6320 Y-8.1757
G01 X-11.5522 Y-8.1378
G01 X-11.4764 Y-8.0925
G01 X-11.4682 Y-8.0871
G01 X-11.3973 Y-8.0344
G01 X-11.3282 Y-7.9718
G01 X-11.2688 Y-7.9064
G01 X-11.2626 Y-7.8988
G01 X-11.2101 Y-7.8278
G01 X-11.1622 Y-7.7478
G01 X-11.1243 Y-7.6680
G01 X-11.1205 Y-7.6590
G01 X-11.0909 Y-7.5758
G01 X-11.0683 Y-7.4853
G01 X-11.0552 Y-7.3980
G01 X-11.0542 Y-7.3882
G01 X-11.0500 Y-7.3000
G01 X-11.0546 Y-7.2069
G01 X-11.0683 Y-7.1147
G01 X-11.0896 Y-7.0290
G01 X-11.0924 Y-7.0196
G01 X-11.1205 Y-6.9410
G01 X-11.1243 Y-6.9320
G01 X-11.1622 Y-6.8522
G01 X-11.2101 Y-6.7722
G01 X-11.2656 Y-6.6973
G01 X-11.3265 Y-6.6300
G01 X-11.3936 Y-6.5688
G01 X-11.4012 Y-6.5626
G01 X-11.4722 Y-6.5101
G01 X-11.5522 Y-6.4622
G01 X-11.6320 Y-6.4243
G01 X-11.6410 Y-6.4205
G01 X-11.7242 Y-6.3909
G01 X-11.7951 Y-6.3730
G01 X-13.5396 Y-4.6285
G01 X-13.5396 Y1.5678
G01 X-7.7270 Y-4.2449
G01 X-7.7091 Y-4.3158
G01 X-7.6777 Y-4.4035
G01 X-7.6378 Y-4.4878
G01 X-7.5925 Y-4.5636
G01 X-7.5871 Y-4.5718
G01 X-7.5374 Y-4.6388
G01 X-7.5312 Y-4.6464
G01 X-7.4718 Y-4.7118
G01 X-7.4046 Y-4.7728
G01 X-7.3988 Y-4.7774
G01 X-7.3278 Y-4.8299
G01 X-7.2521 Y-4.8754
G01 X-7.2434 Y-4.8800
G01 X-7.1680 Y-4.9157
G01 X-7.1590 Y-4.9195
G01 X-7.0758 Y-4.9491
G01 X-6.9853 Y-4.9717
G01 X-6.8931 Y-4.9854
G01 X-6.8000 Y-4.9900
G01 X-6.7069 Y-4.9854
G01 X-6.6195 Y-4.9726
G01 X-6.6099 Y-4.9707
G01 X-6.5290 Y-4.9504
G01 X-6.5196 Y-4.9476
G01 X-6.4365 Y-4.9177
G01 X-6.3522 Y-4.8778
G01 X-6.2722 Y-4.8299
G01 X-6.1992 Y-4.7759
G01 X-6.1936 Y-4.7712
G01 X-6.1282 Y-4.7118
G01 X-6.0656 Y-4.6427
G01 X-6.0101 Y-4.5678
G01 X-5.9622 Y-4.4878
G01 X-5.9223 Y-4.4035
G01 X-5.8909 Y-4.3158
G01 X-5.8683 Y-4.2253
G01 X-5.8546 Y-4.1331
G01 X-5.8500 Y-4.0400
G01 X-5.8546 Y-3.9469
G01 X-5.8683 Y-3.8547
G01 X-5.8909 Y-3.7642
G01 X-5.9223 Y-3.6765
G01 X-5.9622 Y-3.5922
G01 X-6.0101 Y-3.5122
G01 X-6.0626 Y-3.4412
G01 X-6.0672 Y-3.4354
G01 X-6.1282 Y-3.3682
G01 X-6.1936 Y-3.3088
G01 X-6.2012 Y-3.3026
G01 X-6.2682 Y-3.2529
G01 X-6.2764 Y-3.2475
G01 X-6.3522 Y-3.2022
G01 X-6.4365 Y-3.1623
G01 X-6.5242 Y-3.1309
G01 X-6.5951 Y-3.1130
G01 X-13.5396 Y3.8315
G01 X-13.5396 Y6.7596
G01 X-7.3106 Y6.7596
G01 X-7.2478 Y6.7222
G01 X-7.1680 Y6.6843
G01 X-7.1590 Y6.6805
G01 X-7.0758 Y6.6509
G01 X-6.9853 Y6.6283
G01 X-6.8980 Y6.6152
G01 X-6.8882 Y6.6142
G01 X-6.7975 Y6.6100
G01 X-6.7118 Y6.6142
G01 X-6.7020 Y6.6152
G01 X-6.6147 Y6.6283
G01 X-6.5290 Y6.6496
G01 X-6.5196 Y6.6524
G01 X-6.4365 Y6.6823
G01 X-6.3522 Y6.7222
G01 X-6.2722 Y6.7701
G01 X-6.2012 Y6.8226
G01 X-6.1936 Y6.8288
G01 X-6.1282 Y6.8882
G01 X-6.0688 Y6.9536
G01 X-6.0626 Y6.9612
G01 X-6.0101 Y7.0322
G01 X-5.9622 Y7.1122
G01 X-5.9243 Y7.1920
G01 X-5.9205 Y7.2010
G01 X-5.8909 Y7.2842
G01 X-5.8693 Y7.3699
G01 X-5.8674 Y7.3795
G01 X-5.8546 Y7.4669
G01 X-5.8501 Y7.5551
G01 X-5.8501 Y7.5649
G01 X-5.8546 Y7.6531
G01 X-5.8674 Y7.7405
G01 X-5.8693 Y7.7501
G01 X-5.8909 Y7.8358
G01 X-5.9223 Y7.9235
G01 X-5.9600 Y8.0034
G01 X-5.9646 Y8.0121
G01 X-6.0101 Y8.0878
G01 X-6.0626 Y8.1588
G01 X-6.0688 Y8.1664
G01 X-6.1282 Y8.2318
G01 X-6.1973 Y8.2944
G01 X-6.2722 Y8.3499
G01 X-6.3479 Y8.3954
G01 X-6.3566 Y8.4000
G01 X-6.4365 Y8.4377
G01 X-6.5196 Y8.4676
G01 X-6.5290 Y8.4704
G01 X-6.6147 Y8.4917
G01 X-6.7069 Y8.5054
G01 X-6.8000 Y8.5100
G01 X-6.8931 Y8.5054
G01 X-6.9853 Y8.4917
G01 X-7.0758 Y8.4691
G01 X-7.1635 Y8.4377
G01 X-7.2478 Y8.3978
G01 X-7.3106 Y8.3604
G01 X-12.4078 Y8.3604
G01 X-4.4941 Y16.2741
G01 X-4.4413 Y16.3323
G01 X-4.3945 Y16.3953
G01 X-4.3566 Y16.4584
G01 X-4.3519 Y16.4671
G01 X-4.3206 Y16.5337
G01 X-4.2957 Y16.6030
G01 X-4.2928 Y16.6124
G01 X-4.2750 Y16.6839
G01 X-4.2641 Y16.7567
G01 X-4.2631 Y16.7664
G01 X-4.2596 Y16.8400
G01 X-4.2596 Y18.7500
G01 X-4.2075 Y18.7500
G01 X-4.1953 Y18.7511
G01 X-4.1857 Y18.7530
G01 X-4.1740 Y18.7567
