(G-CODE GENERATED BY FLATCAM v8.994 - www.flatcam.org - Version Date: 2020/11/7)

(Name: Mˇdulo Patas-PTH.drl_1_cnc)
(Type: G-code from Geometry)
(Units: MM)

(Created on Saturday, 04 October 2025 at 00:37)


G01 F25.00

M5
G00 Z15.0000
T1
G00 X0.0000 Y0.0000                
M6
(MSG, Change to Tool Dia = 1.0000 ||| Total drills for tool T1 = 36)
M0
G00 Z15.0000

G01 F25.00
M03 S10000
G00 X37.0000 Y20.7000
G01 Z-2.5000
G01 Z0
G00 Z1.5000
G00 X34.4600 Y20.7000
G01 Z-2.5000
G01 Z0
G00 Z1.5000
G00 X16.8600 Y18.1600
G01 Z-2.5000
G01 Z0
G00 Z1.5000
G00 X16.8600 Y20.7000
G01 Z-2.5000
G01 Z0
G00 Z1.5000
G00 X11.2600 Y20.7400
G01 Z-2.5000
G01 Z0
G00 Z1.5000
G00 X11.2600 Y18.2000
G01 Z-2.5000
G01 Z0
G00 Z1.5000
G00 X9.4600 Y11.2000
G01 Z-2.5000
G01 Z0
G00 Z1.5000
G00 X9.4600 Y8.6600
G01 Z-2.5000
G01 Z0
G00 Z1.5000
G00 X9.4600 Y6.1200
G01 Z-2.5000
G01 Z0
G00 Z1.5000
G00 X7.0600 Y0.2000
G01 Z-2.5000
G01 Z0
G00 Z1.5000
G00 X7.0600 Y-2.3400
G01 Z-2.5000
G01 Z0
G00 Z1.5000
G00 X7.0600 Y-4.8800
G01 Z-2.5000
G01 Z0
G00 Z1.5000
G00 X7.0600 Y-7.4200
G01 Z-2.5000
G01 Z0
G00 Z1.5000
G00 X7.0600 Y-9.9600
G01 Z-2.5000
G01 Z0
G00 Z1.5000
G00 X7.0600 Y-12.5000
G01 Z-2.5000
G01 Z0
G00 Z1.5000
G00 X7.0600 Y-15.0400
G01 Z-2.5000
G01 Z0
G00 Z1.5000
G00 X7.0600 Y-17.5800
G01 Z-2.5000
G01 Z0
G00 Z1.5000
G00 X7.0600 Y-20.1200
G01 Z-2.5000
G01 Z0
G00 Z1.5000
G00 X22.2600 Y-20.1200
G01 Z-2.5000
G01 Z0
G00 Z1.5000
G00 X22.2600 Y-17.5800
G01 Z-2.5000
G01 Z0
G00 Z1.5000
G00 X22.2600 Y-15.0400
G01 Z-2.5000
G01 Z0
G00 Z1.5000
G00 X22.2600 Y-12.5000
G01 Z-2.5000
G01 Z0
G00 Z1.5000
G00 X22.2600 Y-9.9600
G01 Z-2.5000
G01 Z0
G00 Z1.5000
G00 X22.2600 Y-7.4200
G01 Z-2.5000
G01 Z0
G00 Z1.5000
G00 X22.2600 Y-4.8800
G01 Z-2.5000
G01 Z0
G00 Z1.5000
G00 X22.2600 Y-2.3400
G01 Z-2.5000
G01 Z0
G00 Z1.5000
G00 X22.2600 Y0.2000
G01 Z-2.5000
G01 Z0
G00 Z1.5000
G00 X18.0600 Y6.1200
G01 Z-2.5000
G01 Z0
G00 Z1.5000
G00 X18.0600 Y8.6600
G01 Z-2.5000
G01 Z0
G00 Z1.5000
G00 X18.0600 Y11.2000
G01 Z-2.5000
G01 Z0
G00 Z1.5000
G00 X26.6600 Y11.1000
G01 Z-2.5000
G01 Z0
G00 Z1.5000
G00 X26.6600 Y8.5600
G01 Z-2.5000
G01 Z0
G00 Z1.5000
G00 X26.6600 Y6.0200
G01 Z-2.5000
G01 Z0
G00 Z1.5000
G00 X35.2600 Y6.0200
G01 Z-2.5000
G01 Z0
G00 Z1.5000
G00 X35.2600 Y8.5600
G01 Z-2.5000
G01 Z0
G00 Z1.5000
G00 X35.2600 Y11.1000
G01 Z-2.5000
G01 Z0
G00 Z1.5000
M05
G00 Z2.50
G00 X0.0 Y0.0


