(G-CODE GENERATED BY FLATCAM v8.994 - www.flatcam.org - Version Date: 2020/11/7)

(Name: M¾dulo Patas-Edge_Cuts.gbr_panelized_cutout_cnc)
(Type: G-code from Geometry)
(Units: MM)

(Created on Sunday, 19 October 2025 at 17:45)

(This preprocessor is the default preprocessor used by FlatCAM.)
(It is made to work with MACH3 compatible motion controllers.)

(TOOL DIAMETER: 2.0 mm)
(Feedrate_XY: 25.0 mm/min)
(Feedrate_Z: 25.0 mm/min)
(Feedrate rapids 1500.0 mm/min)

(Z_Cut: -1.6 mm)
(Z_Move: 2.0 mm)
(Z Start: None mm)
(Z End: 2.5 mm)
(X,Y End: 0.0000, 0.0000 mm)
(Steps per circle: 64)
(Preprocessor Geometry: default)

(X range:  -42.1250 ...   42.1750  mm)
(Y range:  -27.1250 ...   25.1250  mm)

(Spindle Speed: 10000.0 RPM)
G21
G90
G94

G01 F25.00

M5
G00 Z15.0000
G00 X0.0000 Y0.0000
T1
M6    
(MSG, Change to Tool Dia = 2.0000)
M0
G00 Z15.0000

M03 S10000.0
G01 F25.00
G00 X-18.9000 Y25.1250
G01 F25.00
G01 Z-1.6000
G01 F25.00
G01 X-0.9750 Y25.1250
G01 X-0.8672 Y25.1197
G01 X-0.7604 Y25.1039
G01 X-0.6557 Y25.0776
G01 X-0.5540 Y25.0413
G01 X-0.4565 Y24.9951
G01 X-0.3639 Y24.9396
G01 X-0.2772 Y24.8753
G01 X-0.1972 Y24.8028
G01 X-0.1247 Y24.7228
G01 X-0.0604 Y24.6361
G01 X-0.0049 Y24.5435
G01 X0.0413 Y24.4460
G01 X0.0776 Y24.3443
G01 X0.1039 Y24.2396
G01 X0.1197 Y24.1328
G01 X0.1250 Y24.0250
G01 X0.1250 Y-26.0250
G01 X0.1197 Y-26.1328
G01 X0.1039 Y-26.2396
G01 X0.0776 Y-26.3443
G01 X0.0413 Y-26.4460
G01 X-0.0049 Y-26.5435
G01 X-0.0604 Y-26.6361
G01 X-0.1247 Y-26.7228
G01 X-0.1972 Y-26.8028
G01 X-0.2772 Y-26.8753
G01 X-0.3639 Y-26.9396
G01 X-0.4565 Y-26.9951
G01 X-0.5540 Y-27.0413
G01 X-0.6557 Y-27.0776
G01 X-0.7604 Y-27.1039
G01 X-0.8672 Y-27.1197
G01 X-0.9750 Y-27.1250
G01 X-18.9000 Y-27.1250
G00 Z2.0000
G00 X-22.9000 Y-27.1250
G01 F25.00
G01 Z-1.6000
G01 F25.00
G01 X-41.0250 Y-27.1250
G01 X-41.1328 Y-27.1197
G01 X-41.2396 Y-27.1039
G01 X-41.3443 Y-27.0776
G01 X-41.4460 Y-27.0413
G01 X-41.5435 Y-26.9951
G01 X-41.6361 Y-26.9396
G01 X-41.7228 Y-26.8753
G01 X-41.8028 Y-26.8028
G01 X-41.8753 Y-26.7228
G01 X-41.9396 Y-26.6361
G01 X-41.9951 Y-26.5435
G01 X-42.0413 Y-26.4460
G01 X-42.0776 Y-26.3443
G01 X-42.1039 Y-26.2396
G01 X-42.1197 Y-26.1328
G01 X-42.1250 Y-26.0250
G01 X-42.1250 Y24.0250
G01 X-42.1197 Y24.1328
G01 X-42.1039 Y24.2396
G01 X-42.0776 Y24.3443
G01 X-42.0413 Y24.4460
G01 X-41.9951 Y24.5435
G01 X-41.9396 Y24.6361
G01 X-41.8753 Y24.7228
G01 X-41.8028 Y24.8028
G01 X-41.7228 Y24.8753
G01 X-41.6361 Y24.9396
G01 X-41.5435 Y24.9951
G01 X-41.4460 Y25.0413
G01 X-41.3443 Y25.0776
G01 X-41.2396 Y25.1039
G01 X-41.1328 Y25.1197
G01 X-41.0250 Y25.1250
G01 X-22.9000 Y25.1250
G00 Z2.0000
G00 X19.1500 Y25.1250
G01 F25.00
G01 Z-1.6000
G01 F25.00
G01 X1.0250 Y25.1250
G01 X0.9172 Y25.1197
G01 X0.8104 Y25.1039
G01 X0.7057 Y25.0776
G01 X0.6041 Y25.0413
G01 X0.5065 Y24.9951
G01 X0.4139 Y24.9396
G01 X0.3272 Y24.8753
G01 X0.2472 Y24.8028
G01 X0.1747 Y24.7228
G01 X0.1104 Y24.6361
G01 X0.0549 Y24.5435
G01 X0.0087 Y24.4460
G01 X-0.0276 Y24.3443
G01 X-0.0539 Y24.2396
G01 X-0.0697 Y24.1328
G01 X-0.0750 Y24.0250
G01 X-0.0750 Y-26.0250
G01 X-0.0697 Y-26.1328
G01 X-0.0539 Y-26.2396
G01 X-0.0276 Y-26.3443
G01 X0.0087 Y-26.4460
G01 X0.0549 Y-26.5435
G01 X0.1104 Y-26.6361
G01 X0.1747 Y-26.7228
G01 X0.2472 Y-26.8028
G01 X0.3272 Y-26.8753
G01 X0.4139 Y-26.9396
G01 X0.5065 Y-26.9951
G01 X0.6041 Y-27.0413
G01 X0.7057 Y-27.0776
G01 X0.8104 Y-27.1039
G01 X0.9172 Y-27.1197
G01 X1.0250 Y-27.1250
G01 X19.1500 Y-27.1250
G00 Z2.0000
G00 X23.1500 Y25.1250
G01 F25.00
G01 Z-1.6000
G01 F25.00
G01 X41.0750 Y25.1250
G01 X41.1829 Y25.1197
G01 X41.2896 Y25.1039
G01 X41.3944 Y25.0776
G01 X41.4960 Y25.0413
G01 X41.5936 Y24.9951
G01 X41.6862 Y24.9396
G01 X41.7729 Y24.8753
G01 X41.8529 Y24.8028
G01 X41.9253 Y24.7228
G01 X41.9897 Y24.6361
G01 X42.0452 Y24.5435
G01 X42.0913 Y24.4460
G01 X42.1277 Y24.3443
G01 X42.1539 Y24.2396
G01 X42.1697 Y24.1328
G01 X42.1750 Y24.0250
G01 X42.1750 Y-26.0250
G01 X42.1697 Y-26.1328
G01 X42.1539 Y-26.2396
G01 X42.1277 Y-26.3443
G01 X42.0913 Y-26.4460
G01 X42.0452 Y-26.5435
G01 X41.9897 Y-26.6361
G01 X41.9253 Y-26.7228
G01 X41.8529 Y-26.8028
G01 X41.7729 Y-26.8753
G01 X41.6862 Y-26.9396
G01 X41.5936 Y-26.9951
G01 X41.4960 Y-27.0413
G01 X41.3944 Y-27.0776
G01 X41.2896 Y-27.1039
G01 X41.1829 Y-27.1197
G01 X41.0750 Y-27.1250
G01 X23.1500 Y-27.1250
G00 Z2.0000
M05
G00 Z2.0000
G00 Z2.50
G00 X0.0 Y0.0


