(G-CODE GENERATED BY FLATCAM v8.994 - www.flatcam.org - Version Date: 2020/11/7)

(Name: M¾dulo Patas-PTH.drl_1_cnc)
(Type: G-code from Geometry)
(Units: MM)

(Created on Sunday, 19 October 2025 at 17:37)

(This preprocessor is the default preprocessor used by FlatCAM.)
(It is made to work with MACH3 compatible motion controllers.)


(TOOLS DIAMETER: )
(Tool: 1 -> Dia: 1.0)

(FEEDRATE Z: )
(Tool: 1 -> Feedrate: 25.0)

(FEEDRATE RAPIDS: )
(Tool: 1 -> Feedrate Rapids: 1500.0)

(Z_CUT: )
(Tool: 1 -> Z_Cut: -2.5)

(Tools Offset: )
(Tool: 1 -> Offset Z: 0.0)

(Z_MOVE: )
(Tool: 1 -> Z_Move: 1.5)

(Z Toolchange: 15.0 mm)
(X,Y Toolchange: 0.0000, 0.0000 mm)
(Z Start: None mm)
(Z End: 2.5 mm)
(X,Y End: 0.0000, 0.0000 mm)
(Steps per circle: 64)
(Preprocessor Excellon: default)

(X range:    6.2500 ...   37.4900  mm)
(Y range:  -23.0000 ...   20.2400  mm)

(Spindle Speed: 10000 RPM)
G21
G90
G94

G01 F25.00

M5
G00 Z15.0000
T1
G00 X0.0000 Y0.0000                
M6
(MSG, Change to Tool Dia = 1.0000 ||| Total drills for tool T1 = 34)
M0
G00 Z15.0000

G01 F25.00
M03 S10000
G00 X36.9900 Y19.7000
G01 Z-2.5000
G01 Z0
G00 Z1.5000
G00 X34.4500 Y19.7000
G01 Z-2.5000
G01 Z0
G00 Z1.5000
G00 X20.7500 Y17.1600
G01 Z-2.5000
G01 Z0
G00 Z1.5000
G00 X20.7500 Y19.7000
G01 Z-2.5000
G01 Z0
G00 Z1.5000
G00 X11.2500 Y19.7400
G01 Z-2.5000
G01 Z0
G00 Z1.5000
G00 X11.2500 Y17.2000
G01 Z-2.5000
G01 Z0
G00 Z1.5000
G00 X6.7500 Y10.2000
G01 Z-2.5000
G01 Z0
G00 Z1.5000
G00 X6.7500 Y7.6600
G01 Z-2.5000
G01 Z0
G00 Z1.5000
G00 X6.7500 Y5.1200
G01 Z-2.5000
G01 Z0
G00 Z1.5000
G00 X6.8500 Y-1.8000
G01 Z-2.5000
G01 Z0
G00 Z1.5000
G00 X6.8500 Y-4.3400
G01 Z-2.5000
G01 Z0
G00 Z1.5000
G00 X6.8500 Y-6.8800
G01 Z-2.5000
G01 Z0
G00 Z1.5000
G00 X12.2700 Y-7.3000
G01 Z-2.5000
G01 Z0
G00 Z1.5000
G00 X14.8100 Y-7.3000
G01 Z-2.5000
G01 Z0
G00 Z1.5000
G00 X12.2700 Y-22.5000
G01 Z-2.5000
G01 Z0
G00 Z1.5000
G00 X14.8100 Y-22.5000
G01 Z-2.5000
G01 Z0
G00 Z1.5000
G00 X17.3500 Y-22.5000
G01 Z-2.5000
G01 Z0
G00 Z1.5000
G00 X19.8900 Y-22.5000
G01 Z-2.5000
G01 Z0
G00 Z1.5000
G00 X22.4300 Y-22.5000
G01 Z-2.5000
G01 Z0
G00 Z1.5000
G00 X24.9700 Y-22.5000
G01 Z-2.5000
G01 Z0
G00 Z1.5000
G00 X27.5100 Y-22.5000
G01 Z-2.5000
G01 Z0
G00 Z1.5000
G00 X30.0500 Y-22.5000
G01 Z-2.5000
G01 Z0
G00 Z1.5000
G00 X17.3500 Y-7.3000
G01 Z-2.5000
G01 Z0
G00 Z1.5000
G00 X19.8900 Y-7.3000
G01 Z-2.5000
G01 Z0
G00 Z1.5000
G00 X22.4300 Y-7.3000
G01 Z-2.5000
G01 Z0
G00 Z1.5000
G00 X24.9700 Y-7.3000
G01 Z-2.5000
G01 Z0
G00 Z1.5000
G00 X27.5100 Y-7.3000
G01 Z-2.5000
G01 Z0
G00 Z1.5000
G00 X30.0500 Y-7.3000
G01 Z-2.5000
G01 Z0
G00 Z1.5000
G00 X35.2500 Y-6.5800
G01 Z-2.5000
G01 Z0
G00 Z1.5000
G00 X35.2500 Y-4.0400
G01 Z-2.5000
G01 Z0
G00 Z1.5000
G00 X35.2500 Y-1.5000
G01 Z-2.5000
G01 Z0
G00 Z1.5000
G00 X35.2500 Y5.0200
G01 Z-2.5000
G01 Z0
G00 Z1.5000
G00 X35.2500 Y7.5600
G01 Z-2.5000
G01 Z0
G00 Z1.5000
G00 X35.2500 Y10.1000
G01 Z-2.5000
G01 Z0
G00 Z1.5000
M05
G00 Z2.50
G00 X0.0 Y0.0


