(G-CODE GENERATED BY FLATCAM v8.994 - www.flatcam.org - Version Date: 2020/11/7)

(Name: C·mara-PTH.drl_cnc)
(Type: G-code from Geometry)
(Units: MM)

(Created on Wednesday, 26 November 2025 at 22:01)

(This preprocessor is the default preprocessor used by FlatCAM.)
(It is made to work with MACH3 compatible motion controllers.)


(TOOLS DIAMETER: )
(Tool: 1 -> Dia: 1.0)

(FEEDRATE Z: )
(Tool: 1 -> Feedrate: 25.0)

(FEEDRATE RAPIDS: )
(Tool: 1 -> Feedrate Rapids: 1500.0)

(Z_CUT: )
(Tool: 1 -> Z_Cut: -2.5)

(Tools Offset: )
(Tool: 1 -> Offset Z: 0.0)

(Z_MOVE: )
(Tool: 1 -> Z_Move: 1.5)

(Z Toolchange: 25.0 mm)
(X,Y Toolchange: 0.0000, 0.0000 mm)
(Z Start: None mm)
(Z End: 5.0 mm)
(X,Y End: 0.0000, 0.0000 mm)
(Steps per circle: 64)
(Preprocessor Excellon: default)

(X range:  -13.4000 ...   12.8000  mm)
(Y range:   -8.6800 ...   10.1000  mm)

(Spindle Speed: 10000 RPM)
G21
G90
G94

G01 F25.00

M5
G00 Z25.0000
T1
G00 X0.0000 Y0.0000                
M6
(MSG, Change to Tool Dia = 1.0000 ||| Total drills for tool T1 = 18)
M0
G00 Z25.0000

G01 F25.00
M03 S10000
G00 X12.3000 Y9.6000
G01 Z-2.5000
G01 Z0
G00 Z1.5000
G00 X12.3000 Y7.0600
G01 Z-2.5000
G01 Z0
G00 Z1.5000
G00 X5.5000 Y7.0600
G01 Z-2.5000
G01 Z0
G00 Z1.5000
G00 X5.5000 Y4.5200
G01 Z-2.5000
G01 Z0
G00 Z1.5000
G00 X5.5000 Y1.9800
G01 Z-2.5000
G01 Z0
G00 Z1.5000
G00 X5.5000 Y-0.5600
G01 Z-2.5000
G01 Z0
G00 Z1.5000
G00 X5.5000 Y-3.1000
G01 Z-2.5000
G01 Z0
G00 Z1.5000
G00 X5.5000 Y-5.6400
G01 Z-2.5000
G01 Z0
G00 Z1.5000
G00 X5.5000 Y-8.1800
G01 Z-2.5000
G01 Z0
G00 Z1.5000
G00 X-12.9000 Y-8.1800
G01 Z-2.5000
G01 Z0
G00 Z1.5000
G00 X-12.9000 Y-5.6400
G01 Z-2.5000
G01 Z0
G00 Z1.5000
G00 X-12.9000 Y-3.1000
G01 Z-2.5000
G01 Z0
G00 Z1.5000
G00 X-12.9000 Y-0.5600
G01 Z-2.5000
G01 Z0
G00 Z1.5000
G00 X-12.9000 Y1.9800
G01 Z-2.5000
G01 Z0
G00 Z1.5000
G00 X-12.9000 Y4.5200
G01 Z-2.5000
G01 Z0
G00 Z1.5000
G00 X-12.9000 Y7.0600
G01 Z-2.5000
G01 Z0
G00 Z1.5000
G00 X-12.9000 Y9.6000
G01 Z-2.5000
G01 Z0
G00 Z1.5000
G00 X5.5000 Y9.6000
G01 Z-2.5000
G01 Z0
G00 Z1.5000
M05
G00 Z5.00
G00 X0.0 Y0.0


