(G-CODE GENERATED BY FLATCAM v8.994 - www.flatcam.org - Version Date: 2020/11/7)

(Name: Mµdulo Cabeza-PTH.drl_cnc)
(Type: G-code from Geometry)
(Units: MM)

(Created on Thursday, 30 October 2025 at 10:27)

(This preprocessor is the default preprocessor used by FlatCAM.)
(It is made to work with MACH3 compatible motion controllers.)


(TOOLS DIAMETER: )
(Tool: 1 -> Dia: 1.0)

(FEEDRATE Z: )
(Tool: 1 -> Feedrate: 25.0)

(FEEDRATE RAPIDS: )
(Tool: 1 -> Feedrate Rapids: 1500.0)

(Z_CUT: )
(Tool: 1 -> Z_Cut: -2.5)

(Tools Offset: )
(Tool: 1 -> Offset Z: 0.0)

(Z_MOVE: )
(Tool: 1 -> Z_Move: 1.5)

(Z Toolchange: 15 mm)
(X,Y Toolchange: 0.0000, 0.0000 mm)
(Z Start: None mm)
(Z End: 2.5 mm)
(X,Y End: 0.0000, 0.0000 mm)
(Steps per circle: 64)
(Preprocessor Excellon: default)

(X range:    5.9000 ...   35.4400  mm)
(Y range:  -29.1000 ...   -3.8000  mm)

(Spindle Speed: 10000 RPM)
G21
G90
G94

G01 F25.00

M5
G00 Z15.0000
T1
G00 X0.0000 Y0.0000                
M6
(MSG, Change to Tool Dia = 1.0000 ||| Total drills for tool T1 = 24)
M0
G00 Z15.0000

G01 F25.00
M03 S10000
G00 X34.9400 Y-4.3000
G01 Z-2.5000
G01 Z0
G00 Z1.5000
G00 X32.4000 Y-4.3000
G01 Z-2.5000
G01 Z0
G00 Z1.5000
G00 X21.7000 Y-7.5000
G01 Z-2.5000
G01 Z0
G00 Z1.5000
G00 X21.7000 Y-10.0400
G01 Z-2.5000
G01 Z0
G00 Z1.5000
G00 X6.4000 Y-7.5000
G01 Z-2.5000
G01 Z0
G00 Z1.5000
G00 X6.4000 Y-10.0400
G01 Z-2.5000
G01 Z0
G00 Z1.5000
G00 X6.4000 Y-12.5800
G01 Z-2.5000
G01 Z0
G00 Z1.5000
G00 X6.4000 Y-15.1200
G01 Z-2.5000
G01 Z0
G00 Z1.5000
G00 X6.4000 Y-17.6600
G01 Z-2.5000
G01 Z0
G00 Z1.5000
G00 X6.4000 Y-20.2000
G01 Z-2.5000
G01 Z0
G00 Z1.5000
G00 X6.4000 Y-22.7400
G01 Z-2.5000
G01 Z0
G00 Z1.5000
G00 X6.4000 Y-25.2800
G01 Z-2.5000
G01 Z0
G00 Z1.5000
G00 X21.7000 Y-12.5800
G01 Z-2.5000
G01 Z0
G00 Z1.5000
G00 X21.7000 Y-15.1200
G01 Z-2.5000
G01 Z0
G00 Z1.5000
G00 X21.7000 Y-17.6600
G01 Z-2.5000
G01 Z0
G00 Z1.5000
G00 X21.7000 Y-20.2000
G01 Z-2.5000
G01 Z0
G00 Z1.5000
G00 X21.7000 Y-22.7400
G01 Z-2.5000
G01 Z0
G00 Z1.5000
G00 X21.7000 Y-25.2800
G01 Z-2.5000
G01 Z0
G00 Z1.5000
G00 X32.4000 Y-28.6000
G01 Z-2.5000
G01 Z0
G00 Z1.5000
G00 X34.9400 Y-28.6000
G01 Z-2.5000
G01 Z0
G00 Z1.5000
G00 X34.9400 Y-21.5000
G01 Z-2.5000
G01 Z0
G00 Z1.5000
G00 X32.4000 Y-21.5000
G01 Z-2.5000
G01 Z0
G00 Z1.5000
G00 X32.4000 Y-14.0000
G01 Z-2.5000
G01 Z0
G00 Z1.5000
G00 X34.9400 Y-14.0000
G01 Z-2.5000
G01 Z0
G00 Z1.5000
M05
G00 Z2.50
G00 X0.0 Y0.0


