(G-CODE GENERATED BY FLATCAM v8.994 - www.flatcam.org - Version Date: 2020/11/7)

(Name: C·mara-PTH.drl_cnc)
(Type: G-code from Geometry)
(Units: MM)

(Created on Thursday, 30 October 2025 at 10:26)

(This preprocessor is the default preprocessor used by FlatCAM.)
(It is made to work with MACH3 compatible motion controllers.)


(TOOLS DIAMETER: )
(Tool: 1 -> Dia: 1.0)

(FEEDRATE Z: )
(Tool: 1 -> Feedrate: 25.0)

(FEEDRATE RAPIDS: )
(Tool: 1 -> Feedrate Rapids: 1500.0)

(Z_CUT: )
(Tool: 1 -> Z_Cut: -2.5)

(Tools Offset: )
(Tool: 1 -> Offset Z: 0.0)

(Z_MOVE: )
(Tool: 1 -> Z_Move: 1.5)

(Z Toolchange: 15 mm)
(X,Y Toolchange: 0.0000, 0.0000 mm)
(Z Start: None mm)
(Z End: 2.5 mm)
(X,Y End: 0.0000, 0.0000 mm)
(Steps per circle: 64)
(Preprocessor Excellon: default)

(X range:    4.9000 ...   31.1000  mm)
(Y range:    9.3200 ...   28.1000  mm)

(Spindle Speed: 10000 RPM)
G21
G90
G94

G01 F25.00

M5
G00 Z15.0000
T1
G00 X0.0000 Y0.0000                
M6
(MSG, Change to Tool Dia = 1.0000 ||| Total drills for tool T1 = 18)
M0
G00 Z15.0000

G01 F25.00
M03 S10000
G00 X30.6000 Y27.6000
G01 Z-2.5000
G01 Z0
G00 Z1.5000
G00 X30.6000 Y25.0600
G01 Z-2.5000
G01 Z0
G00 Z1.5000
G00 X23.8000 Y25.0600
G01 Z-2.5000
G01 Z0
G00 Z1.5000
G00 X23.8000 Y22.5200
G01 Z-2.5000
G01 Z0
G00 Z1.5000
G00 X23.8000 Y19.9800
G01 Z-2.5000
G01 Z0
G00 Z1.5000
G00 X23.8000 Y17.4400
G01 Z-2.5000
G01 Z0
G00 Z1.5000
G00 X23.8000 Y14.9000
G01 Z-2.5000
G01 Z0
G00 Z1.5000
G00 X23.8000 Y12.3600
G01 Z-2.5000
G01 Z0
G00 Z1.5000
G00 X23.8000 Y9.8200
G01 Z-2.5000
G01 Z0
G00 Z1.5000
G00 X5.4000 Y9.8200
G01 Z-2.5000
G01 Z0
G00 Z1.5000
G00 X5.4000 Y12.3600
G01 Z-2.5000
G01 Z0
G00 Z1.5000
G00 X5.4000 Y14.9000
G01 Z-2.5000
G01 Z0
G00 Z1.5000
G00 X5.4000 Y17.4400
G01 Z-2.5000
G01 Z0
G00 Z1.5000
G00 X5.4000 Y19.9800
G01 Z-2.5000
G01 Z0
G00 Z1.5000
G00 X5.4000 Y22.5200
G01 Z-2.5000
G01 Z0
G00 Z1.5000
G00 X5.4000 Y25.0600
G01 Z-2.5000
G01 Z0
G00 Z1.5000
G00 X5.4000 Y27.6000
G01 Z-2.5000
G01 Z0
G00 Z1.5000
G00 X23.8000 Y27.6000
G01 Z-2.5000
G01 Z0
G00 Z1.5000
M05
G00 Z2.50
G00 X0.0 Y0.0


