(G-CODE GENERATED BY FLATCAM v8.994 - www.flatcam.org - Version Date: 2020/11/7)

(Name: Cįmara-Edge_Cuts.gbr_cutout_cnc)
(Type: G-code from Geometry)
(Units: MM)

(Created on Wednesday, 26 November 2025 at 22:09)

(This preprocessor is the default preprocessor used by FlatCAM.)
(It is made to work with MACH3 compatible motion controllers.)

(TOOL DIAMETER: 2.1 mm)
(Feedrate_XY: 25.0 mm/min)
(Feedrate_Z: 25.0 mm/min)
(Feedrate rapids 1500.0 mm/min)

(Z_Cut: -1.6 mm)
(DepthPerCut: 0.8 mm <=>2 passes)
(Z_Move: 2.0 mm)
(Z Start: None mm)
(Z End: 5.0 mm)
(X,Y End: 0.0000, 0.0000 mm)
(Steps per circle: 64)
(Preprocessor Geometry: default)

(X range:  -18.0750 ...   18.2750  mm)
(Y range:  -17.2750 ...   16.0750  mm)

(Spindle Speed: 10000.0 RPM)
G21
G90
G94

G01 F25.00

M5
G00 Z15.0000
G00 X0.0000 Y0.0000
T1
M6    
(MSG, Change to Tool Dia = 2.1000)
M0
G00 Z15.0000

M03 S10000.0
G01 F25.00
G00 X-1.3500 Y16.0750
G01 F25.00
G01 Z-0.8000
G01 F25.00
G01 X-16.9250 Y16.0750
G01 X-17.0377 Y16.0695
G01 X-17.1494 Y16.0529
G01 X-17.2588 Y16.0255
G01 X-17.3651 Y15.9875
G01 X-17.4671 Y15.9392
G01 X-17.5639 Y15.8812
G01 X-17.6546 Y15.8140
G01 X-17.7382 Y15.7382
G01 X-17.8140 Y15.6546
G01 X-17.8812 Y15.5639
G01 X-17.9392 Y15.4671
G01 X-17.9875 Y15.3651
G01 X-18.0255 Y15.2588
G01 X-18.0529 Y15.1494
G01 X-18.0695 Y15.0377
G01 X-18.0750 Y14.9250
G01 X-18.0750 Y-16.1250
G01 X-18.0695 Y-16.2377
G01 X-18.0529 Y-16.3494
G01 X-18.0255 Y-16.4588
G01 X-17.9875 Y-16.5651
G01 X-17.9392 Y-16.6671
G01 X-17.8812 Y-16.7639
G01 X-17.8140 Y-16.8546
G01 X-17.7382 Y-16.9382
G01 X-17.6546 Y-17.0140
G01 X-17.5639 Y-17.0812
G01 X-17.4671 Y-17.1392
G01 X-17.3651 Y-17.1875
G01 X-17.2588 Y-17.2255
G01 X-17.1494 Y-17.2529
G01 X-17.0377 Y-17.2695
G01 X-16.9250 Y-17.2750
G01 X-1.3500 Y-17.2750
G00 X-1.3500 Y-17.2750
G01 F25.00
G01 Z-1.6000
G01 F25.00
G01 X-16.9250 Y-17.2750
G01 X-17.0377 Y-17.2695
G01 X-17.1494 Y-17.2529
G01 X-17.2588 Y-17.2255
G01 X-17.3651 Y-17.1875
G01 X-17.4671 Y-17.1392
G01 X-17.5639 Y-17.0812
G01 X-17.6546 Y-17.0140
G01 X-17.7382 Y-16.9382
G01 X-17.8140 Y-16.8546
G01 X-17.8812 Y-16.7639
G01 X-17.9392 Y-16.6671
G01 X-17.9875 Y-16.5651
G01 X-18.0255 Y-16.4588
G01 X-18.0529 Y-16.3494
G01 X-18.0695 Y-16.2377
G01 X-18.0750 Y-16.1250
G01 X-18.0750 Y14.9250
G01 X-18.0695 Y15.0377
G01 X-18.0529 Y15.1494
G01 X-18.0255 Y15.2588
G01 X-17.9875 Y15.3651
G01 X-17.9392 Y15.4671
G01 X-17.8812 Y15.5639
G01 X-17.8140 Y15.6546
G01 X-17.7382 Y15.7382
G01 X-17.6546 Y15.8140
G01 X-17.5639 Y15.8812
G01 X-17.4671 Y15.9392
G01 X-17.3651 Y15.9875
G01 X-17.2588 Y16.0255
G01 X-17.1494 Y16.0529
G01 X-17.0377 Y16.0695
G01 X-16.9250 Y16.0750
G01 X-1.3500 Y16.0750
G00 Z2.0000
G00 X1.7500 Y16.0750
G01 F25.00
G01 Z-0.8000
G01 F25.00
G01 X17.1250 Y16.0750
G01 X17.2377 Y16.0695
G01 X17.3494 Y16.0529
G01 X17.4588 Y16.0255
G01 X17.5651 Y15.9875
G01 X17.6671 Y15.9392
G01 X17.7639 Y15.8812
G01 X17.8546 Y15.8140
G01 X17.9382 Y15.7382
G01 X18.0140 Y15.6546
G01 X18.0812 Y15.5639
G01 X18.1392 Y15.4671
G01 X18.1875 Y15.3651
G01 X18.2255 Y15.2588
G01 X18.2529 Y15.1494
G01 X18.2695 Y15.0377
G01 X18.2750 Y14.9250
G01 X18.2750 Y-16.1250
G01 X18.2695 Y-16.2377
G01 X18.2529 Y-16.3494
G01 X18.2255 Y-16.4588
G01 X18.1875 Y-16.5651
G01 X18.1392 Y-16.6671
G01 X18.0812 Y-16.7639
G01 X18.0140 Y-16.8546
G01 X17.9382 Y-16.9382
G01 X17.8546 Y-17.0140
G01 X17.7639 Y-17.0812
G01 X17.6671 Y-17.1392
G01 X17.5651 Y-17.1875
G01 X17.4588 Y-17.2255
G01 X17.3494 Y-17.2529
G01 X17.2377 Y-17.2695
G01 X17.1250 Y-17.2750
G01 X1.7500 Y-17.2750
G00 X1.7500 Y-17.2750
G01 F25.00
G01 Z-1.6000
G01 F25.00
G01 X17.1250 Y-17.2750
G01 X17.2377 Y-17.2695
G01 X17.3494 Y-17.2529
G01 X17.4588 Y-17.2255
G01 X17.5651 Y-17.1875
G01 X17.6671 Y-17.1392
G01 X17.7639 Y-17.0812
G01 X17.8546 Y-17.0140
G01 X17.9382 Y-16.9382
G01 X18.0140 Y-16.8546
G01 X18.0812 Y-16.7639
G01 X18.1392 Y-16.6671
G01 X18.1875 Y-16.5651
G01 X18.2255 Y-16.4588
G01 X18.2529 Y-16.3494
G01 X18.2695 Y-16.2377
G01 X18.2750 Y-16.1250
G01 X18.2750 Y14.9250
G01 X18.2695 Y15.0377
G01 X18.2529 Y15.1494
G01 X18.2255 Y15.2588
G01 X18.1875 Y15.3651
G01 X18.1392 Y15.4671
G01 X18.0812 Y15.5639
G01 X18.0140 Y15.6546
G01 X17.9382 Y15.7382
G01 X17.8546 Y15.8140
G01 X17.7639 Y15.8812
G01 X17.6671 Y15.9392
G01 X17.5651 Y15.9875
G01 X17.4588 Y16.0255
G01 X17.3494 Y16.0529
G01 X17.2377 Y16.0695
G01 X17.1250 Y16.0750
G01 X1.7500 Y16.0750
G00 Z2.0000
M05
G00 Z2.0000
G00 Z5.00
G00 X0.0 Y0.0


