(G-CODE GENERATED BY FLATCAM v8.994 - www.flatcam.org - Version Date: 2020/11/7)

(Name: C·mara-Edge_Cuts.gbr_cutout_cnc)
(Type: G-code from Geometry)
(Units: MM)

(Created on Thursday, 30 October 2025 at 12:13)

(This preprocessor is the default preprocessor used by FlatCAM.)
(It is made to work with MACH3 compatible motion controllers.)

(TOOL DIAMETER: 2.1 mm)
(Feedrate_XY: 25.0 mm/min)
(Feedrate_Z: 25.0 mm/min)
(Feedrate rapids 1500.0 mm/min)

(Z_Cut: -1.6 mm)
(Z_Move: 2.0 mm)
(Z Start: None mm)
(Z End: 2.5 mm)
(X,Y End: 0.0000, 0.0000 mm)
(Steps per circle: 64)
(Preprocessor Geometry: default)

(X range:    0.2250 ...   36.5750  mm)
(Y range:    0.7250 ...   34.0750  mm)

(Spindle Speed: 10000.0 RPM)
G21
G90
G94

G01 F25.00

M5
G00 Z15.0000
G00 X0.0000 Y0.0000
T1
M6    
(MSG, Change to Tool Dia = 2.1000)
M0
G00 Z15.0000

M03 S10000.0
G01 F25.00
G00 X16.4500 Y0.7250
G01 F25.00
G01 Z-1.6000
G01 F25.00
G01 X1.3750 Y0.7250
G01 X1.2623 Y0.7305
G01 X1.1506 Y0.7471
G01 X1.0412 Y0.7745
G01 X0.9349 Y0.8125
G01 X0.8329 Y0.8608
G01 X0.7361 Y0.9188
G01 X0.6454 Y0.9860
G01 X0.5618 Y1.0618
G01 X0.4860 Y1.1454
G01 X0.4188 Y1.2361
G01 X0.3608 Y1.3329
G01 X0.3125 Y1.4349
G01 X0.2745 Y1.5412
G01 X0.2471 Y1.6506
G01 X0.2305 Y1.7623
G01 X0.2250 Y1.8750
G01 X0.2250 Y32.9250
G01 X0.2305 Y33.0377
G01 X0.2471 Y33.1494
G01 X0.2745 Y33.2588
G01 X0.3125 Y33.3651
G01 X0.3608 Y33.4671
G01 X0.4188 Y33.5639
G01 X0.4860 Y33.6546
G01 X0.5618 Y33.7382
G01 X0.6454 Y33.8140
G01 X0.7361 Y33.8812
G01 X0.8329 Y33.9392
G01 X0.9349 Y33.9875
G01 X1.0412 Y34.0255
G01 X1.1506 Y34.0529
G01 X1.2623 Y34.0695
G01 X1.3750 Y34.0750
G01 X16.4500 Y34.0750
G00 Z2.0000
G00 X20.5500 Y34.0750
G01 F25.00
G01 Z-1.6000
G01 F25.00
G01 X35.4250 Y34.0750
G01 X35.5377 Y34.0695
G01 X35.6494 Y34.0529
G01 X35.7588 Y34.0255
G01 X35.8651 Y33.9875
G01 X35.9671 Y33.9392
G01 X36.0639 Y33.8812
G01 X36.1546 Y33.8140
G01 X36.2382 Y33.7382
G01 X36.3140 Y33.6546
G01 X36.3812 Y33.5639
G01 X36.4392 Y33.4671
G01 X36.4875 Y33.3651
G01 X36.5255 Y33.2588
G01 X36.5529 Y33.1494
G01 X36.5695 Y33.0377
G01 X36.5750 Y32.9250
G01 X36.5750 Y1.8750
G01 X36.5695 Y1.7623
G01 X36.5529 Y1.6506
G01 X36.5255 Y1.5412
G01 X36.4875 Y1.4349
G01 X36.4392 Y1.3329
G01 X36.3812 Y1.2361
G01 X36.3140 Y1.1454
G01 X36.2382 Y1.0618
G01 X36.1546 Y0.9860
G01 X36.0639 Y0.9188
G01 X35.9671 Y0.8608
G01 X35.8651 Y0.8125
G01 X35.7588 Y0.7745
G01 X35.6494 Y0.7471
G01 X35.5377 Y0.7305
G01 X35.4250 Y0.7250
G01 X20.5500 Y0.7250
G00 Z2.0000
M05
G00 Z2.0000
G00 Z2.50
G00 X0.0 Y0.0


