(G-CODE GENERATED BY FLATCAM v8.994 - www.flatcam.org - Version Date: 2020/11/7)

(Name: Módulo Cabeza-Edge_Cuts.gbr_cutout_cnc)
(Type: G-code from Geometry)
(Units: MM)

(Created on Thursday, 30 October 2025 at 12:14)

(This preprocessor is the default preprocessor used by FlatCAM.)
(It is made to work with MACH3 compatible motion controllers.)

(TOOL DIAMETER: 2.1 mm)
(Feedrate_XY: 25.0 mm/min)
(Feedrate_Z: 25.0 mm/min)
(Feedrate rapids 1500.0 mm/min)

(Z_Cut: -1.6 mm)
(Z_Move: 2.0 mm)
(Z Start: None mm)
(Z End: 2.5 mm)
(X,Y End: 0.0000, 0.0000 mm)
(Steps per circle: 64)
(Preprocessor Geometry: default)

(X range:    0.2250 ...   40.0750  mm)
(Y range:  -33.6750 ...    0.1750  mm)

(Spindle Speed: 10000.0 RPM)
G21
G90
G94

G01 F25.00

M5
G00 Z15.0000
G00 X0.0000 Y0.0000
T1
M6    
(MSG, Change to Tool Dia = 2.1000)
M0
G00 Z15.0000

M03 S10000.0
G01 F25.00
G00 X18.7000 Y0.1750
G01 F25.00
G01 Z-1.6000
G01 F25.00
G01 X1.3750 Y0.1750
G01 X1.2623 Y0.1695
G01 X1.1506 Y0.1529
G01 X1.0412 Y0.1255
G01 X0.9349 Y0.0875
G01 X0.8329 Y0.0392
G01 X0.7361 Y-0.0188
G01 X0.6454 Y-0.0860
G01 X0.5618 Y-0.1618
G01 X0.4860 Y-0.2454
G01 X0.4188 Y-0.3361
G01 X0.3608 Y-0.4329
G01 X0.3125 Y-0.5349
G01 X0.2745 Y-0.6412
G01 X0.2471 Y-0.7506
G01 X0.2305 Y-0.8623
G01 X0.2250 Y-0.9750
G01 X0.2250 Y-32.5250
G01 X0.2305 Y-32.6377
G01 X0.2471 Y-32.7494
G01 X0.2745 Y-32.8588
G01 X0.3125 Y-32.9651
G01 X0.3608 Y-33.0671
G01 X0.4188 Y-33.1639
G01 X0.4860 Y-33.2546
G01 X0.5618 Y-33.3382
G01 X0.6454 Y-33.4140
G01 X0.7361 Y-33.4812
G01 X0.8329 Y-33.5392
G01 X0.9349 Y-33.5875
G01 X1.0412 Y-33.6255
G01 X1.1506 Y-33.6529
G01 X1.2623 Y-33.6695
G01 X1.3750 Y-33.6750
G01 X18.7000 Y-33.6750
G00 Z2.0000
G00 X21.8000 Y0.1750
G01 F25.00
G01 Z-1.6000
G01 F25.00
G01 X38.9250 Y0.1750
G01 X39.0377 Y0.1695
G01 X39.1494 Y0.1529
G01 X39.2588 Y0.1255
G01 X39.3651 Y0.0875
G01 X39.4671 Y0.0392
G01 X39.5639 Y-0.0188
G01 X39.6546 Y-0.0860
G01 X39.7382 Y-0.1618
G01 X39.8140 Y-0.2454
G01 X39.8812 Y-0.3361
G01 X39.9392 Y-0.4329
G01 X39.9875 Y-0.5349
G01 X40.0255 Y-0.6412
G01 X40.0529 Y-0.7506
G01 X40.0695 Y-0.8623
G01 X40.0750 Y-0.9750
G01 X40.0750 Y-32.5250
G01 X40.0695 Y-32.6377
G01 X40.0529 Y-32.7494
G01 X40.0255 Y-32.8588
G01 X39.9875 Y-32.9651
G01 X39.9392 Y-33.0671
G01 X39.8812 Y-33.1639
G01 X39.8140 Y-33.2546
G01 X39.7382 Y-33.3382
G01 X39.6546 Y-33.4140
G01 X39.5639 Y-33.4812
G01 X39.4671 Y-33.5392
G01 X39.3651 Y-33.5875
G01 X39.2588 Y-33.6255
G01 X39.1494 Y-33.6529
G01 X39.0377 Y-33.6695
G01 X38.9250 Y-33.6750
G01 X21.8000 Y-33.6750
G00 Z2.0000
M05
G00 Z2.0000
G00 Z2.50
G00 X0.0 Y0.0


