(G-CODE GENERATED BY FLATCAM v8.994 - www.flatcam.org - Version Date: 2020/11/7)

(Name: M¾dulo Patas-Edge_Cuts.gbr_cutout_cnc)
(Type: G-code from Geometry)
(Units: MM)

(Created on Thursday, 30 October 2025 at 12:08)

(This preprocessor is the default preprocessor used by FlatCAM.)
(It is made to work with MACH3 compatible motion controllers.)

(TOOL DIAMETER: 2.1 mm)
(Feedrate_XY: 25.0 mm/min)
(Feedrate_Z: 25.0 mm/min)
(Feedrate rapids 1500.0 mm/min)

(Z_Cut: -1.6 mm)
(Z_Move: 2.0 mm)
(Z Start: None mm)
(Z End: 2.5 mm)
(X,Y End: 0.0000, 0.0000 mm)
(Steps per circle: 64)
(Preprocessor Geometry: default)

(X range:  -42.1750 ...    0.1750  mm)
(Y range:  -25.1750 ...   27.1750  mm)

(Spindle Speed: 10000.0 RPM)
G21
G90
G94

G01 F25.00

M5
G00 Z15.0000
G00 X0.0000 Y0.0000
T1
M6    
(MSG, Change to Tool Dia = 2.1000)
M0
G00 Z15.0000

M03 S10000.0
G01 F25.00
G00 X-19.3500 Y-25.1750
G01 F25.00
G01 Z-1.6000
G01 F25.00
G01 X-0.9750 Y-25.1750
G01 X-0.8623 Y-25.1695
G01 X-0.7506 Y-25.1529
G01 X-0.6412 Y-25.1255
G01 X-0.5349 Y-25.0875
G01 X-0.4329 Y-25.0392
G01 X-0.3361 Y-24.9812
G01 X-0.2454 Y-24.9140
G01 X-0.1618 Y-24.8382
G01 X-0.0860 Y-24.7546
G01 X-0.0188 Y-24.6639
G01 X0.0392 Y-24.5671
G01 X0.0875 Y-24.4651
G01 X0.1255 Y-24.3588
G01 X0.1529 Y-24.2494
G01 X0.1695 Y-24.1377
G01 X0.1750 Y-24.0250
G01 X0.1750 Y26.0250
G01 X0.1695 Y26.1377
G01 X0.1529 Y26.2494
G01 X0.1255 Y26.3588
G01 X0.0875 Y26.4651
G01 X0.0392 Y26.5671
G01 X-0.0188 Y26.6639
G01 X-0.0860 Y26.7546
G01 X-0.1618 Y26.8382
G01 X-0.2454 Y26.9140
G01 X-0.3361 Y26.9812
G01 X-0.4329 Y27.0392
G01 X-0.5349 Y27.0875
G01 X-0.6412 Y27.1255
G01 X-0.7506 Y27.1529
G01 X-0.8623 Y27.1695
G01 X-0.9750 Y27.1750
G01 X-19.3500 Y27.1750
G00 Z2.0000
G00 X-22.4500 Y-25.1750
G01 F25.00
G01 Z-1.6000
G01 F25.00
G01 X-41.0250 Y-25.1750
G01 X-41.1377 Y-25.1695
G01 X-41.2494 Y-25.1529
G01 X-41.3588 Y-25.1255
G01 X-41.4651 Y-25.0875
G01 X-41.5671 Y-25.0392
G01 X-41.6639 Y-24.9812
G01 X-41.7546 Y-24.9140
G01 X-41.8382 Y-24.8382
G01 X-41.9140 Y-24.7546
G01 X-41.9812 Y-24.6639
G01 X-42.0392 Y-24.5671
G01 X-42.0875 Y-24.4651
G01 X-42.1255 Y-24.3588
G01 X-42.1529 Y-24.2494
G01 X-42.1695 Y-24.1377
G01 X-42.1750 Y-24.0250
G01 X-42.1750 Y26.0250
G01 X-42.1695 Y26.1377
G01 X-42.1529 Y26.2494
G01 X-42.1255 Y26.3588
G01 X-42.0875 Y26.4651
G01 X-42.0392 Y26.5671
G01 X-41.9812 Y26.6639
G01 X-41.9140 Y26.7546
G01 X-41.8382 Y26.8382
G01 X-41.7546 Y26.9140
G01 X-41.6639 Y26.9812
G01 X-41.5671 Y27.0392
G01 X-41.4651 Y27.0875
G01 X-41.3588 Y27.1255
G01 X-41.2494 Y27.1529
G01 X-41.1377 Y27.1695
G01 X-41.0250 Y27.1750
G01 X-22.4500 Y27.1750
G00 Z2.0000
M05
G00 Z2.0000
G00 Z2.50
G00 X0.0 Y0.0


