(G-CODE GENERATED BY FLATCAM v8.994 - www.flatcam.org - Version Date: 2020/11/7)

(Name: Cįmara-B_Cu.gbr_ncc_cnc)
(Type: G-code from Geometry)
(Units: MM)

(Created on Thursday, 30 October 2025 at 10:11)

(This preprocessor is the default preprocessor used by FlatCAM.)
(It is made to work with MACH3 compatible motion controllers.)

(TOOL DIAMETER: 0.2 mm)
(Feedrate_XY: 120.0 mm/min)
(Feedrate_Z: 25.0 mm/min)
(Feedrate rapids 1500.0 mm/min)

(Z_Cut: -0.1866 mm)
(Z_Move: 2.0 mm)
(Z Start: None mm)
(Z End: 2.5 mm)
(X,Y End: 0.0000, 0.0000 mm)
(Steps per circle: 64)
(Preprocessor Geometry: default)

(X range:    4.1495 ...   31.8505  mm)
(Y range:    8.5695 ...   28.8505  mm)

(Spindle Speed: 10000.0 RPM)
G21
G90
G94

G01 F120.00

M5
G00 Z15.0000
G00 X0.0000 Y0.0000
T1
M6    
(MSG, Change to Tool Dia = 0.2000)
M0
G00 Z15.0000

M03 S10000.0
G01 F120.00
G00 X4.3305 Y9.1646
G01 F25.00
G01 Z-0.1866
G01 F120.00
G01 X4.2411 Y9.3400
G01 X4.1803 Y9.5272
G01 X4.1495 Y9.7216
G01 X4.1495 Y9.9184
G01 X4.1803 Y10.1128
G01 X4.2411 Y10.3000
G01 X4.3305 Y10.4754
G01 X4.4462 Y10.6346
G01 X4.5854 Y10.7738
G01 X4.7446 Y10.8895
G01 X4.7546 Y10.8951
G01 X4.7624 Y10.9006
G01 X4.7696 Y10.9068
G01 X4.8204 Y10.9548
G01 X4.8273 Y10.9620
G01 X4.8334 Y10.9698
G01 X4.8387 Y10.9782
G01 X4.8442 Y10.9893
G01 X4.8475 Y10.9987
G01 X4.8667 Y11.0761
G01 X4.8683 Y11.0884
G01 X4.8684 Y11.1008
G01 X4.8669 Y11.1132
G01 X4.8640 Y11.1252
G01 X4.8399 Y11.1960
G01 X4.8361 Y11.2048
G01 X4.8315 Y11.2132
G01 X4.8262 Y11.2212
G01 X4.8201 Y11.2286
G01 X4.8115 Y11.2370
G01 X4.7608 Y11.2806
G01 X4.7527 Y11.2860
G01 X4.7446 Y11.2905
G01 X4.5854 Y11.4062
G01 X4.4462 Y11.5454
G01 X4.3305 Y11.7046
G01 X4.2411 Y11.8800
G01 X4.1803 Y12.0672
G01 X4.1495 Y12.2616
G01 X4.1495 Y12.4584
G01 X4.1803 Y12.6528
G01 X4.2411 Y12.8400
G01 X4.3305 Y13.0154
G01 X4.4462 Y13.1746
G01 X4.5854 Y13.3138
G01 X4.7446 Y13.4295
G01 X4.7546 Y13.4351
G01 X4.7624 Y13.4406
G01 X4.7696 Y13.4468
G01 X4.8204 Y13.4948
G01 X4.8273 Y13.5020
G01 X4.8334 Y13.5098
G01 X4.8399 Y13.5203
G01 X4.8442 Y13.5293
G01 X4.8475 Y13.5387
G01 X4.8662 Y13.6137
G01 X4.8681 Y13.6259
G01 X4.8685 Y13.6383
G01 X4.8673 Y13.6507
G01 X4.8647 Y13.6628
G01 X4.8399 Y13.7360
G01 X4.8361 Y13.7448
G01 X4.8315 Y13.7532
G01 X4.8262 Y13.7612
G01 X4.8201 Y13.7686
G01 X4.8115 Y13.7770
G01 X4.7608 Y13.8206
G01 X4.7527 Y13.8260
G01 X4.7446 Y13.8305
G01 X4.5854 Y13.9462
G01 X4.4462 Y14.0854
G01 X4.3305 Y14.2446
G01 X4.2411 Y14.4200
G01 X4.1803 Y14.6072
G01 X4.1495 Y14.8016
G01 X4.1495 Y14.9984
G01 X4.1803 Y15.1928
G01 X4.2411 Y15.3800
G01 X4.3305 Y15.5554
G01 X4.4462 Y15.7146
G01 X4.5854 Y15.8538
G01 X4.7446 Y15.9695
G01 X4.7546 Y15.9751
G01 X4.7624 Y15.9806
G01 X4.7696 Y15.9868
G01 X4.8204 Y16.0348
G01 X4.8273 Y16.0420
G01 X4.8334 Y16.0498
G01 X4.8399 Y16.0603
G01 X4.8442 Y16.0693
G01 X4.8475 Y16.0787
G01 X4.8662 Y16.1537
G01 X4.8681 Y16.1659
G01 X4.8685 Y16.1783
G01 X4.8673 Y16.1907
G01 X4.8647 Y16.2028
G01 X4.8399 Y16.2760
G01 X4.8361 Y16.2848
G01 X4.8315 Y16.2932
G01 X4.8262 Y16.3012
G01 X4.8201 Y16.3086
G01 X4.8115 Y16.3170
G01 X4.7608 Y16.3606
G01 X4.7527 Y16.3660
G01 X4.7446 Y16.3705
G01 X4.5854 Y16.4862
G01 X4.4462 Y16.6254
G01 X4.3305 Y16.7846
G01 X4.2411 Y16.9600
G01 X4.1803 Y17.1472
G01 X4.1495 Y17.3416
G01 X4.1495 Y17.5384
G01 X4.1803 Y17.7328
G01 X4.2411 Y17.9200
G01 X4.3305 Y18.0954
G01 X4.4462 Y18.2546
G01 X4.5854 Y18.3938
G01 X4.7446 Y18.5095
G01 X4.7546 Y18.5151
G01 X4.7624 Y18.5206
G01 X4.7696 Y18.5268
G01 X4.8204 Y18.5748
G01 X4.8273 Y18.5820
G01 X4.8334 Y18.5898
G01 X4.8387 Y18.5982
G01 X4.8442 Y18.6093
G01 X4.8475 Y18.6187
G01 X4.8662 Y18.6937
G01 X4.8681 Y18.7059
G01 X4.8685 Y18.7159
G01 X4.8682 Y18.7233
G01 X4.8673 Y18.7307
G01 X4.8647 Y18.7428
G01 X4.8399 Y18.8160
G01 X4.8361 Y18.8248
G01 X4.8315 Y18.8332
G01 X4.8276 Y18.8393
G01 X4.8217 Y18.8468
G01 X4.8168 Y18.8521
G01 X4.8115 Y18.8570
G01 X4.7608 Y18.9006
G01 X4.7527 Y18.9060
G01 X4.7446 Y18.9105
G01 X4.5854 Y19.0262
G01 X4.4462 Y19.1654
G01 X4.3305 Y19.3246
G01 X4.2411 Y19.5000
G01 X4.1803 Y19.6872
G01 X4.1495 Y19.8816
G01 X4.1495 Y20.0784
G01 X4.1803 Y20.2728
G01 X4.2411 Y20.4600
G01 X4.3305 Y20.6354
G01 X4.4462 Y20.7946
G01 X4.5854 Y20.9338
G01 X4.7446 Y21.0495
G01 X4.7546 Y21.0551
G01 X4.7624 Y21.0606
G01 X4.7696 Y21.0668
G01 X4.8204 Y21.1148
G01 X4.8273 Y21.1220
G01 X4.8334 Y21.1298
G01 X4.8387 Y21.1382
G01 X4.8442 Y21.1493
G01 X4.8475 Y21.1587
G01 X4.8662 Y21.2337
G01 X4.8681 Y21.2459
G01 X4.8685 Y21.2559
G01 X4.8682 Y21.2633
G01 X4.8673 Y21.2707
G01 X4.8647 Y21.2828
G01 X4.8399 Y21.3560
G01 X4.8361 Y21.3648
G01 X4.8315 Y21.3732
G01 X4.8276 Y21.3793
G01 X4.8217 Y21.3868
G01 X4.8168 Y21.3921
G01 X4.8115 Y21.3970
G01 X4.7608 Y21.4406
G01 X4.7527 Y21.4460
G01 X4.7446 Y21.4505
G01 X4.5854 Y21.5662
G01 X4.4462 Y21.7054
G01 X4.3305 Y21.8646
G01 X4.2411 Y22.0400
G01 X4.1803 Y22.2272
G01 X4.1495 Y22.4216
G01 X4.1495 Y22.6184
G01 X4.1803 Y22.8128
G01 X4.2411 Y23.0000
G01 X4.3305 Y23.1754
G01 X4.4462 Y23.3346
G01 X4.5854 Y23.4738
G01 X4.7446 Y23.5895
G01 X4.7546 Y23.5951
G01 X4.7624 Y23.6006
G01 X4.7696 Y23.6068
G01 X4.8204 Y23.6548
G01 X4.8273 Y23.6620
G01 X4.8334 Y23.6698
G01 X4.8399 Y23.6803
G01 X4.8442 Y23.6893
G01 X4.8475 Y23.6987
G01 X4.8662 Y23.7737
G01 X4.8681 Y23.7859
G01 X4.8685 Y23.7959
G01 X4.8682 Y23.8033
G01 X4.8673 Y23.8107
G01 X4.8647 Y23.8228
G01 X4.8399 Y23.8960
G01 X4.8361 Y23.9048
G01 X4.8315 Y23.9132
G01 X4.8276 Y23.9193
G01 X4.8217 Y23.9268
G01 X4.8168 Y23.9321
G01 X4.8115 Y23.9370
G01 X4.7608 Y23.9806
G01 X4.7527 Y23.9860
G01 X4.7446 Y23.9905
G01 X4.5854 Y24.1062
G01 X4.4462 Y24.2454
G01 X4.3305 Y24.4046
G01 X4.2411 Y24.5800
G01 X4.1803 Y24.7672
G01 X4.1495 Y24.9616
G01 X4.1495 Y25.1584
G01 X4.1803 Y25.3528
G01 X4.2411 Y25.5400
G01 X4.3305 Y25.7154
G01 X4.4462 Y25.8746
G01 X4.5558 Y25.9843
G01 X4.5620 Y25.9915
G01 X4.5676 Y25.9993
G01 X4.6047 Y26.0667
G01 X4.6090 Y26.0757
G01 X4.6124 Y26.0850
G01 X4.6149 Y26.0946
G01 X4.6164 Y26.1044
G01 X4.6169 Y26.1143
G01 X4.6167 Y26.1218
G01 X4.6115 Y26.1939
G01 X4.6095 Y26.2062
G01 X4.6061 Y26.2181
G01 X4.6011 Y26.2295
G01 X4.5949 Y26.2402
G01 X4.5470 Y26.3042
G01 X4.5419 Y26.3098
G01 X4.5365 Y26.3150
G01 X4.5266 Y26.3228
G01 X4.5180 Y26.3280
G01 X4.4828 Y26.3471
G01 X4.4740 Y26.3509
G01 X4.3561 Y26.3949
G01 X4.2639 Y26.4639
G01 X4.1949 Y26.5561
G01 X4.1540 Y26.6657
G01 X4.1495 Y26.7075
G01 X4.1495 Y28.4925
G01 X4.1540 Y28.5343
G01 X4.1949 Y28.6439
G01 X4.2639 Y28.7361
G01 X4.3561 Y28.8051
G01 X4.4657 Y28.8460
G01 X4.5075 Y28.8505
G01 X6.2925 Y28.8505
G01 X6.3343 Y28.8460
G01 X6.4439 Y28.8051
G01 X6.5361 Y28.7361
G01 X6.6051 Y28.6439
G01 X6.6460 Y28.5343
G01 X6.6505 Y28.4925
G01 X6.6505 Y26.7075
G01 X6.6460 Y26.6657
G01 X6.6051 Y26.5561
G01 X6.5361 Y26.4639
G01 X6.4439 Y26.3949
G01 X6.3260 Y26.3509
G01 X6.3151 Y26.3461
G01 X6.3069 Y26.3413
G01 X6.3010 Y26.3372
G01 X6.2451 Y26.2954
G01 X6.2374 Y26.2890
G01 X6.2288 Y26.2801
G01 X6.2214 Y26.2702
G01 X6.2152 Y26.2594
G01 X6.2113 Y26.2503
G01 X6.1869 Y26.1848
G01 X6.1845 Y26.1777
G01 X6.1827 Y26.1705
G01 X6.1812 Y26.1607
G01 X6.1806 Y26.1508
G01 X6.1810 Y26.1409
G01 X6.1829 Y26.1286
G01 X6.1989 Y26.0554
G01 X6.2011 Y26.0482
G01 X6.2039 Y26.0412
G01 X6.2073 Y26.0344
G01 X6.2111 Y26.0279
G01 X6.2365 Y25.9934
G01 X6.2442 Y25.9843
G01 X6.3538 Y25.8746
G01 X6.4695 Y25.7154
G01 X6.5589 Y25.5400
G01 X6.6197 Y25.3528
G01 X6.6505 Y25.1584
G01 X6.6505 Y24.9616
G01 X6.6197 Y24.7672
G01 X6.5589 Y24.5800
G01 X6.4695 Y24.4046
G01 X6.3538 Y24.2454
G01 X6.2146 Y24.1062
G01 X6.0554 Y23.9905
G01 X6.0454 Y23.9849
G01 X6.0376 Y23.9794
G01 X6.0304 Y23.9732
G01 X5.9796 Y23.9252
G01 X5.9727 Y23.9180
G01 X5.9666 Y23.9102
G01 X5.9601 Y23.8997
G01 X5.9558 Y23.8907
G01 X5.9525 Y23.8813
G01 X5.9333 Y23.8039
G01 X5.9317 Y23.7916
G01 X5.9316 Y23.7792
G01 X5.9331 Y23.7668
G01 X5.9360 Y23.7548
G01 X5.9601 Y23.6840
G01 X5.9639 Y23.6752
G01 X5.9685 Y23.6667
G01 X5.9738 Y23.6588
G01 X5.9799 Y23.6514
G01 X5.9885 Y23.6430
G01 X6.0392 Y23.5994
G01 X6.0473 Y23.5940
G01 X6.0554 Y23.5895
G01 X6.2146 Y23.4738
G01 X6.3538 Y23.3346
G01 X6.4695 Y23.1754
G01 X6.5589 Y23.0000
G01 X6.6197 Y22.8128
G01 X6.6505 Y22.6184
G01 X6.6505 Y22.4216
G01 X6.6197 Y22.2272
G01 X6.5589 Y22.0400
G01 X6.4695 Y21.8646
G01 X6.3538 Y21.7054
G01 X6.2146 Y21.5662
G01 X6.0554 Y21.4505
G01 X6.0454 Y21.4449
G01 X6.0376 Y21.4394
G01 X6.0304 Y21.4332
G01 X5.9796 Y21.3852
G01 X5.9727 Y21.3780
G01 X5.9666 Y21.3702
G01 X5.9613 Y21.3618
G01 X5.9558 Y21.3507
G01 X5.9525 Y21.3413
G01 X5.9338 Y21.2663
G01 X5.9319 Y21.2540
G01 X5.9315 Y21.2416
G01 X5.9327 Y21.2293
G01 X5.9353 Y21.2172
G01 X5.9601 Y21.1440
G01 X5.9639 Y21.1352
G01 X5.9685 Y21.1267
G01 X5.9738 Y21.1188
G01 X5.9799 Y21.1114
G01 X5.9885 Y21.1030
G01 X6.0392 Y21.0594
G01 X6.0473 Y21.0540
G01 X6.0554 Y21.0495
G01 X6.2146 Y20.9338
G01 X6.3538 Y20.7946
G01 X6.4695 Y20.6354
G01 X6.5589 Y20.4600
G01 X6.6197 Y20.2728
G01 X6.6505 Y20.0784
G01 X6.6505 Y19.8816
G01 X6.6197 Y19.6872
G01 X6.5589 Y19.5000
G01 X6.4695 Y19.3246
G01 X6.3538 Y19.1654
G01 X6.2146 Y19.0262
G01 X6.0554 Y18.9105
G01 X6.0454 Y18.9049
G01 X6.0376 Y18.8994
G01 X6.0304 Y18.8932
G01 X5.9796 Y18.8452
G01 X5.9727 Y18.8380
G01 X5.9666 Y18.8302
G01 X5.9601 Y18.8197
G01 X5.9558 Y18.8107
G01 X5.9525 Y18.8013
G01 X5.9338 Y18.7263
G01 X5.9319 Y18.7140
G01 X5.9315 Y18.7016
G01 X5.9327 Y18.6893
G01 X5.9353 Y18.6772
G01 X5.9601 Y18.6040
G01 X5.9639 Y18.5952
G01 X5.9685 Y18.5867
G01 X5.9738 Y18.5788
G01 X5.9799 Y18.5714
G01 X5.9885 Y18.5630
G01 X6.0392 Y18.5194
G01 X6.0473 Y18.5140
G01 X6.0554 Y18.5095
G01 X6.2146 Y18.3938
G01 X6.3538 Y18.2546
G01 X6.4695 Y18.0954
G01 X6.5589 Y17.9200
G01 X6.6197 Y17.7328
G01 X6.6505 Y17.5384
G01 X6.6505 Y17.3416
G01 X6.6197 Y17.1472
G01 X6.5589 Y16.9600
G01 X6.4695 Y16.7846
G01 X6.3538 Y16.6254
G01 X6.2146 Y16.4862
G01 X6.0554 Y16.3705
G01 X6.0454 Y16.3649
G01 X6.0376 Y16.3594
G01 X6.0304 Y16.3532
G01 X5.9796 Y16.3052
G01 X5.9727 Y16.2980
G01 X5.9666 Y16.2902
G01 X5.9601 Y16.2797
G01 X5.9558 Y16.2707
G01 X5.9525 Y16.2613
G01 X5.9338 Y16.1863
G01 X5.9319 Y16.1740
G01 X5.9315 Y16.1616
G01 X5.9327 Y16.1493
G01 X5.9353 Y16.1372
G01 X5.9601 Y16.0640
G01 X5.9639 Y16.0552
G01 X5.9685 Y16.0467
G01 X5.9738 Y16.0388
G01 X5.9799 Y16.0314
G01 X5.9885 Y16.0230
G01 X6.0392 Y15.9794
G01 X6.0473 Y15.9740
G01 X6.0554 Y15.9695
G01 X6.2146 Y15.8538
G01 X6.3538 Y15.7146
G01 X6.4695 Y15.5554
G01 X6.5589 Y15.3800
G01 X6.6197 Y15.1928
G01 X6.6505 Y14.9984
G01 X6.6505 Y14.8016
G01 X6.6197 Y14.6072
G01 X6.5589 Y14.4200
G01 X6.4695 Y14.2446
G01 X6.3538 Y14.0854
G01 X6.2146 Y13.9462
G01 X6.0554 Y13.8305
G01 X6.0454 Y13.8249
G01 X6.0376 Y13.8194
G01 X6.0304 Y13.8132
G01 X5.9796 Y13.7652
G01 X5.9727 Y13.7580
G01 X5.9666 Y13.7502
G01 X5.9601 Y13.7397
G01 X5.9558 Y13.7307
G01 X5.9525 Y13.7213
G01 X5.9338 Y13.6463
G01 X5.9319 Y13.6340
G01 X5.9315 Y13.6216
G01 X5.9327 Y13.6093
G01 X5.9353 Y13.5972
G01 X5.9601 Y13.5240
G01 X5.9639 Y13.5152
G01 X5.9685 Y13.5067
G01 X5.9738 Y13.4988
G01 X5.9799 Y13.4914
G01 X5.9885 Y13.4830
G01 X6.0392 Y13.4394
G01 X6.0473 Y13.4340
G01 X6.0554 Y13.4295
G01 X6.2146 Y13.3138
G01 X6.3538 Y13.1746
G01 X6.4695 Y13.0154
G01 X6.5589 Y12.8400
G01 X6.6197 Y12.6528
G01 X6.6505 Y12.4584
G01 X6.6505 Y12.2616
G01 X6.6197 Y12.0672
G01 X6.5589 Y11.8800
G01 X6.4695 Y11.7046
G01 X6.3538 Y11.5454
G01 X6.2146 Y11.4062
G01 X6.0554 Y11.2905
G01 X6.0454 Y11.2849
G01 X6.0376 Y11.2794
G01 X6.0304 Y11.2732
G01 X5.9796 Y11.2252
G01 X5.9727 Y11.2180
G01 X5.9652 Y11.2082
G01 X5.9601 Y11.1997
G01 X5.9558 Y11.1907
G01 X5.9525 Y11.1813
G01 X5.9338 Y11.1063
G01 X5.9319 Y11.0940
G01 X5.9315 Y11.0816
G01 X5.9327 Y11.0693
G01 X5.9353 Y11.0572
G01 X5.9601 Y10.9840
G01 X5.9639 Y10.9752
G01 X5.9685 Y10.9667
G01 X5.9738 Y10.9588
G01 X5.9799 Y10.9514
G01 X5.9885 Y10.9430
G01 X6.0392 Y10.8994
G01 X6.0473 Y10.8940
G01 X6.0554 Y10.8895
G01 X6.2146 Y10.7738
G01 X6.3538 Y10.6346
G01 X6.4695 Y10.4754
G01 X6.5589 Y10.3000
G01 X6.6197 Y10.1128
G01 X6.6505 Y9.9184
G01 X6.6505 Y9.7216
G01 X6.6197 Y9.5272
G01 X6.5589 Y9.3400
G01 X6.4695 Y9.1646
G01 X6.3538 Y9.0054
G01 X6.2146 Y8.8662
G01 X6.0554 Y8.7505
G01 X5.8800 Y8.6611
G01 X5.6928 Y8.6003
G01 X5.4984 Y8.5695
G01 X5.3016 Y8.5695
G01 X5.1072 Y8.6003
G01 X4.9200 Y8.6611
G01 X4.7446 Y8.7505
G01 X4.5854 Y8.8662
G01 X4.4462 Y9.0054
G01 X4.3305 Y9.1646
G00 Z2.0000
G00 X5.3951 Y8.8701
G01 F25.00
G01 Z-0.1866
G01 F120.00
G01 X5.4049 Y8.8701
G01 X5.4931 Y8.8746
G01 X5.5853 Y8.8883
G01 X5.6758 Y8.9109
G01 X5.7635 Y8.9423
G01 X5.8478 Y8.9822
G01 X5.9278 Y9.0301
G01 X6.0027 Y9.0856
G01 X6.0718 Y9.1482
G01 X6.1344 Y9.2173
G01 X6.1899 Y9.2922
G01 X6.2378 Y9.3722
G01 X6.2777 Y9.4565
G01 X6.3091 Y9.5442
G01 X6.3317 Y9.6347
G01 X6.3454 Y9.7269
G01 X6.3500 Y9.8200
G01 X6.3454 Y9.9131
G01 X6.3317 Y10.0053
G01 X6.3091 Y10.0958
G01 X6.2777 Y10.1835
G01 X6.2378 Y10.2678
G01 X6.1899 Y10.3478
G01 X6.1344 Y10.4227
G01 X6.0718 Y10.4918
G01 X6.0027 Y10.5544
G01 X5.9278 Y10.6099
G01 X5.8478 Y10.6578
G01 X5.7635 Y10.6977
G01 X5.6758 Y10.7291
G01 X5.5853 Y10.7517
G01 X5.4931 Y10.7654
G01 X5.4000 Y10.7700
G01 X5.3069 Y10.7654
G01 X5.2147 Y10.7517
G01 X5.1242 Y10.7291
G01 X5.0365 Y10.6977
G01 X4.9522 Y10.6578
G01 X4.8722 Y10.6099
G01 X4.7973 Y10.5544
G01 X4.7282 Y10.4918
G01 X4.6656 Y10.4227
G01 X4.6101 Y10.3478
G01 X4.5622 Y10.2678
G01 X4.5223 Y10.1835
G01 X4.4909 Y10.0958
G01 X4.4683 Y10.0053
G01 X4.4546 Y9.9131
G01 X4.4500 Y9.8200
G01 X4.4546 Y9.7269
G01 X4.4683 Y9.6347
G01 X4.4909 Y9.5442
G01 X4.5223 Y9.4565
G01 X4.5622 Y9.3722
G01 X4.6101 Y9.2922
G01 X4.6656 Y9.2173
G01 X4.7282 Y9.1482
G01 X4.7973 Y9.0856
G01 X4.8722 Y9.0301
G01 X4.9522 Y8.9822
G01 X5.0365 Y8.9423
G01 X5.1242 Y8.9109
G01 X5.2147 Y8.8883
G01 X5.3069 Y8.8746
G01 X5.3951 Y8.8701
G00 Z2.0000
G00 X5.7737 Y11.2734
G01 F25.00
G01 Z-0.1866
G01 F120.00
G01 X5.7665 Y11.2555
G01 X5.7596 Y11.2342
G01 X5.7380 Y11.1471
G01 X5.7353 Y11.1325
G01 X5.7330 Y11.1152
G01 X5.7319 Y11.1004
G01 X5.7315 Y11.0805
G01 X5.7321 Y11.0656
G01 X5.7337 Y11.0483
G01 X5.7367 Y11.0287
G01 X5.7405 Y11.0117
G01 X5.7437 Y10.9998
G01 X5.7475 Y10.9879
G01 X5.7700 Y10.9218
G01 X5.7760 Y10.9058
G01 X5.7432 Y10.9175
G01 X5.7244 Y10.9232
G01 X5.6363 Y10.9453
G01 X5.6147 Y10.9497
G01 X5.5273 Y10.9627
G01 X5.5103 Y10.9647
G01 X5.4147 Y10.9696
G01 X5.4025 Y10.9700
G01 X5.3853 Y10.9696
G01 X5.2897 Y10.9647
G01 X5.2727 Y10.9627
G01 X5.1853 Y10.9497
G01 X5.1637 Y10.9453
G01 X5.0756 Y10.9232
G01 X5.0568 Y10.9175
G01 X5.0263 Y10.9066
G01 X5.0335 Y10.9245
G01 X5.0404 Y10.9458
G01 X5.0620 Y11.0329
G01 X5.0647 Y11.0475
G01 X5.0670 Y11.0647
G01 X5.0683 Y11.0846
G01 X5.0685 Y11.0995
G01 X5.0678 Y11.1168
G01 X5.0657 Y11.1366
G01 X5.0633 Y11.1513
G01 X5.0595 Y11.1683
G01 X5.0563 Y11.1802
G01 X5.0525 Y11.1921
G01 X5.0300 Y11.2582
G01 X5.0240 Y11.2742
G01 X5.0568 Y11.2625
G01 X5.0756 Y11.2568
G01 X5.1637 Y11.2347
G01 X5.1853 Y11.2303
G01 X5.2727 Y11.2173
G01 X5.2897 Y11.2153
G01 X5.3853 Y11.2104
G01 X5.3975 Y11.2100
G01 X5.4147 Y11.2104
G01 X5.5103 Y11.2153
G01 X5.5273 Y11.2173
G01 X5.6147 Y11.2303
G01 X5.6363 Y11.2347
G01 X5.7244 Y11.2568
G01 X5.7432 Y11.2625
G01 X5.7737 Y11.2734
G01 X5.3951 Y11.4101
G01 X5.4049 Y11.4101
G01 X5.4931 Y11.4146
G01 X5.5805 Y11.4274
G01 X5.5901 Y11.4293
G01 X5.6710 Y11.4496
G01 X5.6804 Y11.4524
G01 X5.7635 Y11.4823
G01 X5.8478 Y11.5222
G01 X5.9278 Y11.5701
G01 X6.0027 Y11.6256
G01 X6.0718 Y11.6882
G01 X6.1344 Y11.7573
G01 X6.1899 Y11.8322
G01 X6.2354 Y11.9079
G01 X6.2400 Y11.9166
G01 X6.2777 Y11.9965
G01 X6.3076 Y12.0796
G01 X6.3104 Y12.0890
G01 X6.3307 Y12.1699
G01 X6.3326 Y12.1795
G01 X6.3454 Y12.2669
G01 X6.3499 Y12.3551
G01 X6.3499 Y12.3649
G01 X6.3458 Y12.4482
G01 X6.3448 Y12.4580
G01 X6.3317 Y12.5453
G01 X6.3104 Y12.6310
G01 X6.3076 Y12.6404
G01 X6.2777 Y12.7235
G01 X6.2378 Y12.8078
G01 X6.1899 Y12.8878
G01 X6.1344 Y12.9627
G01 X6.0718 Y13.0318
G01 X6.0064 Y13.0912
G01 X5.9988 Y13.0974
G01 X5.9278 Y13.1499
G01 X5.8521 Y13.1954
G01 X5.8434 Y13.2000
G01 X5.7680 Y13.2357
G01 X5.7590 Y13.2395
G01 X5.6758 Y13.2691
G01 X5.5853 Y13.2917
G01 X5.4931 Y13.3054
G01 X5.4000 Y13.3100
G01 X5.3069 Y13.3054
G01 X5.2147 Y13.2917
G01 X5.1242 Y13.2691
G01 X5.0365 Y13.2377
G01 X4.9522 Y13.1978
G01 X4.8722 Y13.1499
G01 X4.7973 Y13.0944
G01 X4.7282 Y13.0318
G01 X4.6656 Y12.9627
G01 X4.6101 Y12.8878
G01 X4.5622 Y12.8078
G01 X4.5223 Y12.7235
G01 X4.4909 Y12.6358
G01 X4.4683 Y12.5453
G01 X4.4546 Y12.4531
G01 X4.4500 Y12.3600
G01 X4.4546 Y12.2669
G01 X4.4683 Y12.1747
G01 X4.4909 Y12.0842
G01 X4.5223 Y11.9965
G01 X4.5622 Y11.9122
G01 X4.6101 Y11.8322
G01 X4.6656 Y11.7573
G01 X4.7282 Y11.6882
G01 X4.7973 Y11.6256
G01 X4.8722 Y11.5701
G01 X4.9522 Y11.5222
G01 X5.0365 Y11.4823
G01 X5.1242 Y11.4509
G01 X5.2147 Y11.4283
G01 X5.3069 Y11.4146
G01 X5.3951 Y11.4101
G00 Z2.0000
G00 X5.7737 Y13.8134
G01 F25.00
G01 Z-0.1866
G01 F120.00
G01 X5.7665 Y13.7955
G01 X5.7596 Y13.7742
G01 X5.7380 Y13.6871
G01 X5.7353 Y13.6725
G01 X5.7330 Y13.6552
G01 X5.7319 Y13.6404
G01 X5.7315 Y13.6205
G01 X5.7321 Y13.6056
G01 X5.7337 Y13.5883
G01 X5.7367 Y13.5687
G01 X5.7405 Y13.5517
G01 X5.7437 Y13.5398
G01 X5.7475 Y13.5279
G01 X5.7700 Y13.4618
G01 X5.7760 Y13.4458
G01 X5.7432 Y13.4575
G01 X5.7244 Y13.4632
G01 X5.6363 Y13.4853
G01 X5.6147 Y13.4897
G01 X5.5273 Y13.5027
G01 X5.5103 Y13.5047
G01 X5.4980 Y13.5055
G01 X5.4025 Y13.5100
G01 X5.3853 Y13.5096
G01 X5.2897 Y13.5047
G01 X5.2727 Y13.5027
G01 X5.1853 Y13.4897
G01 X5.1637 Y13.4853
G01 X5.0756 Y13.4632
G01 X5.0568 Y13.4575
G01 X5.0263 Y13.4466
G01 X5.0335 Y13.4645
G01 X5.0404 Y13.4858
G01 X5.0620 Y13.5729
G01 X5.0651 Y13.5900
G01 X5.0670 Y13.6047
G01 X5.0683 Y13.6246
G01 X5.0685 Y13.6395
G01 X5.0679 Y13.6543
G01 X5.0663 Y13.6717
G01 X5.0633 Y13.6913
G01 X5.0595 Y13.7083
G01 X5.0563 Y13.7202
G01 X5.0525 Y13.7321
G01 X5.0300 Y13.7982
G01 X5.0240 Y13.8142
G01 X5.0568 Y13.8025
G01 X5.0756 Y13.7968
G01 X5.1637 Y13.7747
G01 X5.1853 Y13.7703
G01 X5.2727 Y13.7573
G01 X5.2897 Y13.7553
G01 X5.3853 Y13.7504
G01 X5.3975 Y13.7500
G01 X5.4147 Y13.7504
G01 X5.5103 Y13.7553
G01 X5.5273 Y13.7573
G01 X5.6147 Y13.7703
G01 X5.6363 Y13.7747
G01 X5.7244 Y13.7968
G01 X5.7432 Y13.8025
G01 X5.7737 Y13.8134
G01 X5.3951 Y13.9501
G01 X5.4049 Y13.9501
G01 X5.4931 Y13.9546
G01 X5.5805 Y13.9674
G01 X5.5901 Y13.9693
G01 X5.6710 Y13.9896
G01 X5.6804 Y13.9924
G01 X5.7635 Y14.0223
G01 X5.8478 Y14.0622
G01 X5.9278 Y14.1101
G01 X6.0027 Y14.1656
G01 X6.0718 Y14.2282
G01 X6.1344 Y14.2973
G01 X6.1899 Y14.3722
G01 X6.2354 Y14.4479
G01 X6.2400 Y14.4566
G01 X6.2777 Y14.5365
G01 X6.3076 Y14.6196
G01 X6.3104 Y14.6290
G01 X6.3307 Y14.7099
G01 X6.3326 Y14.7195
G01 X6.3454 Y14.8069
G01 X6.3499 Y14.8951
G01 X6.3499 Y14.9049
G01 X6.3458 Y14.9882
G01 X6.3448 Y14.9980
G01 X6.3317 Y15.0853
G01 X6.3104 Y15.1710
G01 X6.3076 Y15.1804
G01 X6.2777 Y15.2635
G01 X6.2378 Y15.3478
G01 X6.1899 Y15.4278
G01 X6.1344 Y15.5027
G01 X6.0718 Y15.5718
G01 X6.0027 Y15.6344
G01 X5.9278 Y15.6899
G01 X5.8521 Y15.7354
G01 X5.8434 Y15.7400
G01 X5.7680 Y15.7757
G01 X5.7590 Y15.7795
G01 X5.6758 Y15.8091
G01 X5.5901 Y15.8307
G01 X5.5805 Y15.8326
G01 X5.4931 Y15.8454
G01 X5.4000 Y15.8500
G01 X5.3069 Y15.8454
G01 X5.2147 Y15.8317
G01 X5.1242 Y15.8091
G01 X5.0365 Y15.7777
G01 X4.9522 Y15.7378
G01 X4.8722 Y15.6899
G01 X4.7973 Y15.6344
G01 X4.7282 Y15.5718
G01 X4.6656 Y15.5027
G01 X4.6101 Y15.4278
G01 X4.5622 Y15.3478
G01 X4.5223 Y15.2635
G01 X4.4909 Y15.1758
G01 X4.4683 Y15.0853
G01 X4.4546 Y14.9931
G01 X4.4500 Y14.9000
G01 X4.4546 Y14.8069
G01 X4.4683 Y14.7147
G01 X4.4909 Y14.6242
G01 X4.5223 Y14.5365
G01 X4.5622 Y14.4522
G01 X4.6101 Y14.3722
G01 X4.6656 Y14.2973
G01 X4.7282 Y14.2282
G01 X4.7973 Y14.1656
G01 X4.8722 Y14.1101
G01 X4.9522 Y14.0622
G01 X5.0365 Y14.0223
G01 X5.1242 Y13.9909
G01 X5.2147 Y13.9683
G01 X5.3069 Y13.9546
G01 X5.3951 Y13.9501
G00 Z2.0000
G00 X5.7737 Y16.3534
G01 F25.00
G01 Z-0.1866
G01 F120.00
G01 X5.7665 Y16.3355
G01 X5.7596 Y16.3142
G01 X5.7380 Y16.2271
G01 X5.7349 Y16.2100
G01 X5.7330 Y16.1952
G01 X5.7319 Y16.1804
G01 X5.7315 Y16.1605
G01 X5.7321 Y16.1456
G01 X5.7337 Y16.1283
G01 X5.7367 Y16.1087
G01 X5.7405 Y16.0917
G01 X5.7437 Y16.0798
G01 X5.7475 Y16.0679
G01 X5.7700 Y16.0018
G01 X5.7760 Y15.9858
G01 X5.7432 Y15.9975
G01 X5.7244 Y16.0032
G01 X5.6363 Y16.0253
G01 X5.6147 Y16.0297
G01 X5.5273 Y16.0427
G01 X5.5103 Y16.0447
G01 X5.4980 Y16.0455
G01 X5.4025 Y16.0500
G01 X5.3853 Y16.0496
G01 X5.2897 Y16.0447
G01 X5.2727 Y16.0427
G01 X5.1853 Y16.0297
G01 X5.1637 Y16.0253
G01 X5.0756 Y16.0032
G01 X5.0568 Y15.9975
G01 X5.0263 Y15.9866
G01 X5.0335 Y16.0045
G01 X5.0404 Y16.0258
G01 X5.0620 Y16.1129
G01 X5.0647 Y16.1275
G01 X5.0670 Y16.1447
G01 X5.0683 Y16.1646
G01 X5.0685 Y16.1795
G01 X5.0679 Y16.1943
G01 X5.0663 Y16.2117
G01 X5.0633 Y16.2313
G01 X5.0595 Y16.2483
G01 X5.0563 Y16.2602
G01 X5.0525 Y16.2721
G01 X5.0300 Y16.3382
G01 X5.0240 Y16.3542
G01 X5.0568 Y16.3425
G01 X5.0756 Y16.3368
G01 X5.1637 Y16.3147
G01 X5.1853 Y16.3103
G01 X5.2727 Y16.2973
G01 X5.2897 Y16.2953
G01 X5.3853 Y16.2904
G01 X5.3975 Y16.2900
G01 X5.4147 Y16.2904
G01 X5.5103 Y16.2953
G01 X5.5273 Y16.2973
G01 X5.6147 Y16.3103
G01 X5.6363 Y16.3147
G01 X5.7244 Y16.3368
G01 X5.7432 Y16.3425
G01 X5.7737 Y16.3534
G01 X5.3951 Y16.4901
G01 X5.4049 Y16.4901
G01 X5.4931 Y16.4946
G01 X5.5805 Y16.5074
G01 X5.5901 Y16.5093
G01 X5.6710 Y16.5296
G01 X5.6804 Y16.5324
G01 X5.7635 Y16.5623
G01 X5.8478 Y16.6022
G01 X5.9278 Y16.6501
G01 X6.0027 Y16.7056
G01 X6.0718 Y16.7682
G01 X6.1344 Y16.8373
G01 X6.1899 Y16.9122
G01 X6.2354 Y16.9879
G01 X6.2400 Y16.9966
G01 X6.2777 Y17.0765
G01 X6.3076 Y17.1596
G01 X6.3104 Y17.1690
G01 X6.3307 Y17.2499
G01 X6.3326 Y17.2595
G01 X6.3454 Y17.3469
G01 X6.3499 Y17.4351
G01 X6.3499 Y17.4449
G01 X6.3458 Y17.5282
G01 X6.3448 Y17.5380
G01 X6.3317 Y17.6253
G01 X6.3104 Y17.7110
G01 X6.3076 Y17.7204
G01 X6.2777 Y17.8035
G01 X6.2378 Y17.8878
G01 X6.1899 Y17.9678
G01 X6.1344 Y18.0427
G01 X6.0718 Y18.1118
G01 X6.0027 Y18.1744
G01 X5.9278 Y18.2299
G01 X5.8521 Y18.2754
G01 X5.8434 Y18.2800
G01 X5.7680 Y18.3157
G01 X5.7590 Y18.3195
G01 X5.6758 Y18.3491
G01 X5.5901 Y18.3707
G01 X5.5805 Y18.3726
G01 X5.4931 Y18.3854
G01 X5.4000 Y18.3900
G01 X5.3069 Y18.3854
G01 X5.2147 Y18.3717
G01 X5.1242 Y18.3491
G01 X5.0365 Y18.3177
G01 X4.9522 Y18.2778
G01 X4.8722 Y18.2299
G01 X4.7973 Y18.1744
G01 X4.7282 Y18.1118
G01 X4.6656 Y18.0427
G01 X4.6101 Y17.9678
G01 X4.5622 Y17.8878
G01 X4.5223 Y17.8035
G01 X4.4909 Y17.7158
G01 X4.4683 Y17.6253
G01 X4.4546 Y17.5331
G01 X4.4500 Y17.4400
G01 X4.4546 Y17.3469
G01 X4.4683 Y17.2547
G01 X4.4909 Y17.1642
G01 X4.5223 Y17.0765
G01 X4.5622 Y16.9922
G01 X4.6101 Y16.9122
G01 X4.6656 Y16.8373
G01 X4.7282 Y16.7682
G01 X4.7973 Y16.7056
G01 X4.8722 Y16.6501
G01 X4.9522 Y16.6022
G01 X5.0365 Y16.5623
G01 X5.1242 Y16.5309
G01 X5.2147 Y16.5083
G01 X5.3069 Y16.4946
G01 X5.3951 Y16.4901
G00 Z2.0000
G00 X5.7737 Y18.8934
G01 F25.00
G01 Z-0.1866
G01 F120.00
G01 X5.7665 Y18.8755
G01 X5.7596 Y18.8542
G01 X5.7380 Y18.7671
G01 X5.7349 Y18.7500
G01 X5.7330 Y18.7352
G01 X5.7319 Y18.7204
G01 X5.7315 Y18.7005
G01 X5.7321 Y18.6856
G01 X5.7337 Y18.6683
G01 X5.7367 Y18.6487
G01 X5.7405 Y18.6317
G01 X5.7437 Y18.6198
G01 X5.7475 Y18.6079
G01 X5.7700 Y18.5418
G01 X5.7760 Y18.5258
G01 X5.7432 Y18.5375
G01 X5.7244 Y18.5432
G01 X5.6363 Y18.5653
G01 X5.6147 Y18.5697
G01 X5.5273 Y18.5827
G01 X5.5103 Y18.5847
G01 X5.4147 Y18.5896
G01 X5.4025 Y18.5900
G01 X5.3853 Y18.5896
G01 X5.2897 Y18.5847
G01 X5.2727 Y18.5827
G01 X5.1853 Y18.5697
G01 X5.1637 Y18.5653
G01 X5.0756 Y18.5432
G01 X5.0568 Y18.5375
G01 X5.0263 Y18.5266
G01 X5.0335 Y18.5445
G01 X5.0404 Y18.5658
G01 X5.0620 Y18.6529
G01 X5.0647 Y18.6675
G01 X5.0670 Y18.6847
G01 X5.0683 Y18.7046
G01 X5.0685 Y18.7195
G01 X5.0679 Y18.7343
G01 X5.0663 Y18.7517
G01 X5.0633 Y18.7713
G01 X5.0595 Y18.7883
G01 X5.0563 Y18.8002
G01 X5.0525 Y18.8121
G01 X5.0300 Y18.8782
G01 X5.0240 Y18.8942
G01 X5.0568 Y18.8825
G01 X5.0756 Y18.8768
G01 X5.1637 Y18.8547
G01 X5.1853 Y18.8503
G01 X5.2727 Y18.8373
G01 X5.2897 Y18.8353
G01 X5.3853 Y18.8304
G01 X5.3975 Y18.8300
G01 X5.4147 Y18.8304
G01 X5.5103 Y18.8353
G01 X5.5273 Y18.8373
G01 X5.6147 Y18.8503
G01 X5.6363 Y18.8547
G01 X5.7244 Y18.8768
G01 X5.7432 Y18.8825
G01 X5.7737 Y18.8934
G01 X5.3951 Y19.0301
G01 X5.4049 Y19.0301
G01 X5.4931 Y19.0346
G01 X5.5805 Y19.0474
G01 X5.5901 Y19.0493
G01 X5.6710 Y19.0696
G01 X5.6804 Y19.0724
G01 X5.7635 Y19.1023
G01 X5.8478 Y19.1422
G01 X5.9278 Y19.1901
G01 X6.0027 Y19.2456
G01 X6.0718 Y19.3082
G01 X6.1344 Y19.3773
G01 X6.1899 Y19.4522
G01 X6.2354 Y19.5279
G01 X6.2400 Y19.5366
G01 X6.2777 Y19.6165
G01 X6.3076 Y19.6996
G01 X6.3104 Y19.7090
G01 X6.3307 Y19.7899
G01 X6.3326 Y19.7995
G01 X6.3454 Y19.8869
G01 X6.3499 Y19.9751
G01 X6.3499 Y19.9849
G01 X6.3458 Y20.0682
G01 X6.3448 Y20.0780
G01 X6.3317 Y20.1653
G01 X6.3104 Y20.2510
G01 X6.3076 Y20.2604
G01 X6.2777 Y20.3435
G01 X6.2378 Y20.4278
G01 X6.1899 Y20.5078
G01 X6.1344 Y20.5827
G01 X6.0718 Y20.6518
G01 X6.0027 Y20.7144
G01 X5.9278 Y20.7699
G01 X5.8521 Y20.8154
G01 X5.8434 Y20.8200
G01 X5.7680 Y20.8557
G01 X5.7590 Y20.8595
G01 X5.6758 Y20.8891
G01 X5.5901 Y20.9107
G01 X5.5805 Y20.9126
G01 X5.4931 Y20.9254
G01 X5.4000 Y20.9300
G01 X5.3069 Y20.9254
G01 X5.2147 Y20.9117
G01 X5.1242 Y20.8891
G01 X5.0365 Y20.8577
G01 X4.9522 Y20.8178
G01 X4.8722 Y20.7699
G01 X4.7973 Y20.7144
G01 X4.7282 Y20.6518
G01 X4.6656 Y20.5827
G01 X4.6101 Y20.5078
G01 X4.5622 Y20.4278
G01 X4.5223 Y20.3435
G01 X4.4909 Y20.2558
G01 X4.4683 Y20.1653
G01 X4.4546 Y20.0731
G01 X4.4500 Y19.9800
G01 X4.4546 Y19.8869
G01 X4.4683 Y19.7947
G01 X4.4909 Y19.7042
G01 X4.5223 Y19.6165
G01 X4.5622 Y19.5322
G01 X4.6101 Y19.4522
G01 X4.6656 Y19.3773
G01 X4.7282 Y19.3082
G01 X4.7973 Y19.2456
G01 X4.8722 Y19.1901
G01 X4.9522 Y19.1422
G01 X5.0365 Y19.1023
G01 X5.1242 Y19.0709
G01 X5.2147 Y19.0483
G01 X5.3069 Y19.0346
G01 X5.3951 Y19.0301
G00 Z2.0000
G00 X5.7737 Y21.4334
G01 F25.00
G01 Z-0.1866
G01 F120.00
G01 X5.7665 Y21.4155
G01 X5.7596 Y21.3942
G01 X5.7380 Y21.3071
G01 X5.7349 Y21.2900
G01 X5.7330 Y21.2752
G01 X5.7319 Y21.2604
G01 X5.7315 Y21.2405
G01 X5.7322 Y21.2232
G01 X5.7343 Y21.2034
G01 X5.7367 Y21.1887
G01 X5.7405 Y21.1717
G01 X5.7437 Y21.1598
G01 X5.7475 Y21.1479
G01 X5.7700 Y21.0818
G01 X5.7760 Y21.0658
G01 X5.7432 Y21.0775
G01 X5.7244 Y21.0832
G01 X5.6363 Y21.1053
G01 X5.6147 Y21.1097
G01 X5.5273 Y21.1227
G01 X5.5103 Y21.1247
G01 X5.4147 Y21.1296
G01 X5.4025 Y21.1300
G01 X5.3853 Y21.1296
G01 X5.2897 Y21.1247
G01 X5.2727 Y21.1227
G01 X5.1853 Y21.1097
G01 X5.1637 Y21.1053
G01 X5.0756 Y21.0832
G01 X5.0568 Y21.0775
G01 X5.0263 Y21.0666
G01 X5.0335 Y21.0845
G01 X5.0404 Y21.1058
G01 X5.0620 Y21.1929
G01 X5.0647 Y21.2075
G01 X5.0670 Y21.2247
G01 X5.0683 Y21.2446
G01 X5.0685 Y21.2595
G01 X5.0679 Y21.2743
G01 X5.0663 Y21.2917
G01 X5.0633 Y21.3113
G01 X5.0595 Y21.3283
G01 X5.0563 Y21.3402
G01 X5.0525 Y21.3521
G01 X5.0300 Y21.4182
G01 X5.0240 Y21.4342
G01 X5.0568 Y21.4225
G01 X5.0756 Y21.4168
G01 X5.1637 Y21.3947
G01 X5.1853 Y21.3903
G01 X5.2727 Y21.3773
G01 X5.2897 Y21.3753
G01 X5.3853 Y21.3704
G01 X5.3975 Y21.3700
G01 X5.4147 Y21.3704
G01 X5.5103 Y21.3753
G01 X5.5273 Y21.3773
G01 X5.6147 Y21.3903
G01 X5.6363 Y21.3947
G01 X5.7244 Y21.4168
G01 X5.7432 Y21.4225
G01 X5.7737 Y21.4334
G01 X5.3951 Y21.5701
G01 X5.4049 Y21.5701
G01 X5.4931 Y21.5746
G01 X5.5805 Y21.5874
G01 X5.5901 Y21.5893
G01 X5.6710 Y21.6096
G01 X5.6804 Y21.6124
G01 X5.7635 Y21.6423
G01 X5.8478 Y21.6822
G01 X5.9278 Y21.7301
G01 X6.0027 Y21.7856
G01 X6.0718 Y21.8482
G01 X6.1344 Y21.9173
G01 X6.1899 Y21.9922
G01 X6.2354 Y22.0679
G01 X6.2400 Y22.0766
G01 X6.2777 Y22.1565
G01 X6.3076 Y22.2396
G01 X6.3104 Y22.2490
G01 X6.3307 Y22.3299
G01 X6.3326 Y22.3395
G01 X6.3454 Y22.4269
G01 X6.3499 Y22.5151
G01 X6.3499 Y22.5249
G01 X6.3458 Y22.6082
G01 X6.3448 Y22.6180
G01 X6.3317 Y22.7053
G01 X6.3104 Y22.7910
G01 X6.3076 Y22.8004
G01 X6.2777 Y22.8835
G01 X6.2378 Y22.9678
G01 X6.1899 Y23.0478
G01 X6.1344 Y23.1227
G01 X6.0718 Y23.1918
G01 X6.0027 Y23.2544
G01 X5.9278 Y23.3099
G01 X5.8521 Y23.3554
G01 X5.8434 Y23.3600
G01 X5.7680 Y23.3957
G01 X5.7590 Y23.3995
G01 X5.6758 Y23.4291
G01 X5.5901 Y23.4507
G01 X5.5805 Y23.4526
G01 X5.4931 Y23.4654
G01 X5.4000 Y23.4700
G01 X5.3069 Y23.4654
G01 X5.2147 Y23.4517
G01 X5.1242 Y23.4291
G01 X5.0365 Y23.3977
G01 X4.9522 Y23.3578
G01 X4.8722 Y23.3099
G01 X4.7973 Y23.2544
G01 X4.7282 Y23.1918
G01 X4.6656 Y23.1227
G01 X4.6101 Y23.0478
G01 X4.5622 Y22.9678
G01 X4.5223 Y22.8835
G01 X4.4909 Y22.7958
G01 X4.4683 Y22.7053
G01 X4.4546 Y22.6131
G01 X4.4500 Y22.5200
G01 X4.4546 Y22.4269
G01 X4.4683 Y22.3347
G01 X4.4909 Y22.2442
G01 X4.5223 Y22.1565
G01 X4.5622 Y22.0722
G01 X4.6101 Y21.9922
G01 X4.6656 Y21.9173
G01 X4.7282 Y21.8482
G01 X4.7973 Y21.7856
G01 X4.8722 Y21.7301
G01 X4.9522 Y21.6822
G01 X5.0365 Y21.6423
G01 X5.1242 Y21.6109
G01 X5.2147 Y21.5883
G01 X5.3069 Y21.5746
G01 X5.3951 Y21.5701
G00 Z2.0000
G00 X5.7737 Y23.9734
G01 F25.00
G01 Z-0.1866
G01 F120.00
G01 X5.7665 Y23.9555
G01 X5.7596 Y23.9342
G01 X5.7380 Y23.8471
G01 X5.7349 Y23.8300
G01 X5.7330 Y23.8152
G01 X5.7319 Y23.8004
G01 X5.7315 Y23.7805
G01 X5.7321 Y23.7656
G01 X5.7337 Y23.7483
G01 X5.7367 Y23.7287
G01 X5.7405 Y23.7117
G01 X5.7437 Y23.6998
G01 X5.7475 Y23.6879
G01 X5.7700 Y23.6218
G01 X5.7760 Y23.6058
G01 X5.7432 Y23.6175
G01 X5.7244 Y23.6232
G01 X5.6363 Y23.6453
G01 X5.6147 Y23.6497
G01 X5.5273 Y23.6627
G01 X5.5103 Y23.6647
G01 X5.4147 Y23.6696
G01 X5.4025 Y23.6700
G01 X5.3853 Y23.6696
G01 X5.2897 Y23.6647
G01 X5.2727 Y23.6627
G01 X5.1853 Y23.6497
G01 X5.1637 Y23.6453
G01 X5.0756 Y23.6232
G01 X5.0568 Y23.6175
G01 X5.0263 Y23.6066
G01 X5.0335 Y23.6245
G01 X5.0404 Y23.6458
G01 X5.0620 Y23.7329
G01 X5.0647 Y23.7475
G01 X5.0670 Y23.7647
G01 X5.0683 Y23.7846
G01 X5.0685 Y23.7995
G01 X5.0679 Y23.8143
G01 X5.0663 Y23.8317
G01 X5.0633 Y23.8513
G01 X5.0595 Y23.8683
G01 X5.0563 Y23.8802
G01 X5.0525 Y23.8921
G01 X5.0300 Y23.9582
G01 X5.0240 Y23.9742
G01 X5.0568 Y23.9625
G01 X5.0756 Y23.9568
G01 X5.1637 Y23.9347
G01 X5.1853 Y23.9303
G01 X5.2727 Y23.9173
G01 X5.2897 Y23.9153
G01 X5.3853 Y23.9104
G01 X5.3975 Y23.9100
G01 X5.4147 Y23.9104
G01 X5.5103 Y23.9153
G01 X5.5273 Y23.9173
G01 X5.6147 Y23.9303
G01 X5.6363 Y23.9347
G01 X5.7244 Y23.9568
G01 X5.7432 Y23.9625
G01 X5.7737 Y23.9734
G01 X5.3951 Y24.1101
G01 X5.4049 Y24.1101
G01 X5.4931 Y24.1146
G01 X5.5805 Y24.1274
G01 X5.5901 Y24.1293
G01 X5.6710 Y24.1496
G01 X5.6804 Y24.1524
G01 X5.7635 Y24.1823
G01 X5.8478 Y24.2222
G01 X5.9278 Y24.2701
G01 X6.0027 Y24.3256
G01 X6.0718 Y24.3882
G01 X6.1344 Y24.4573
G01 X6.1899 Y24.5322
G01 X6.2354 Y24.6079
G01 X6.2400 Y24.6166
G01 X6.2777 Y24.6965
G01 X6.3076 Y24.7796
G01 X6.3104 Y24.7890
G01 X6.3307 Y24.8699
G01 X6.3326 Y24.8795
G01 X6.3454 Y24.9669
G01 X6.3499 Y25.0551
G01 X6.3499 Y25.0649
G01 X6.3458 Y25.1482
G01 X6.3448 Y25.1580
G01 X6.3317 Y25.2453
G01 X6.3104 Y25.3310
G01 X6.3076 Y25.3404
G01 X6.2777 Y25.4235
G01 X6.2378 Y25.5078
G01 X6.1899 Y25.5878
G01 X6.1344 Y25.6627
G01 X6.0718 Y25.7318
G01 X6.0027 Y25.7944
G01 X5.9278 Y25.8499
G01 X5.8521 Y25.8954
G01 X5.8434 Y25.9000
G01 X5.7680 Y25.9357
G01 X5.7590 Y25.9395
G01 X5.6758 Y25.9691
G01 X5.5901 Y25.9907
G01 X5.5805 Y25.9926
G01 X5.4931 Y26.0054
G01 X5.4000 Y26.0100
G01 X5.3069 Y26.0054
G01 X5.2147 Y25.9917
G01 X5.1242 Y25.9691
G01 X5.0365 Y25.9377
G01 X4.9522 Y25.8978
G01 X4.8722 Y25.8499
G01 X4.7973 Y25.7944
G01 X4.7282 Y25.7318
G01 X4.6656 Y25.6627
G01 X4.6101 Y25.5878
G01 X4.5622 Y25.5078
G01 X4.5223 Y25.4235
G01 X4.4909 Y25.3358
G01 X4.4683 Y25.2453
G01 X4.4546 Y25.1531
G01 X4.4500 Y25.0600
G01 X4.4546 Y24.9669
G01 X4.4683 Y24.8747
G01 X4.4909 Y24.7842
G01 X4.5223 Y24.6965
G01 X4.5622 Y24.6122
G01 X4.6101 Y24.5322
G01 X4.6656 Y24.4573
G01 X4.7282 Y24.3882
G01 X4.7973 Y24.3256
G01 X4.8722 Y24.2701
G01 X4.9522 Y24.2222
G01 X5.0365 Y24.1823
G01 X5.1242 Y24.1509
G01 X5.2147 Y24.1283
G01 X5.3069 Y24.1146
G01 X5.3951 Y24.1101
G00 Z2.0000
G00 X4.6846 Y26.4500
G01 F25.00
G01 Z-0.1866
G01 F120.00
G01 X6.1181 Y26.4500
G01 X6.1097 Y26.4431
G01 X6.0986 Y26.4331
G01 X6.0881 Y26.4226
G01 X6.0781 Y26.4115
G01 X6.0686 Y26.4000
G01 X6.0597 Y26.3881
G01 X6.0514 Y26.3757
G01 X6.0450 Y26.3650
G01 X6.0346 Y26.3453
G01 X6.0257 Y26.3248
G01 X5.9986 Y26.2524
G01 X5.9932 Y26.2359
G01 X5.9876 Y26.2142
G01 X5.9836 Y26.1922
G01 X5.9813 Y26.1700
G01 X5.9806 Y26.1551
G01 X5.9807 Y26.1427
G01 X5.9816 Y26.1254
G01 X5.9842 Y26.1032
G01 X5.9869 Y26.0885
G01 X5.9971 Y26.0417
G01 X5.9528 Y26.0682
G01 X5.9399 Y26.0754
G01 X5.8491 Y26.1186
G01 X5.8263 Y26.1278
G01 X5.7455 Y26.1567
G01 X5.7291 Y26.1619
G01 X5.6268 Y26.1874
G01 X5.6098 Y26.1904
G01 X5.5273 Y26.2027
G01 X5.5152 Y26.2042
G01 X5.5005 Y26.2054
G01 X5.4025 Y26.2100
G01 X5.3853 Y26.2096
G01 X5.2995 Y26.2054
G01 X5.2848 Y26.2042
G01 X5.2727 Y26.2027
G01 X5.1902 Y26.1904
G01 X5.1732 Y26.1874
G01 X5.0709 Y26.1619
G01 X5.0545 Y26.1567
G01 X4.9737 Y26.1278
G01 X4.9509 Y26.1186
G01 X4.8622 Y26.0765
G01 X4.8472 Y26.0682
G01 X4.8088 Y26.0452
G01 X4.8131 Y26.0667
G01 X4.8156 Y26.0864
G01 X4.8167 Y26.1038
G01 X4.8167 Y26.1261
G01 X4.8112 Y26.2057
G01 X4.8094 Y26.2230
G01 X4.8052 Y26.2475
G01 X4.8017 Y26.2620
G01 X4.7982 Y26.2739
G01 X4.7926 Y26.2903
G01 X4.7839 Y26.3109
G01 X4.7737 Y26.3308
G01 X4.7635 Y26.3478
G01 X4.7536 Y26.3621
G01 X4.7072 Y26.4241
G01 X4.6976 Y26.4358
G01 X4.6846 Y26.4500
G01 X6.2500 Y26.6500
G01 X6.2574 Y26.6503
G01 X6.2647 Y26.6511
G01 X6.2743 Y26.6530
G01 X6.2814 Y26.6550
G01 X6.2905 Y26.6586
G01 X6.2993 Y26.6630
G01 X6.3056 Y26.6669
G01 X6.3134 Y26.6727
G01 X6.3207 Y26.6793
G01 X6.3273 Y26.6866
G01 X6.3318 Y26.6924
G01 X6.3370 Y26.7007
G01 X6.3414 Y26.7095
G01 X6.3442 Y26.7163
G01 X6.3464 Y26.7233
G01 X6.3485 Y26.7329
G01 X6.3495 Y26.7402
G01 X6.3500 Y26.7475
G01 X6.3500 Y28.4500
G01 X6.3497 Y28.4574
G01 X6.3489 Y28.4647
G01 X6.3470 Y28.4743
G01 X6.3442 Y28.4837
G01 X6.3404 Y28.4928
G01 X6.3370 Y28.4993
G01 X6.3318 Y28.5076
G01 X6.3257 Y28.5153
G01 X6.3190 Y28.5224
G01 X6.3134 Y28.5273
G01 X6.3056 Y28.5331
G01 X6.2993 Y28.5370
G01 X6.2905 Y28.5414
G01 X6.2837 Y28.5442
G01 X6.2743 Y28.5470
G01 X6.2647 Y28.5489
G01 X6.2549 Y28.5499
G01 X4.5500 Y28.5500
G01 X4.5378 Y28.5492
G01 X4.5281 Y28.5476
G01 X4.5186 Y28.5450
G01 X4.5095 Y28.5414
G01 X4.5029 Y28.5382
G01 X4.4965 Y28.5345
G01 X4.4885 Y28.5288
G01 X4.4810 Y28.5224
G01 X4.4759 Y28.5172
G01 X4.4697 Y28.5096
G01 X4.4642 Y28.5014
G01 X4.4596 Y28.4928
G01 X4.4567 Y28.4860
G01 X4.4543 Y28.4790
G01 X4.4519 Y28.4695
G01 X4.4508 Y28.4622
G01 X4.4500 Y28.4525
G01 X4.4500 Y26.7475
G01 X4.4505 Y26.7402
G01 X4.4519 Y26.7305
G01 X4.4536 Y26.7233
G01 X4.4567 Y26.7140
G01 X4.4607 Y26.7050
G01 X4.4642 Y26.6986
G01 X4.4697 Y26.6904
G01 X4.4759 Y26.6828
G01 X4.4828 Y26.6759
G01 X4.4904 Y26.6697
G01 X4.4986 Y26.6642
G01 X4.5072 Y26.6596
G01 X4.5163 Y26.6558
G01 X4.5257 Y26.6530
G01 X4.5378 Y26.6508
G01 X4.5475 Y26.6500
G01 X6.2500 Y26.6500
G00 Z2.0000
G00 X23.7951 Y21.5701
G01 F25.00
G01 Z-0.1866
G01 F120.00
G01 X23.7069 Y21.5746
G01 X23.6147 Y21.5883
G01 X23.5242 Y21.6109
G01 X23.4365 Y21.6423
G01 X23.3522 Y21.6822
G01 X23.2722 Y21.7301
G01 X23.1973 Y21.7856
G01 X23.1282 Y21.8482
G01 X23.0656 Y21.9173
G01 X23.0101 Y21.9922
G01 X22.9622 Y22.0722
G01 X22.9223 Y22.1565
G01 X22.8909 Y22.2442
G01 X22.8683 Y22.3347
G01 X22.8546 Y22.4269
G01 X22.8500 Y22.5200
G01 X22.8546 Y22.6131
G01 X22.8683 Y22.7053
G01 X22.8909 Y22.7958
G01 X22.9223 Y22.8835
G01 X22.9622 Y22.9678
G01 X23.0101 Y23.0478
G01 X23.0656 Y23.1227
G01 X23.1282 Y23.1918
G01 X23.1973 Y23.2544
G01 X23.2722 Y23.3099
G01 X23.3522 Y23.3578
G01 X23.4365 Y23.3977
G01 X23.5242 Y23.4291
G01 X23.6147 Y23.4517
G01 X23.7069 Y23.4654
G01 X23.8000 Y23.4700
G01 X23.8931 Y23.4654
G01 X23.9853 Y23.4517
G01 X24.0758 Y23.4291
G01 X24.1590 Y23.3995
G01 X24.1680 Y23.3957
G01 X24.2434 Y23.3600
G01 X24.2521 Y23.3554
G01 X24.3278 Y23.3099
G01 X24.4027 Y23.2544
G01 X24.4718 Y23.1918
G01 X24.5344 Y23.1227
G01 X24.5899 Y23.0478
G01 X24.6354 Y22.9721
G01 X24.6400 Y22.9634
G01 X24.6757 Y22.8880
G01 X24.6795 Y22.8790
G01 X24.7091 Y22.7958
G01 X24.7307 Y22.7101
G01 X24.7326 Y22.7005
G01 X24.7454 Y22.6131
G01 X24.7499 Y22.5249
G01 X24.7499 Y22.5151
G01 X24.7458 Y22.4318
G01 X24.7448 Y22.4220
G01 X24.7317 Y22.3347
G01 X24.7104 Y22.2490
G01 X24.7076 Y22.2396
G01 X24.6777 Y22.1565
G01 X24.6378 Y22.0722
G01 X24.5899 Y21.9922
G01 X24.5344 Y21.9173
G01 X24.4718 Y21.8482
G01 X24.4064 Y21.7888
G01 X24.3988 Y21.7826
G01 X24.3278 Y21.7301
G01 X24.2521 Y21.6846
G01 X24.2434 Y21.6800
G01 X24.1680 Y21.6443
G01 X24.1590 Y21.6405
G01 X24.0758 Y21.6109
G01 X23.9853 Y21.5883
G01 X23.8931 Y21.5746
G01 X23.8049 Y21.5701
G01 X23.7951 Y21.5701
G01 X24.1760 Y21.0658
G01 X24.1700 Y21.0818
G01 X24.1475 Y21.1479
G01 X24.1437 Y21.1598
G01 X24.1405 Y21.1717
G01 X24.1367 Y21.1887
G01 X24.1343 Y21.2034
G01 X24.1322 Y21.2232
G01 X24.1315 Y21.2405
G01 X24.1317 Y21.2554
G01 X24.1330 Y21.2752
G01 X24.1349 Y21.2900
G01 X24.1380 Y21.3071
G01 X24.1596 Y21.3942
G01 X24.1665 Y21.4155
G01 X24.1737 Y21.4334
G01 X24.1432 Y21.4225
G01 X24.1244 Y21.4168
G01 X24.0363 Y21.3947
G01 X24.0147 Y21.3903
G01 X24.0098 Y21.3896
G01 X23.9273 Y21.3773
G01 X23.9103 Y21.3753
G01 X23.8147 Y21.3704
G01 X23.7975 Y21.3700
G01 X23.7853 Y21.3704
G01 X23.6897 Y21.3753
G01 X23.6727 Y21.3773
G01 X23.5853 Y21.3903
G01 X23.5637 Y21.3947
G01 X23.4756 Y21.4168
G01 X23.4568 Y21.4225
G01 X23.4240 Y21.4342
G01 X23.4300 Y21.4182
G01 X23.4525 Y21.3521
G01 X23.4563 Y21.3402
G01 X23.4595 Y21.3283
G01 X23.4633 Y21.3113
G01 X23.4663 Y21.2917
G01 X23.4678 Y21.2768
G01 X23.4685 Y21.2595
G01 X23.4681 Y21.2396
G01 X23.4670 Y21.2247
G01 X23.4651 Y21.2100
G01 X23.4620 Y21.1929
G01 X23.4404 Y21.1058
G01 X23.4335 Y21.0845
G01 X23.4263 Y21.0666
G01 X23.4568 Y21.0775
G01 X23.4756 Y21.0832
G01 X23.5637 Y21.1053
G01 X23.5853 Y21.1097
G01 X23.6727 Y21.1227
G01 X23.6897 Y21.1247
G01 X23.7853 Y21.1296
G01 X23.8025 Y21.1300
G01 X23.8147 Y21.1296
G01 X23.9103 Y21.1247
G01 X23.9273 Y21.1227
G01 X24.0147 Y21.1097
G01 X24.0363 Y21.1053
G01 X24.1244 Y21.0832
G01 X24.1432 Y21.0775
G01 X24.1760 Y21.0658
G00 Z2.0000
G00 X23.7951 Y19.0301
G01 F25.00
G01 Z-0.1866
G01 F120.00
G01 X23.7069 Y19.0346
G01 X23.6147 Y19.0483
G01 X23.5242 Y19.0709
G01 X23.4365 Y19.1023
G01 X23.3522 Y19.1422
G01 X23.2722 Y19.1901
G01 X23.1973 Y19.2456
G01 X23.1282 Y19.3082
G01 X23.0656 Y19.3773
G01 X23.0101 Y19.4522
G01 X22.9622 Y19.5322
G01 X22.9223 Y19.6165
G01 X22.8909 Y19.7042
G01 X22.8683 Y19.7947
G01 X22.8546 Y19.8869
G01 X22.8500 Y19.9800
G01 X22.8546 Y20.0731
G01 X22.8683 Y20.1653
G01 X22.8909 Y20.2558
G01 X22.9223 Y20.3435
G01 X22.9622 Y20.4278
G01 X23.0101 Y20.5078
G01 X23.0656 Y20.5827
G01 X23.1282 Y20.6518
G01 X23.1973 Y20.7144
G01 X23.2722 Y20.7699
G01 X23.3522 Y20.8178
G01 X23.4365 Y20.8577
G01 X23.5242 Y20.8891
G01 X23.6147 Y20.9117
G01 X23.7069 Y20.9254
G01 X23.8000 Y20.9300
G01 X23.8931 Y20.9254
G01 X23.9853 Y20.9117
G01 X24.0758 Y20.8891
G01 X24.1590 Y20.8595
G01 X24.1680 Y20.8557
G01 X24.2434 Y20.8200
G01 X24.2521 Y20.8154
G01 X24.3278 Y20.7699
G01 X24.4027 Y20.7144
G01 X24.4718 Y20.6518
G01 X24.5344 Y20.5827
G01 X24.5899 Y20.5078
G01 X24.6354 Y20.4321
G01 X24.6400 Y20.4234
G01 X24.6757 Y20.3480
G01 X24.6795 Y20.3390
G01 X24.7091 Y20.2558
G01 X24.7307 Y20.1701
G01 X24.7326 Y20.1605
G01 X24.7454 Y20.0731
G01 X24.7499 Y19.9849
G01 X24.7499 Y19.9751
G01 X24.7458 Y19.8918
G01 X24.7448 Y19.8820
G01 X24.7317 Y19.7947
G01 X24.7104 Y19.7090
G01 X24.7076 Y19.6996
G01 X24.6777 Y19.6165
G01 X24.6378 Y19.5322
G01 X24.5899 Y19.4522
G01 X24.5344 Y19.3773
G01 X24.4718 Y19.3082
G01 X24.4064 Y19.2488
G01 X24.3988 Y19.2426
G01 X24.3278 Y19.1901
G01 X24.2521 Y19.1446
G01 X24.2434 Y19.1400
G01 X24.1680 Y19.1043
G01 X24.1590 Y19.1005
G01 X24.0758 Y19.0709
G01 X23.9853 Y19.0483
G01 X23.8931 Y19.0346
G01 X23.8049 Y19.0301
G01 X23.7951 Y19.0301
G01 X24.1760 Y18.5258
G01 X24.1700 Y18.5418
G01 X24.1475 Y18.6079
G01 X24.1437 Y18.6198
G01 X24.1405 Y18.6317
G01 X24.1367 Y18.6487
G01 X24.1343 Y18.6634
G01 X24.1322 Y18.6832
G01 X24.1315 Y18.7005
G01 X24.1317 Y18.7154
G01 X24.1330 Y18.7352
G01 X24.1349 Y18.7500
G01 X24.1380 Y18.7671
G01 X24.1596 Y18.8542
G01 X24.1665 Y18.8755
G01 X24.1737 Y18.8934
G01 X24.1432 Y18.8825
G01 X24.1244 Y18.8768
G01 X24.0363 Y18.8547
G01 X24.0147 Y18.8503
G01 X24.0098 Y18.8496
G01 X23.9273 Y18.8373
G01 X23.9103 Y18.8353
G01 X23.8147 Y18.8304
G01 X23.7975 Y18.8300
G01 X23.7853 Y18.8304
G01 X23.6897 Y18.8353
G01 X23.6727 Y18.8373
G01 X23.5853 Y18.8503
G01 X23.5637 Y18.8547
G01 X23.4756 Y18.8768
G01 X23.4568 Y18.8825
G01 X23.4240 Y18.8942
G01 X23.4300 Y18.8782
G01 X23.4525 Y18.8121
G01 X23.4563 Y18.8002
G01 X23.4595 Y18.7883
G01 X23.4633 Y18.7713
G01 X23.4663 Y18.7517
G01 X23.4678 Y18.7368
G01 X23.4685 Y18.7195
G01 X23.4681 Y18.6996
G01 X23.4670 Y18.6847
G01 X23.4651 Y18.6700
G01 X23.4620 Y18.6529
G01 X23.4404 Y18.5658
G01 X23.4335 Y18.5445
G01 X23.4263 Y18.5266
G01 X23.4568 Y18.5375
G01 X23.4756 Y18.5432
G01 X23.5637 Y18.5653
G01 X23.5853 Y18.5697
G01 X23.6727 Y18.5827
G01 X23.6897 Y18.5847
G01 X23.7853 Y18.5896
G01 X23.8025 Y18.5900
G01 X23.8147 Y18.5896
G01 X23.9103 Y18.5847
G01 X23.9273 Y18.5827
G01 X24.0147 Y18.5697
G01 X24.0363 Y18.5653
G01 X24.1244 Y18.5432
G01 X24.1432 Y18.5375
G01 X24.1760 Y18.5258
G00 Z2.0000
G00 X23.7951 Y16.4901
G01 F25.00
G01 Z-0.1866
G01 F120.00
G01 X23.7069 Y16.4946
G01 X23.6147 Y16.5083
G01 X23.5242 Y16.5309
G01 X23.4365 Y16.5623
G01 X23.3522 Y16.6022
G01 X23.2722 Y16.6501
G01 X23.1973 Y16.7056
G01 X23.1282 Y16.7682
G01 X23.0656 Y16.8373
G01 X23.0101 Y16.9122
G01 X22.9622 Y16.9922
G01 X22.9223 Y17.0765
G01 X22.8909 Y17.1642
G01 X22.8683 Y17.2547
G01 X22.8546 Y17.3469
G01 X22.8500 Y17.4400
G01 X22.8546 Y17.5331
G01 X22.8683 Y17.6253
G01 X22.8909 Y17.7158
G01 X22.9223 Y17.8035
G01 X22.9622 Y17.8878
G01 X23.0101 Y17.9678
G01 X23.0656 Y18.0427
G01 X23.1282 Y18.1118
G01 X23.1973 Y18.1744
G01 X23.2722 Y18.2299
G01 X23.3522 Y18.2778
G01 X23.4365 Y18.3177
G01 X23.5242 Y18.3491
G01 X23.6147 Y18.3717
G01 X23.7069 Y18.3854
G01 X23.8000 Y18.3900
G01 X23.8931 Y18.3854
G01 X23.9853 Y18.3717
G01 X24.0758 Y18.3491
G01 X24.1590 Y18.3195
G01 X24.1680 Y18.3157
G01 X24.2434 Y18.2800
G01 X24.2521 Y18.2754
G01 X24.3278 Y18.2299
G01 X24.4027 Y18.1744
G01 X24.4718 Y18.1118
G01 X24.5344 Y18.0427
G01 X24.5899 Y17.9678
G01 X24.6354 Y17.8921
G01 X24.6400 Y17.8834
G01 X24.6757 Y17.8080
G01 X24.6795 Y17.7990
G01 X24.7091 Y17.7158
G01 X24.7307 Y17.6301
G01 X24.7326 Y17.6205
G01 X24.7454 Y17.5331
G01 X24.7499 Y17.4449
G01 X24.7499 Y17.4351
G01 X24.7458 Y17.3518
G01 X24.7448 Y17.3420
G01 X24.7317 Y17.2547
G01 X24.7104 Y17.1690
G01 X24.7076 Y17.1596
G01 X24.6777 Y17.0765
G01 X24.6378 Y16.9922
G01 X24.5899 Y16.9122
G01 X24.5344 Y16.8373
G01 X24.4718 Y16.7682
G01 X24.4064 Y16.7088
G01 X24.3988 Y16.7026
G01 X24.3278 Y16.6501
G01 X24.2521 Y16.6046
G01 X24.2434 Y16.6000
G01 X24.1680 Y16.5643
G01 X24.1590 Y16.5605
G01 X24.0758 Y16.5309
G01 X23.9853 Y16.5083
G01 X23.8931 Y16.4946
G01 X23.8049 Y16.4901
G01 X23.7951 Y16.4901
G01 X24.1760 Y15.9858
G01 X24.1700 Y16.0018
G01 X24.1475 Y16.0679
G01 X24.1437 Y16.0798
G01 X24.1405 Y16.0917
G01 X24.1367 Y16.1087
G01 X24.1343 Y16.1234
G01 X24.1322 Y16.1432
G01 X24.1315 Y16.1605
G01 X24.1317 Y16.1754
G01 X24.1330 Y16.1952
G01 X24.1349 Y16.2100
G01 X24.1380 Y16.2271
G01 X24.1596 Y16.3142
G01 X24.1665 Y16.3355
G01 X24.1737 Y16.3534
G01 X24.1432 Y16.3425
G01 X24.1244 Y16.3368
G01 X24.0363 Y16.3147
G01 X24.0147 Y16.3103
G01 X24.0098 Y16.3096
G01 X23.9273 Y16.2973
G01 X23.9103 Y16.2953
G01 X23.8147 Y16.2904
G01 X23.7975 Y16.2900
G01 X23.7853 Y16.2904
G01 X23.6897 Y16.2953
G01 X23.6727 Y16.2973
G01 X23.5853 Y16.3103
G01 X23.5637 Y16.3147
G01 X23.4756 Y16.3368
G01 X23.4568 Y16.3425
G01 X23.4240 Y16.3542
G01 X23.4300 Y16.3382
G01 X23.4525 Y16.2721
G01 X23.4563 Y16.2602
G01 X23.4595 Y16.2483
G01 X23.4633 Y16.2313
G01 X23.4663 Y16.2117
G01 X23.4678 Y16.1968
G01 X23.4685 Y16.1795
G01 X23.4681 Y16.1596
G01 X23.4670 Y16.1447
G01 X23.4647 Y16.1275
G01 X23.4620 Y16.1129
G01 X23.4404 Y16.0258
G01 X23.4335 Y16.0045
G01 X23.4263 Y15.9866
G01 X23.4568 Y15.9975
G01 X23.4756 Y16.0032
G01 X23.5637 Y16.0253
G01 X23.5853 Y16.0297
G01 X23.6727 Y16.0427
G01 X23.6897 Y16.0447
G01 X23.7853 Y16.0496
G01 X23.8025 Y16.0500
G01 X23.8980 Y16.0455
G01 X23.9103 Y16.0447
G01 X23.9273 Y16.0427
G01 X24.0147 Y16.0297
G01 X24.0363 Y16.0253
G01 X24.1244 Y16.0032
G01 X24.1432 Y15.9975
G01 X24.1760 Y15.9858
G00 Z2.0000
G00 X23.7951 Y13.9501
G01 F25.00
G01 Z-0.1866
G01 F120.00
G01 X23.7069 Y13.9546
G01 X23.6147 Y13.9683
G01 X23.5242 Y13.9909
G01 X23.4365 Y14.0223
G01 X23.3522 Y14.0622
G01 X23.2722 Y14.1101
G01 X23.1973 Y14.1656
G01 X23.1282 Y14.2282
G01 X23.0656 Y14.2973
G01 X23.0101 Y14.3722
G01 X22.9622 Y14.4522
G01 X22.9223 Y14.5365
G01 X22.8909 Y14.6242
G01 X22.8683 Y14.7147
G01 X22.8546 Y14.8069
G01 X22.8500 Y14.9000
G01 X22.8546 Y14.9931
G01 X22.8683 Y15.0853
G01 X22.8909 Y15.1758
G01 X22.9223 Y15.2635
G01 X22.9622 Y15.3478
G01 X23.0101 Y15.4278
G01 X23.0656 Y15.5027
G01 X23.1282 Y15.5718
G01 X23.1973 Y15.6344
G01 X23.2722 Y15.6899
G01 X23.3522 Y15.7378
G01 X23.4365 Y15.7777
G01 X23.5242 Y15.8091
G01 X23.6147 Y15.8317
G01 X23.7069 Y15.8454
G01 X23.8000 Y15.8500
G01 X23.8931 Y15.8454
G01 X23.9853 Y15.8317
G01 X24.0758 Y15.8091
G01 X24.1590 Y15.7795
G01 X24.1680 Y15.7757
G01 X24.2434 Y15.7400
G01 X24.2521 Y15.7354
G01 X24.3278 Y15.6899
G01 X24.4027 Y15.6344
G01 X24.4718 Y15.5718
G01 X24.5344 Y15.5027
G01 X24.5899 Y15.4278
G01 X24.6354 Y15.3521
G01 X24.6400 Y15.3434
G01 X24.6757 Y15.2680
G01 X24.6795 Y15.2590
G01 X24.7091 Y15.1758
G01 X24.7307 Y15.0901
G01 X24.7326 Y15.0805
G01 X24.7454 Y14.9931
G01 X24.7499 Y14.9049
G01 X24.7499 Y14.8951
G01 X24.7458 Y14.8118
G01 X24.7448 Y14.8020
G01 X24.7317 Y14.7147
G01 X24.7104 Y14.6290
G01 X24.7076 Y14.6196
G01 X24.6777 Y14.5365
G01 X24.6378 Y14.4522
G01 X24.5899 Y14.3722
G01 X24.5344 Y14.2973
G01 X24.4718 Y14.2282
G01 X24.4064 Y14.1688
G01 X24.3988 Y14.1626
G01 X24.3278 Y14.1101
G01 X24.2521 Y14.0646
G01 X24.2434 Y14.0600
G01 X24.1680 Y14.0243
G01 X24.1590 Y14.0205
G01 X24.0758 Y13.9909
G01 X23.9853 Y13.9683
G01 X23.8931 Y13.9546
G01 X23.8049 Y13.9501
G01 X23.7951 Y13.9501
G01 X24.1760 Y13.4458
G01 X24.1700 Y13.4618
G01 X24.1475 Y13.5279
G01 X24.1437 Y13.5398
G01 X24.1405 Y13.5517
G01 X24.1367 Y13.5687
G01 X24.1343 Y13.5834
G01 X24.1322 Y13.6032
G01 X24.1315 Y13.6205
G01 X24.1317 Y13.6354
G01 X24.1330 Y13.6552
G01 X24.1349 Y13.6700
G01 X24.1380 Y13.6871
G01 X24.1596 Y13.7742
G01 X24.1665 Y13.7955
G01 X24.1737 Y13.8134
G01 X24.1432 Y13.8025
G01 X24.1244 Y13.7968
G01 X24.0363 Y13.7747
G01 X24.0147 Y13.7703
G01 X24.0098 Y13.7696
G01 X23.9273 Y13.7573
G01 X23.9103 Y13.7553
G01 X23.8147 Y13.7504
G01 X23.7975 Y13.7500
G01 X23.7853 Y13.7504
G01 X23.6897 Y13.7553
G01 X23.6727 Y13.7573
G01 X23.5853 Y13.7703
G01 X23.5637 Y13.7747
G01 X23.4756 Y13.7968
G01 X23.4568 Y13.8025
G01 X23.4240 Y13.8142
G01 X23.4300 Y13.7982
G01 X23.4525 Y13.7321
G01 X23.4563 Y13.7202
G01 X23.4595 Y13.7083
G01 X23.4633 Y13.6913
G01 X23.4663 Y13.6717
G01 X23.4678 Y13.6568
G01 X23.4685 Y13.6395
G01 X23.4681 Y13.6196
G01 X23.4670 Y13.6047
G01 X23.4647 Y13.5875
G01 X23.4620 Y13.5729
G01 X23.4404 Y13.4858
G01 X23.4335 Y13.4645
G01 X23.4263 Y13.4466
G01 X23.4568 Y13.4575
G01 X23.4756 Y13.4632
G01 X23.5637 Y13.4853
G01 X23.5853 Y13.4897
G01 X23.6727 Y13.5027
G01 X23.6897 Y13.5047
G01 X23.7853 Y13.5096
G01 X23.8025 Y13.5100
G01 X23.8980 Y13.5055
G01 X23.9103 Y13.5047
G01 X23.9273 Y13.5027
G01 X24.0147 Y13.4897
G01 X24.0363 Y13.4853
G01 X24.1244 Y13.4632
G01 X24.1432 Y13.4575
G01 X24.1760 Y13.4458
G00 Z2.0000
G00 X23.7951 Y11.4101
G01 F25.00
G01 Z-0.1866
G01 F120.00
G01 X23.7069 Y11.4146
G01 X23.6147 Y11.4283
G01 X23.5242 Y11.4509
G01 X23.4365 Y11.4823
G01 X23.3522 Y11.5222
G01 X23.2722 Y11.5701
G01 X23.1973 Y11.6256
G01 X23.1282 Y11.6882
G01 X23.0656 Y11.7573
G01 X23.0101 Y11.8322
G01 X22.9622 Y11.9122
G01 X22.9223 Y11.9965
G01 X22.8909 Y12.0842
G01 X22.8683 Y12.1747
G01 X22.8546 Y12.2669
G01 X22.8500 Y12.3600
G01 X22.8546 Y12.4531
G01 X22.8683 Y12.5453
G01 X22.8909 Y12.6358
G01 X22.9223 Y12.7235
G01 X22.9622 Y12.8078
G01 X23.0101 Y12.8878
G01 X23.0656 Y12.9627
G01 X23.1282 Y13.0318
G01 X23.1973 Y13.0944
G01 X23.2722 Y13.1499
G01 X23.3522 Y13.1978
G01 X23.4365 Y13.2377
G01 X23.5242 Y13.2691
G01 X23.6147 Y13.2917
G01 X23.7069 Y13.3054
G01 X23.8000 Y13.3100
G01 X23.8931 Y13.3054
G01 X23.9853 Y13.2917
G01 X24.0758 Y13.2691
G01 X24.1590 Y13.2395
G01 X24.1680 Y13.2357
G01 X24.2434 Y13.2000
G01 X24.2521 Y13.1954
G01 X24.3278 Y13.1499
G01 X24.4027 Y13.0944
G01 X24.4718 Y13.0318
G01 X24.5344 Y12.9627
G01 X24.5899 Y12.8878
G01 X24.6354 Y12.8121
G01 X24.6400 Y12.8034
G01 X24.6777 Y12.7235
G01 X24.7076 Y12.6404
G01 X24.7104 Y12.6310
G01 X24.7307 Y12.5501
G01 X24.7326 Y12.5405
G01 X24.7454 Y12.4531
G01 X24.7499 Y12.3649
G01 X24.7499 Y12.3551
G01 X24.7458 Y12.2718
G01 X24.7448 Y12.2620
G01 X24.7317 Y12.1747
G01 X24.7104 Y12.0890
G01 X24.7076 Y12.0796
G01 X24.6777 Y11.9965
G01 X24.6378 Y11.9122
G01 X24.5899 Y11.8322
G01 X24.5344 Y11.7573
G01 X24.4718 Y11.6882
G01 X24.4064 Y11.6288
G01 X24.3988 Y11.6226
G01 X24.3278 Y11.5701
G01 X24.2521 Y11.5246
G01 X24.2434 Y11.5200
G01 X24.1680 Y11.4843
G01 X24.1590 Y11.4805
G01 X24.0758 Y11.4509
G01 X23.9853 Y11.4283
G01 X23.8931 Y11.4146
G01 X23.8049 Y11.4101
G01 X23.7951 Y11.4101
G01 X24.1760 Y10.9058
G01 X24.1700 Y10.9218
G01 X24.1475 Y10.9879
G01 X24.1437 Y10.9998
G01 X24.1405 Y11.0117
G01 X24.1367 Y11.0287
G01 X24.1337 Y11.0483
G01 X24.1321 Y11.0656
G01 X24.1315 Y11.0805
G01 X24.1317 Y11.0954
G01 X24.1330 Y11.1152
G01 X24.1349 Y11.1300
G01 X24.1380 Y11.1471
G01 X24.1596 Y11.2342
G01 X24.1665 Y11.2555
G01 X24.1737 Y11.2734
G01 X24.1432 Y11.2625
G01 X24.1244 Y11.2568
G01 X24.0363 Y11.2347
G01 X24.0147 Y11.2303
G01 X24.0098 Y11.2296
G01 X23.9273 Y11.2173
G01 X23.9103 Y11.2153
G01 X23.8147 Y11.2104
G01 X23.7975 Y11.2100
G01 X23.7853 Y11.2104
G01 X23.6897 Y11.2153
G01 X23.6727 Y11.2173
G01 X23.5853 Y11.2303
G01 X23.5637 Y11.2347
G01 X23.4756 Y11.2568
G01 X23.4568 Y11.2625
G01 X23.4240 Y11.2742
G01 X23.4300 Y11.2582
G01 X23.4525 Y11.1921
G01 X23.4563 Y11.1802
G01 X23.4595 Y11.1683
G01 X23.4633 Y11.1513
G01 X23.4663 Y11.1317
G01 X23.4679 Y11.1143
G01 X23.4685 Y11.0995
G01 X23.4681 Y11.0796
G01 X23.4670 Y11.0647
G01 X23.4651 Y11.0500
G01 X23.4620 Y11.0329
G01 X23.4404 Y10.9458
G01 X23.4335 Y10.9245
G01 X23.4263 Y10.9066
G01 X23.4568 Y10.9175
G01 X23.4756 Y10.9232
G01 X23.5637 Y10.9453
G01 X23.5853 Y10.9497
G01 X23.6727 Y10.9627
G01 X23.6897 Y10.9647
G01 X23.7853 Y10.9696
G01 X23.8025 Y10.9700
G01 X23.8147 Y10.9696
G01 X23.9103 Y10.9647
G01 X23.9273 Y10.9627
G01 X24.0147 Y10.9497
G01 X24.0363 Y10.9453
G01 X24.1244 Y10.9232
G01 X24.1432 Y10.9175
G01 X24.1760 Y10.9058
G00 Z2.0000
G00 X22.7305 Y9.1646
G01 F25.00
G01 Z-0.1866
G01 F120.00
G01 X22.6411 Y9.3400
G01 X22.5803 Y9.5272
G01 X22.5495 Y9.7216
G01 X22.5495 Y9.9184
G01 X22.5803 Y10.1128
G01 X22.6411 Y10.3000
G01 X22.7305 Y10.4754
G01 X22.8462 Y10.6346
G01 X22.9854 Y10.7738
G01 X23.1446 Y10.8895
G01 X23.1546 Y10.8951
G01 X23.1624 Y10.9006
G01 X23.1696 Y10.9068
G01 X23.2204 Y10.9548
G01 X23.2273 Y10.9620
G01 X23.2334 Y10.9698
G01 X23.2387 Y10.9782
G01 X23.2442 Y10.9893
G01 X23.2475 Y10.9987
G01 X23.2667 Y11.0761
G01 X23.2683 Y11.0884
G01 X23.2684 Y11.1008
G01 X23.2669 Y11.1132
G01 X23.2640 Y11.1252
G01 X23.2399 Y11.1960
G01 X23.2361 Y11.2048
G01 X23.2315 Y11.2132
G01 X23.2262 Y11.2212
G01 X23.2201 Y11.2286
G01 X23.2115 Y11.2370
G01 X23.1608 Y11.2806
G01 X23.1527 Y11.2860
G01 X23.1446 Y11.2905
G01 X22.9854 Y11.4062
G01 X22.8462 Y11.5454
G01 X22.7305 Y11.7046
G01 X22.6411 Y11.8800
G01 X22.5803 Y12.0672
G01 X22.5495 Y12.2616
G01 X22.5495 Y12.4584
G01 X22.5803 Y12.6528
G01 X22.6411 Y12.8400
G01 X22.7305 Y13.0154
G01 X22.8462 Y13.1746
G01 X22.9854 Y13.3138
G01 X23.1446 Y13.4295
G01 X23.1546 Y13.4351
G01 X23.1624 Y13.4406
G01 X23.1696 Y13.4468
G01 X23.2204 Y13.4948
G01 X23.2273 Y13.5020
G01 X23.2348 Y13.5118
G01 X23.2399 Y13.5203
G01 X23.2442 Y13.5293
G01 X23.2475 Y13.5387
G01 X23.2662 Y13.6137
G01 X23.2681 Y13.6259
G01 X23.2685 Y13.6383
G01 X23.2673 Y13.6507
G01 X23.2647 Y13.6628
G01 X23.2399 Y13.7360
G01 X23.2361 Y13.7448
G01 X23.2315 Y13.7532
G01 X23.2262 Y13.7612
G01 X23.2201 Y13.7686
G01 X23.2115 Y13.7770
G01 X23.1608 Y13.8206
G01 X23.1527 Y13.8260
G01 X23.1446 Y13.8305
G01 X22.9854 Y13.9462
G01 X22.8462 Y14.0854
G01 X22.7305 Y14.2446
G01 X22.6411 Y14.4200
G01 X22.5803 Y14.6072
G01 X22.5495 Y14.8016
G01 X22.5495 Y14.9984
G01 X22.5803 Y15.1928
G01 X22.6411 Y15.3800
G01 X22.7305 Y15.5554
G01 X22.8462 Y15.7146
G01 X22.9854 Y15.8538
G01 X23.1446 Y15.9695
G01 X23.1546 Y15.9751
G01 X23.1624 Y15.9806
G01 X23.1696 Y15.9868
G01 X23.2204 Y16.0348
G01 X23.2273 Y16.0420
G01 X23.2348 Y16.0518
G01 X23.2399 Y16.0603
G01 X23.2442 Y16.0693
G01 X23.2475 Y16.0787
G01 X23.2662 Y16.1537
G01 X23.2681 Y16.1659
G01 X23.2685 Y16.1783
G01 X23.2673 Y16.1907
G01 X23.2647 Y16.2028
G01 X23.2399 Y16.2760
G01 X23.2361 Y16.2848
G01 X23.2315 Y16.2932
G01 X23.2262 Y16.3012
G01 X23.2201 Y16.3086
G01 X23.2115 Y16.3170
G01 X23.1608 Y16.3606
G01 X23.1527 Y16.3660
G01 X23.1446 Y16.3705
G01 X22.9854 Y16.4862
G01 X22.8462 Y16.6254
G01 X22.7305 Y16.7846
G01 X22.6411 Y16.9600
G01 X22.5803 Y17.1472
G01 X22.5495 Y17.3416
G01 X22.5495 Y17.5384
G01 X22.5803 Y17.7328
G01 X22.6411 Y17.9200
G01 X22.7305 Y18.0954
G01 X22.8462 Y18.2546
G01 X22.9854 Y18.3938
G01 X23.1446 Y18.5095
G01 X23.1546 Y18.5151
G01 X23.1624 Y18.5206
G01 X23.1696 Y18.5268
G01 X23.2204 Y18.5748
G01 X23.2273 Y18.5820
G01 X23.2334 Y18.5898
G01 X23.2399 Y18.6003
G01 X23.2442 Y18.6093
G01 X23.2475 Y18.6187
G01 X23.2662 Y18.6937
G01 X23.2678 Y18.7035
G01 X23.2685 Y18.7159
G01 X23.2677 Y18.7282
G01 X23.2665 Y18.7356
G01 X23.2647 Y18.7428
G01 X23.2399 Y18.8160
G01 X23.2371 Y18.8226
G01 X23.2328 Y18.8312
G01 X23.2276 Y18.8393
G01 X23.2217 Y18.8468
G01 X23.2168 Y18.8521
G01 X23.2115 Y18.8570
G01 X23.1608 Y18.9006
G01 X23.1527 Y18.9060
G01 X23.1446 Y18.9105
G01 X22.9854 Y19.0262
G01 X22.8462 Y19.1654
G01 X22.7305 Y19.3246
G01 X22.6411 Y19.5000
G01 X22.5803 Y19.6872
G01 X22.5495 Y19.8816
G01 X22.5495 Y20.0784
G01 X22.5803 Y20.2728
G01 X22.6411 Y20.4600
G01 X22.7305 Y20.6354
G01 X22.8462 Y20.7946
G01 X22.9854 Y20.9338
G01 X23.1446 Y21.0495
G01 X23.1546 Y21.0551
G01 X23.1624 Y21.0606
G01 X23.1696 Y21.0668
G01 X23.2204 Y21.1148
G01 X23.2273 Y21.1220
G01 X23.2334 Y21.1298
G01 X23.2399 Y21.1403
G01 X23.2442 Y21.1493
G01 X23.2475 Y21.1587
G01 X23.2662 Y21.2337
G01 X23.2678 Y21.2435
G01 X23.2685 Y21.2559
G01 X23.2677 Y21.2682
G01 X23.2665 Y21.2756
G01 X23.2647 Y21.2828
G01 X23.2399 Y21.3560
G01 X23.2371 Y21.3626
G01 X23.2328 Y21.3712
G01 X23.2276 Y21.3793
G01 X23.2217 Y21.3868
G01 X23.2168 Y21.3921
G01 X23.2115 Y21.3970
G01 X23.1608 Y21.4406
G01 X23.1527 Y21.4460
G01 X23.1446 Y21.4505
G01 X22.9854 Y21.5662
G01 X22.8462 Y21.7054
G01 X22.7305 Y21.8646
G01 X22.6411 Y22.0400
G01 X22.5803 Y22.2272
G01 X22.5495 Y22.4216
G01 X22.5495 Y22.6184
G01 X22.5803 Y22.8128
G01 X22.6411 Y23.0000
G01 X22.7305 Y23.1754
G01 X22.8462 Y23.3346
G01 X22.9854 Y23.4738
G01 X23.1446 Y23.5895
G01 X23.3200 Y23.6789
G01 X23.5072 Y23.7397
G01 X23.7016 Y23.7705
G01 X23.8984 Y23.7705
G01 X24.0928 Y23.7397
G01 X24.2800 Y23.6789
G01 X24.4554 Y23.5895
G01 X24.6146 Y23.4738
G01 X24.7538 Y23.3346
G01 X24.8695 Y23.1754
G01 X24.9589 Y23.0000
G01 X25.0197 Y22.8128
G01 X25.0505 Y22.6184
G01 X25.0505 Y22.4216
G01 X25.0197 Y22.2272
G01 X24.9589 Y22.0400
G01 X24.8695 Y21.8646
G01 X24.7538 Y21.7054
G01 X24.6146 Y21.5662
G01 X24.4554 Y21.4505
G01 X24.4454 Y21.4449
G01 X24.4376 Y21.4394
G01 X24.4304 Y21.4332
G01 X24.3796 Y21.3852
G01 X24.3727 Y21.3780
G01 X24.3652 Y21.3682
G01 X24.3601 Y21.3597
G01 X24.3558 Y21.3507
G01 X24.3525 Y21.3413
G01 X24.3338 Y21.2663
G01 X24.3322 Y21.2565
G01 X24.3315 Y21.2466
G01 X24.3316 Y21.2392
G01 X24.3323 Y21.2317
G01 X24.3335 Y21.2244
G01 X24.3353 Y21.2172
G01 X24.3601 Y21.1440
G01 X24.3639 Y21.1352
G01 X24.3685 Y21.1267
G01 X24.3753 Y21.1169
G01 X24.3816 Y21.1096
G01 X24.3885 Y21.1030
G01 X24.4392 Y21.0594
G01 X24.4473 Y21.0540
G01 X24.4554 Y21.0495
G01 X24.6146 Y20.9338
G01 X24.7538 Y20.7946
G01 X24.8695 Y20.6354
G01 X24.9589 Y20.4600
G01 X25.0197 Y20.2728
G01 X25.0505 Y20.0784
G01 X25.0505 Y19.8816
G01 X25.0197 Y19.6872
G01 X24.9589 Y19.5000
G01 X24.8695 Y19.3246
G01 X24.7538 Y19.1654
G01 X24.6146 Y19.0262
G01 X24.4554 Y18.9105
G01 X24.4454 Y18.9049
G01 X24.4376 Y18.8994
G01 X24.4304 Y18.8932
G01 X24.3796 Y18.8452
G01 X24.3727 Y18.8380
G01 X24.3666 Y18.8302
G01 X24.3613 Y18.8218
G01 X24.3568 Y18.8130
G01 X24.3525 Y18.8013
G01 X24.3338 Y18.7263
G01 X24.3322 Y18.7165
G01 X24.3315 Y18.7041
G01 X24.3318 Y18.6967
G01 X24.3327 Y18.6893
G01 X24.3353 Y18.6772
G01 X24.3601 Y18.6040
G01 X24.3639 Y18.5952
G01 X24.3672 Y18.5888
G01 X24.3724 Y18.5807
G01 X24.3783 Y18.5732
G01 X24.3832 Y18.5679
G01 X24.3885 Y18.5630
G01 X24.4392 Y18.5194
G01 X24.4473 Y18.5140
G01 X24.4554 Y18.5095
G01 X24.6146 Y18.3938
G01 X24.7538 Y18.2546
G01 X24.8695 Y18.0954
G01 X24.9589 Y17.9200
G01 X25.0197 Y17.7328
G01 X25.0505 Y17.5384
G01 X25.0505 Y17.3416
G01 X25.0197 Y17.1472
G01 X24.9589 Y16.9600
G01 X24.8695 Y16.7846
G01 X24.7538 Y16.6254
G01 X24.6146 Y16.4862
G01 X24.4554 Y16.3705
G01 X24.4454 Y16.3649
G01 X24.4376 Y16.3594
G01 X24.4304 Y16.3532
G01 X24.3796 Y16.3052
G01 X24.3727 Y16.2980
G01 X24.3666 Y16.2902
G01 X24.3613 Y16.2818
G01 X24.3568 Y16.2730
G01 X24.3525 Y16.2613
G01 X24.3338 Y16.1863
G01 X24.3322 Y16.1765
G01 X24.3315 Y16.1641
G01 X24.3318 Y16.1567
G01 X24.3327 Y16.1493
G01 X24.3353 Y16.1372
G01 X24.3601 Y16.0640
G01 X24.3639 Y16.0552
G01 X24.3672 Y16.0488
G01 X24.3724 Y16.0407
G01 X24.3783 Y16.0332
G01 X24.3832 Y16.0279
G01 X24.3885 Y16.0230
G01 X24.4392 Y15.9794
G01 X24.4473 Y15.9740
G01 X24.4554 Y15.9695
G01 X24.6146 Y15.8538
G01 X24.7538 Y15.7146
G01 X24.8695 Y15.5554
G01 X24.9589 Y15.3800
G01 X25.0197 Y15.1928
G01 X25.0505 Y14.9984
G01 X25.0505 Y14.8016
G01 X25.0197 Y14.6072
G01 X24.9589 Y14.4200
G01 X24.8695 Y14.2446
G01 X24.7538 Y14.0854
G01 X24.6146 Y13.9462
G01 X24.4554 Y13.8305
G01 X24.4454 Y13.8249
G01 X24.4376 Y13.8194
G01 X24.4304 Y13.8132
G01 X24.3796 Y13.7652
G01 X24.3727 Y13.7580
G01 X24.3666 Y13.7502
G01 X24.3613 Y13.7418
G01 X24.3568 Y13.7330
G01 X24.3525 Y13.7213
G01 X24.3338 Y13.6463
G01 X24.3322 Y13.6365
G01 X24.3315 Y13.6241
G01 X24.3318 Y13.6167
G01 X24.3327 Y13.6093
G01 X24.3353 Y13.5972
G01 X24.3601 Y13.5240
G01 X24.3639 Y13.5152
G01 X24.3685 Y13.5067
G01 X24.3738 Y13.4988
G01 X24.3783 Y13.4932
G01 X24.3832 Y13.4879
G01 X24.3885 Y13.4830
G01 X24.4392 Y13.4394
G01 X24.4473 Y13.4340
G01 X24.4554 Y13.4295
G01 X24.6146 Y13.3138
G01 X24.7538 Y13.1746
G01 X24.8695 Y13.0154
G01 X24.9589 Y12.8400
G01 X25.0197 Y12.6528
G01 X25.0505 Y12.4584
G01 X25.0505 Y12.2616
G01 X25.0197 Y12.0672
G01 X24.9589 Y11.8800
G01 X24.8695 Y11.7046
G01 X24.7538 Y11.5454
G01 X24.6146 Y11.4062
G01 X24.4554 Y11.2905
G01 X24.4454 Y11.2849
G01 X24.4376 Y11.2794
G01 X24.4304 Y11.2732
G01 X24.3796 Y11.2252
G01 X24.3727 Y11.2180
G01 X24.3666 Y11.2102
G01 X24.3613 Y11.2018
G01 X24.3558 Y11.1907
G01 X24.3525 Y11.1813
G01 X24.3338 Y11.1063
G01 X24.3322 Y11.0965
G01 X24.3315 Y11.0841
G01 X24.3323 Y11.0717
G01 X24.3335 Y11.0644
G01 X24.3353 Y11.0572
G01 X24.3601 Y10.9840
G01 X24.3639 Y10.9752
G01 X24.3685 Y10.9667
G01 X24.3724 Y10.9607
G01 X24.3783 Y10.9532
G01 X24.3832 Y10.9479
G01 X24.3885 Y10.9430
G01 X24.4392 Y10.8994
G01 X24.4473 Y10.8940
G01 X24.4554 Y10.8895
G01 X24.6146 Y10.7738
G01 X24.7538 Y10.6346
G01 X24.8695 Y10.4754
G01 X24.9589 Y10.3000
G01 X25.0197 Y10.1128
G01 X25.0505 Y9.9184
G01 X25.0505 Y9.7216
G01 X25.0197 Y9.5272
G01 X24.9589 Y9.3400
G01 X24.8695 Y9.1646
G01 X24.7538 Y9.0054
G01 X24.6146 Y8.8662
G01 X24.4554 Y8.7505
G01 X24.2800 Y8.6611
G01 X24.0928 Y8.6003
G01 X23.8984 Y8.5695
G01 X23.7016 Y8.5695
G01 X23.5072 Y8.6003
G01 X23.3200 Y8.6611
G01 X23.1446 Y8.7505
G01 X22.9854 Y8.8662
G01 X22.8462 Y9.0054
G01 X22.7305 Y9.1646
G00 Z2.0000
G00 X23.7951 Y8.8701
G01 F25.00
G01 Z-0.1866
G01 F120.00
G01 X23.8049 Y8.8701
G01 X23.8931 Y8.8746
G01 X23.9853 Y8.8883
G01 X24.0758 Y8.9109
G01 X24.1635 Y8.9423
G01 X24.2478 Y8.9822
G01 X24.3278 Y9.0301
G01 X24.4027 Y9.0856
G01 X24.4718 Y9.1482
G01 X24.5344 Y9.2173
G01 X24.5899 Y9.2922
G01 X24.6378 Y9.3722
G01 X24.6777 Y9.4565
G01 X24.7091 Y9.5442
G01 X24.7317 Y9.6347
G01 X24.7454 Y9.7269
G01 X24.7500 Y9.8200
G01 X24.7454 Y9.9131
G01 X24.7317 Y10.0053
G01 X24.7091 Y10.0958
G01 X24.6777 Y10.1835
G01 X24.6378 Y10.2678
G01 X24.5899 Y10.3478
G01 X24.5344 Y10.4227
G01 X24.4718 Y10.4918
G01 X24.4027 Y10.5544
G01 X24.3278 Y10.6099
G01 X24.2478 Y10.6578
G01 X24.1635 Y10.6977
G01 X24.0758 Y10.7291
G01 X23.9853 Y10.7517
G01 X23.8931 Y10.7654
G01 X23.8000 Y10.7700
G01 X23.7069 Y10.7654
G01 X23.6147 Y10.7517
G01 X23.5242 Y10.7291
G01 X23.4365 Y10.6977
G01 X23.3522 Y10.6578
G01 X23.2722 Y10.6099
G01 X23.1973 Y10.5544
G01 X23.1282 Y10.4918
G01 X23.0656 Y10.4227
G01 X23.0101 Y10.3478
G01 X22.9622 Y10.2678
G01 X22.9223 Y10.1835
G01 X22.8909 Y10.0958
G01 X22.8683 Y10.0053
G01 X22.8546 Y9.9131
G01 X22.8500 Y9.8200
G01 X22.8546 Y9.7269
G01 X22.8683 Y9.6347
G01 X22.8909 Y9.5442
G01 X22.9223 Y9.4565
G01 X22.9622 Y9.3722
G01 X23.0101 Y9.2922
G01 X23.0656 Y9.2173
G01 X23.1282 Y9.1482
G01 X23.1973 Y9.0856
G01 X23.2722 Y9.0301
G01 X23.3522 Y8.9822
G01 X23.4365 Y8.9423
G01 X23.5242 Y8.9109
G01 X23.6147 Y8.8883
G01 X23.7069 Y8.8746
G01 X23.7951 Y8.8701
G00 Z2.0000
G00 X24.9500 Y26.8382
G01 F25.00
G01 Z-0.1866
G01 F120.00
G01 X24.9500 Y26.8498
G01 X24.9618 Y26.8498
G01 X24.9561 Y26.8443
G01 X24.9500 Y26.8382
G00 Z2.0000
G00 X24.9500 Y28.3595
G01 F25.00
G01 Z-0.1866
G01 F120.00
G01 X24.9601 Y28.3502
G01 X24.9500 Y28.3502
G01 X24.9500 Y28.3595
G01 X24.6925 Y28.8505
G01 X24.7343 Y28.8460
G01 X24.8439 Y28.8051
G01 X24.9361 Y28.7361
G01 X25.0051 Y28.6439
G01 X25.0238 Y28.5940
G01 X25.0267 Y28.5875
G01 X25.0300 Y28.5812
G01 X25.0366 Y28.5712
G01 X25.0784 Y28.5153
G01 X25.0865 Y28.5059
G01 X25.0937 Y28.4991
G01 X25.1016 Y28.4930
G01 X25.1100 Y28.4878
G01 X25.1189 Y28.4834
G01 X25.1913 Y28.4563
G01 X25.2032 Y28.4530
G01 X25.2154 Y28.4512
G01 X25.2328 Y28.4505
G01 X29.5892 Y28.4505
G01 X29.5964 Y28.4508
G01 X29.6035 Y28.4515
G01 X29.6105 Y28.4528
G01 X29.6174 Y28.4546
G01 X29.6868 Y28.4750
G01 X29.6960 Y28.4784
G01 X29.7069 Y28.4840
G01 X29.7171 Y28.4908
G01 X29.7437 Y28.5124
G01 X29.7854 Y28.5538
G01 X29.9446 Y28.6695
G01 X30.1200 Y28.7589
G01 X30.3072 Y28.8197
G01 X30.4607 Y28.8440
G01 X30.5016 Y28.8505
G01 X30.6984 Y28.8505
G01 X30.8928 Y28.8197
G01 X31.0800 Y28.7589
G01 X31.2554 Y28.6695
G01 X31.4146 Y28.5538
G01 X31.5538 Y28.4146
G01 X31.6695 Y28.2554
G01 X31.7589 Y28.0800
G01 X31.8197 Y27.8928
G01 X31.8505 Y27.6984
G01 X31.8505 Y27.5016
G01 X31.8197 Y27.3072
G01 X31.7589 Y27.1200
G01 X31.6695 Y26.9446
G01 X31.5538 Y26.7854
G01 X31.4146 Y26.6462
G01 X31.2554 Y26.5305
G01 X31.0800 Y26.4411
G01 X30.8928 Y26.3803
G01 X30.6984 Y26.3495
G01 X30.5016 Y26.3495
G01 X30.3072 Y26.3803
G01 X30.1200 Y26.4411
G01 X29.9446 Y26.5305
G01 X29.7854 Y26.6462
G01 X29.7442 Y26.6872
G01 X29.7368 Y26.6932
G01 X29.7269 Y26.6998
G01 X29.6635 Y26.7344
G01 X29.6569 Y26.7377
G01 X29.6501 Y26.7405
G01 X29.6408 Y26.7434
G01 X29.6312 Y26.7454
G01 X29.5999 Y26.7489
G01 X29.5919 Y26.7495
G01 X25.2328 Y26.7495
G01 X25.2257 Y26.7492
G01 X25.2162 Y26.7481
G01 X25.2069 Y26.7461
G01 X25.1376 Y26.7258
G01 X25.1305 Y26.7234
G01 X25.1214 Y26.7194
G01 X25.1127 Y26.7146
G01 X25.1026 Y26.7074
G01 X25.0953 Y26.7007
G01 X25.0902 Y26.6953
G01 X25.0444 Y26.6425
G01 X25.0369 Y26.6327
G01 X25.0318 Y26.6242
G01 X25.0276 Y26.6153
G01 X25.0229 Y26.6038
G01 X25.0051 Y26.5561
G01 X24.9361 Y26.4639
G01 X24.8439 Y26.3949
G01 X24.7343 Y26.3540
G01 X24.6925 Y26.3495
G01 X22.9075 Y26.3495
G01 X22.8657 Y26.3540
G01 X22.7561 Y26.3949
G01 X22.6639 Y26.4639
G01 X22.5949 Y26.5561
G01 X22.5540 Y26.6657
G01 X22.5495 Y26.7075
G01 X22.5495 Y28.4925
G01 X22.5540 Y28.5343
G01 X22.5949 Y28.6439
G01 X22.6639 Y28.7361
G01 X22.7561 Y28.8051
G01 X22.8657 Y28.8460
G01 X22.9075 Y28.8505
G01 X24.6925 Y28.8505
G00 Z2.0000
G00 X29.8266 Y27.0498
G01 F25.00
G01 Z-0.1866
G01 F120.00
G01 X29.8656 Y26.9973
G01 X29.9249 Y26.9318
G01 X29.9300 Y26.9265
G01 X29.9973 Y26.8656
G01 X30.0682 Y26.8129
G01 X30.0743 Y26.8088
G01 X30.1522 Y26.7622
G01 X30.2365 Y26.7223
G01 X30.3242 Y26.6909
G01 X30.4099 Y26.6693
G01 X30.4171 Y26.6678
G01 X30.5069 Y26.6546
G01 X30.6000 Y26.6500
G01 X30.6931 Y26.6546
G01 X30.7853 Y26.6683
G01 X30.8758 Y26.6909
G01 X30.9635 Y26.7223
G01 X31.0478 Y26.7622
G01 X31.1236 Y26.8075
G01 X31.1298 Y26.8115
G01 X31.2027 Y26.8656
G01 X31.2718 Y26.9282
G01 X31.3344 Y26.9973
G01 X31.3899 Y27.0722
G01 X31.4378 Y27.1522
G01 X31.4777 Y27.2365
G01 X31.5091 Y27.3242
G01 X31.5317 Y27.4147
G01 X31.5454 Y27.5069
G01 X31.5500 Y27.6000
G01 X31.5454 Y27.6931
G01 X31.5317 Y27.7853
G01 X31.5091 Y27.8758
G01 X31.4777 Y27.9635
G01 X31.4378 Y28.0478
G01 X31.3925 Y28.1236
G01 X31.3885 Y28.1298
G01 X31.3374 Y28.1988
G01 X31.3312 Y28.2064
G01 X31.2718 Y28.2718
G01 X31.2064 Y28.3312
G01 X31.1988 Y28.3374
G01 X31.1278 Y28.3899
G01 X31.0478 Y28.4378
G01 X30.9635 Y28.4777
G01 X30.8804 Y28.5076
G01 X30.8710 Y28.5104
G01 X30.7853 Y28.5317
G01 X30.6980 Y28.5448
G01 X30.6882 Y28.5458
G01 X30.6049 Y28.5499
G01 X30.5951 Y28.5499
G01 X30.5069 Y28.5454
G01 X30.4195 Y28.5326
G01 X30.4099 Y28.5307
G01 X30.3242 Y28.5091
G01 X30.2410 Y28.4795
G01 X30.2320 Y28.4757
G01 X30.1544 Y28.4390
G01 X30.1479 Y28.4354
G01 X30.0722 Y28.3899
G01 X30.0012 Y28.3374
G01 X29.9954 Y28.3328
G01 X29.9318 Y28.2751
G01 X29.9249 Y28.2682
G01 X29.8656 Y28.2027
G01 X29.8266 Y28.1502
G01 X24.7500 Y28.1502
G01 X24.7500 Y28.4500
G01 X24.7495 Y28.4598
G01 X24.7481 Y28.4695
G01 X24.7464 Y28.4767
G01 X24.7442 Y28.4837
G01 X24.7414 Y28.4905
G01 X24.7370 Y28.4993
G01 X24.7331 Y28.5056
G01 X24.7288 Y28.5115
G01 X24.7241 Y28.5172
G01 X24.7190 Y28.5224
G01 X24.7134 Y28.5273
G01 X24.7076 Y28.5318
G01 X24.7014 Y28.5358
G01 X24.6950 Y28.5393
G01 X24.6883 Y28.5424
G01 X24.6814 Y28.5450
G01 X24.6743 Y28.5470
G01 X24.6671 Y28.5485
G01 X24.6574 Y28.5497
G01 X24.6500 Y28.5500
G01 X22.9451 Y28.5499
G01 X22.9353 Y28.5489
G01 X22.9281 Y28.5476
G01 X22.9186 Y28.5450
G01 X22.9117 Y28.5424
G01 X22.9050 Y28.5393
G01 X22.8965 Y28.5345
G01 X22.8904 Y28.5303
G01 X22.8847 Y28.5257
G01 X22.8776 Y28.5190
G01 X22.8727 Y28.5134
G01 X22.8682 Y28.5076
G01 X22.8630 Y28.4993
G01 X22.8586 Y28.4905
G01 X22.8558 Y28.4837
G01 X22.8536 Y28.4767
G01 X22.8519 Y28.4695
G01 X22.8505 Y28.4598
G01 X22.8500 Y28.4500
G01 X22.8501 Y26.7451
G01 X22.8508 Y26.7378
G01 X22.8524 Y26.7281
G01 X22.8550 Y26.7186
G01 X22.8576 Y26.7117
G01 X22.8607 Y26.7050
G01 X22.8655 Y26.6965
G01 X22.8697 Y26.6904
G01 X22.8743 Y26.6847
G01 X22.8793 Y26.6793
G01 X22.8866 Y26.6727
G01 X22.8924 Y26.6682
G01 X22.9007 Y26.6630
G01 X22.9095 Y26.6586
G01 X22.9163 Y26.6558
G01 X22.9233 Y26.6536
G01 X22.9305 Y26.6519
G01 X22.9402 Y26.6505
G01 X22.9500 Y26.6500
G01 X24.6500 Y26.6500
G01 X24.6598 Y26.6505
G01 X24.6719 Y26.6524
G01 X24.6790 Y26.6543
G01 X24.6860 Y26.6567
G01 X24.6928 Y26.6596
G01 X24.6993 Y26.6630
G01 X24.7056 Y26.6669
G01 X24.7115 Y26.6712
G01 X24.7207 Y26.6793
G01 X24.7257 Y26.6847
G01 X24.7303 Y26.6904
G01 X24.7345 Y26.6965
G01 X24.7382 Y26.7029
G01 X24.7414 Y26.7095
G01 X24.7442 Y26.7163
G01 X24.7464 Y26.7233
G01 X24.7481 Y26.7305
G01 X24.7495 Y26.7402
G01 X24.7500 Y26.7500
G01 X24.7500 Y27.0498
G01 X29.8266 Y27.0498
G00 Z2.0000
M05
G00 Z2.0000
G00 Z2.50
G00 X0.0 Y0.0


