(G-CODE GENERATED BY FLATCAM v8.994 - www.flatcam.org - Version Date: 2020/11/7)

(Name: C·mara-B_Cu.gbr_ncc_cnc)
(Type: G-code from Geometry)
(Units: MM)

(Created on Wednesday, 26 November 2025 at 21:53)

(This preprocessor is the default preprocessor used by FlatCAM.)
(It is made to work with MACH3 compatible motion controllers.)

(TOOL DIAMETER: 0.1536 mm)
(Feedrate_XY: 120.0 mm/min)
(Feedrate_Z: 25.0 mm/min)
(Feedrate rapids 1500.0 mm/min)

(Z_Cut: -0.1 mm)
(Z_Move: 2.0 mm)
(Z Start: None mm)
(Z End: 5.0 mm)
(X,Y End: 0.0000, 0.0000 mm)
(Steps per circle: 64)
(Preprocessor Geometry: default)

(X range:  -14.1737 ...   13.5737  mm)
(Y range:   -9.4537 ...   10.8737  mm)

(Spindle Speed: 10000.0 RPM)
G21
G90
G94

G01 F120.00

M5
G00 Z15.0000
G00 X0.0000 Y0.0000
T1
M6    
(MSG, Change to Tool Dia = 0.1536)
M0
G00 Z15.0000

M03 S10000.0
G01 F120.00
G00 X5.1608 Y0.8576
G01 F25.00
G01 Z-0.1000
G01 F120.00
G01 X5.1749 Y0.8537
G01 X5.2565 Y0.8333
G01 X5.2698 Y0.8303
G01 X5.2858 Y0.8274
G01 X5.2868 Y0.8273
G01 X5.3694 Y0.8150
G01 X5.3838 Y0.8132
G01 X5.3986 Y0.8120
G01 X5.4849 Y0.8078
G01 X5.4992 Y0.8074
G01 X5.5150 Y0.8078
G01 X5.6013 Y0.8120
G01 X5.6159 Y0.8132
G01 X5.6304 Y0.8150
G01 X5.6306 Y0.8150
G01 X5.7132 Y0.8273
G01 X5.7140 Y0.8274
G01 X5.7300 Y0.8302
G01 X5.7441 Y0.8334
G01 X5.8369 Y0.8569
G01 X5.8179 Y0.7804
G01 X5.8140 Y0.7615
G01 X5.8118 Y0.7478
G01 X5.8101 Y0.7320
G01 X5.8092 Y0.7174
G01 X5.8089 Y0.7019
G01 X5.8095 Y0.6855
G01 X5.8108 Y0.6694
G01 X5.8118 Y0.6614
G01 X5.8124 Y0.6573
G01 X5.8125 Y0.6565
G01 X5.8126 Y0.6560
G01 X5.8129 Y0.6543
G01 X5.8131 Y0.6528
G01 X5.8161 Y0.6368
G01 X5.8195 Y0.6227
G01 X5.8233 Y0.6095
G01 X5.8392 Y0.5624
G01 X5.8251 Y0.5663
G01 X5.7435 Y0.5867
G01 X5.7302 Y0.5897
G01 X5.7142 Y0.5926
G01 X5.6306 Y0.6050
G01 X5.6162 Y0.6068
G01 X5.6014 Y0.6080
G01 X5.5151 Y0.6122
G01 X5.5008 Y0.6126
G01 X5.4850 Y0.6122
G01 X5.3987 Y0.6080
G01 X5.3841 Y0.6068
G01 X5.3696 Y0.6050
G01 X5.2860 Y0.5926
G01 X5.2700 Y0.5898
G01 X5.2559 Y0.5866
G01 X5.1631 Y0.5631
G01 X5.1821 Y0.6396
G01 X5.1860 Y0.6585
G01 X5.1885 Y0.6741
G01 X5.1899 Y0.6880
G01 X5.1908 Y0.7026
G01 X5.1911 Y0.7181
G01 X5.1905 Y0.7344
G01 X5.1892 Y0.7506
G01 X5.1869 Y0.7672
G01 X5.1839 Y0.7832
G01 X5.1805 Y0.7973
G01 X5.1767 Y0.8105
G01 X5.1608 Y0.8576
G01 X5.2483 Y0.7721
G01 X5.2745 Y0.7670
G01 X5.3616 Y0.7541
G01 X5.3772 Y0.7521
G01 X5.3919 Y0.7509
G01 X5.4812 Y0.7465
G01 X5.4992 Y0.7460
G01 X5.5184 Y0.7464
G01 X5.6044 Y0.7507
G01 X5.6247 Y0.7523
G01 X5.6391 Y0.7542
G01 X5.7222 Y0.7665
G01 X5.7235 Y0.7667
G01 X5.7244 Y0.7668
G01 X5.7245 Y0.7669
G01 X5.7248 Y0.7669
G01 X5.7392 Y0.7694
G01 X5.7535 Y0.7725
G01 X5.7510 Y0.7569
G01 X5.7493 Y0.7418
G01 X5.7489 Y0.7379
G01 X5.7488 Y0.7369
G01 X5.7488 Y0.7368
G01 X5.7487 Y0.7349
G01 X5.7486 Y0.7338
G01 X5.7480 Y0.7254
G01 X5.7475 Y0.7105
G01 X5.7476 Y0.6948
G01 X5.7483 Y0.6798
G01 X5.7497 Y0.6634
G01 X5.7517 Y0.6479
G01 X5.7379 Y0.6508
G01 X5.7237 Y0.6533
G01 X5.6387 Y0.6659
G01 X5.6227 Y0.6679
G01 X5.6022 Y0.6694
G01 X5.5175 Y0.6736
G01 X5.4992 Y0.6740
G01 X5.4823 Y0.6736
G01 X5.3975 Y0.6694
G01 X5.3764 Y0.6678
G01 X5.3613 Y0.6659
G01 X5.2755 Y0.6531
G01 X5.2608 Y0.6506
G01 X5.2465 Y0.6475
G01 X5.2490 Y0.6631
G01 X5.2507 Y0.6783
G01 X5.2520 Y0.6947
G01 X5.2525 Y0.7097
G01 X5.2524 Y0.7252
G01 X5.2517 Y0.7403
G01 X5.2503 Y0.7566
G01 X5.2483 Y0.7721
G01 X5.4902 Y0.9306
G01 X5.5098 Y0.9306
G01 X5.5931 Y0.9347
G01 X5.5942 Y0.9347
G01 X5.6122 Y0.9365
G01 X5.6951 Y0.9488
G01 X5.7055 Y0.9506
G01 X5.8040 Y0.9753
G01 X5.8140 Y0.9786
G01 X5.9010 Y1.0099
G01 X5.9107 Y1.0142
G01 X5.9861 Y1.0499
G01 X6.0033 Y1.0591
G01 X6.0759 Y1.1026
G01 X6.0884 Y1.1109
G01 X6.1582 Y1.1626
G01 X6.1665 Y1.1691
G01 X6.2417 Y1.2372
G01 X6.2490 Y1.2449
G01 X6.3109 Y1.3135
G01 X6.3174 Y1.3218
G01 X6.3674 Y1.3891
G01 X6.3774 Y1.4041
G01 X6.4209 Y1.4767
G01 X6.4300 Y1.4936
G01 X6.4658 Y1.5693
G01 X6.4701 Y1.5790
G01 X6.5014 Y1.6660
G01 X6.5047 Y1.6760
G01 X6.5274 Y1.7657
G01 X6.5297 Y1.7760
G01 X6.5434 Y1.8674
G01 X6.5447 Y1.8779
G01 X6.5494 Y1.9702
G01 X6.5497 Y1.9808
G01 X6.5453 Y2.0731
G01 X6.5445 Y2.0836
G01 X6.5312 Y2.1751
G01 X6.5294 Y2.1855
G01 X6.5071 Y2.2753
G01 X6.5043 Y2.2854
G01 X6.4733 Y2.3726
G01 X6.4695 Y2.3824
G01 X6.4301 Y2.4661
G01 X6.4254 Y2.4755
G01 X6.3780 Y2.5549
G01 X6.3724 Y2.5638
G01 X6.3174 Y2.6382
G01 X6.3109 Y2.6465
G01 X6.2490 Y2.7151
G01 X6.2417 Y2.7228
G01 X6.1733 Y2.7850
G01 X6.1653 Y2.7919
G01 X6.0912 Y2.8471
G01 X6.0825 Y2.8532
G01 X6.0033 Y2.9009
G01 X5.9941 Y2.9061
G01 X5.9107 Y2.9458
G01 X5.9010 Y2.9501
G01 X5.8140 Y2.9814
G01 X5.8040 Y2.9847
G01 X5.7132 Y3.0076
G01 X5.6955 Y3.0111
G01 X5.6036 Y3.0245
G01 X5.5931 Y3.0253
G01 X5.5098 Y3.0294
G01 X5.4913 Y3.0295
G01 X5.3979 Y3.0247
G01 X5.3874 Y3.0234
G01 X5.2960 Y3.0097
G01 X5.2857 Y3.0074
G01 X5.2047 Y2.9871
G01 X5.1946 Y2.9843
G01 X5.1064 Y2.9529
G01 X5.0893 Y2.9458
G01 X5.0139 Y2.9101
G01 X5.0045 Y2.9054
G01 X4.9248 Y2.8578
G01 X4.9097 Y2.8478
G01 X4.8347 Y2.7919
G01 X4.8267 Y2.7850
G01 X4.7649 Y2.7290
G01 X4.7572 Y2.7217
G01 X4.6942 Y2.6525
G01 X4.6826 Y2.6382
G01 X4.6329 Y2.5712
G01 X4.6268 Y2.5625
G01 X4.5789 Y2.4830
G01 X4.5703 Y2.4671
G01 X4.5305 Y2.3824
G01 X4.5267 Y2.3726
G01 X4.4986 Y2.2940
G01 X4.4953 Y2.2840
G01 X4.4724 Y2.1932
G01 X4.4688 Y2.1751
G01 X4.4566 Y2.0926
G01 X4.4553 Y2.0821
G01 X4.4506 Y1.9898
G01 X4.4505 Y1.9713
G01 X4.4549 Y1.8827
G01 X4.4566 Y1.8674
G01 X4.4688 Y1.7849
G01 X4.4706 Y1.7745
G01 X4.4932 Y1.6836
G01 X4.4985 Y1.6663
G01 X4.5299 Y1.5790
G01 X4.5342 Y1.5693
G01 X4.5700 Y1.4936
G01 X4.5785 Y1.4776
G01 X4.6268 Y1.3975
G01 X4.6329 Y1.3888
G01 X4.6826 Y1.3218
G01 X4.6891 Y1.3135
G01 X4.7518 Y1.2440
G01 X4.7649 Y1.2310
G01 X4.8335 Y1.1691
G01 X4.8418 Y1.1626
G01 X4.9088 Y1.1129
G01 X4.9241 Y1.1026
G01 X5.0002 Y1.0570
G01 X5.0139 Y1.0499
G01 X5.0893 Y1.0142
G01 X5.0990 Y1.0099
G01 X5.1863 Y0.9785
G01 X5.2036 Y0.9732
G01 X5.2868 Y0.9524
G01 X5.3049 Y0.9488
G01 X5.3874 Y0.9366
G01 X5.3979 Y0.9353
G01 X5.4902 Y0.9306
G01 X5.4932 Y0.9919
G01 X5.5068 Y0.9919
G01 X5.5901 Y0.9960
G01 X5.5961 Y0.9964
G01 X5.6921 Y1.0106
G01 X5.7876 Y1.0345
G01 X5.8719 Y1.0645
G01 X5.8837 Y1.0694
G01 X5.9605 Y1.1057
G01 X5.9718 Y1.1118
G01 X6.0497 Y1.1587
G01 X6.1216 Y1.2119
G01 X6.1321 Y1.2205
G01 X6.1983 Y1.2807
G01 X6.2644 Y1.3537
G01 X6.3178 Y1.4254
G01 X6.3253 Y1.4367
G01 X6.3712 Y1.5135
G01 X6.4103 Y1.5956
G01 X6.4155 Y1.6081
G01 X6.4455 Y1.6924
G01 X6.4694 Y1.7879
G01 X6.4827 Y1.8764
G01 X6.4840 Y1.8899
G01 X6.4882 Y1.9808
G01 X6.4840 Y2.0701
G01 X6.4827 Y2.0836
G01 X6.4694 Y2.1721
G01 X6.4455 Y2.2676
G01 X6.4155 Y2.3519
G01 X6.4103 Y2.3644
G01 X6.3712 Y2.4465
G01 X6.3253 Y2.5233
G01 X6.3178 Y2.5346
G01 X6.2644 Y2.6063
G01 X6.2035 Y2.6739
G01 X6.1958 Y2.6817
G01 X6.1275 Y2.7434
G01 X6.0546 Y2.7978
G01 X6.0433 Y2.8053
G01 X5.9652 Y2.8519
G01 X5.8844 Y2.8903
G01 X5.8719 Y2.8955
G01 X5.7861 Y2.9259
G01 X5.6935 Y2.9491
G01 X5.6036 Y2.9627
G01 X5.5901 Y2.9640
G01 X5.4992 Y2.9682
G01 X5.4039 Y2.9636
G01 X5.3139 Y2.9504
G01 X5.3006 Y2.9478
G01 X5.2124 Y2.9255
G01 X5.1281 Y2.8955
G01 X5.1156 Y2.8903
G01 X5.0395 Y2.8543
G01 X5.0289 Y2.8486
G01 X4.9516 Y2.8021
G01 X4.8784 Y2.7481
G01 X4.8679 Y2.7395
G01 X4.8007 Y2.6783
G01 X4.7405 Y2.6121
G01 X4.7319 Y2.6016
G01 X4.6779 Y2.5284
G01 X4.6318 Y2.4518
G01 X4.6254 Y2.4398
G01 X4.5867 Y2.3575
G01 X4.5545 Y2.2676
G01 X4.5322 Y2.1794
G01 X4.5296 Y2.1661
G01 X4.5164 Y2.0761
G01 X4.5118 Y1.9792
G01 X4.5166 Y1.8824
G01 X4.5309 Y1.7865
G01 X4.5545 Y1.6924
G01 X4.5873 Y1.6011
G01 X4.6288 Y1.5135
G01 X4.6787 Y1.4303
G01 X4.7319 Y1.3584
G01 X4.7405 Y1.3479
G01 X4.8017 Y1.2807
G01 X4.8679 Y1.2205
G01 X4.8778 Y1.2124
G01 X4.9454 Y1.1622
G01 X4.9567 Y1.1547
G01 X5.0335 Y1.1088
G01 X5.1156 Y1.0697
G01 X5.1281 Y1.0645
G01 X5.2124 Y1.0345
G01 X5.3065 Y1.0109
G01 X5.4024 Y0.9966
G01 X5.4932 Y0.9919
G01 X5.4962 Y1.0533
G01 X5.5038 Y1.0533
G01 X5.5871 Y1.0574
G01 X5.5946 Y1.0581
G01 X5.6808 Y1.0710
G01 X5.7690 Y1.0931
G01 X5.8547 Y1.1237
G01 X5.9335 Y1.1609
G01 X5.9402 Y1.1645
G01 X6.0117 Y1.2074
G01 X6.0180 Y1.2116
G01 X6.0880 Y1.2636
G01 X6.1526 Y1.3221
G01 X6.1579 Y1.3274
G01 X6.2164 Y1.3920
G01 X6.2684 Y1.4620
G01 X6.2726 Y1.4683
G01 X6.3174 Y1.5431
G01 X6.3555 Y1.6236
G01 X6.3857 Y1.7074
G01 X6.3879 Y1.7146
G01 X6.4090 Y1.7992
G01 X6.4223 Y1.8892
G01 X6.4267 Y1.9762
G01 X6.4267 Y1.9838
G01 X6.4223 Y2.0708
G01 X6.4096 Y2.1571
G01 X6.4082 Y2.1645
G01 X6.3869 Y2.2490
G01 X6.3576 Y2.3312
G01 X6.3547 Y2.3381
G01 X6.3174 Y2.4169
G01 X6.2726 Y2.4917
G01 X6.2684 Y2.4980
G01 X6.2187 Y2.5650
G01 X6.2140 Y2.5708
G01 X6.1553 Y2.6353
G01 X6.0908 Y2.6940
G01 X6.0850 Y2.6987
G01 X6.0149 Y2.7506
G01 X5.9402 Y2.7955
G01 X5.9335 Y2.7991
G01 X5.8547 Y2.8363
G01 X5.7690 Y2.8669
G01 X5.6808 Y2.8890
G01 X5.5946 Y2.9019
G01 X5.5871 Y2.9026
G01 X5.5000 Y2.9068
G01 X5.4092 Y2.9023
G01 X5.3229 Y2.8896
G01 X5.3155 Y2.8882
G01 X5.2310 Y2.8669
G01 X5.1488 Y2.8376
G01 X5.1419 Y2.8347
G01 X5.0631 Y2.7974
G01 X4.9851 Y2.7506
G01 X4.9150 Y2.6987
G01 X4.9092 Y2.6940
G01 X4.8447 Y2.6353
G01 X4.7836 Y2.5680
G01 X4.7294 Y2.4949
G01 X4.6845 Y2.4202
G01 X4.6809 Y2.4135
G01 X4.6437 Y2.3347
G01 X4.6131 Y2.2490
G01 X4.5918 Y2.1645
G01 X4.5904 Y2.1571
G01 X4.5777 Y2.0708
G01 X4.5732 Y1.9800
G01 X4.5777 Y1.8892
G01 X4.5910 Y1.7992
G01 X4.6131 Y1.7110
G01 X4.6437 Y1.6253
G01 X4.6826 Y1.5431
G01 X4.7294 Y1.4651
G01 X4.7848 Y1.3906
G01 X4.8447 Y1.3247
G01 X4.9120 Y1.2636
G01 X4.9851 Y1.2094
G01 X5.0598 Y1.1645
G01 X5.0665 Y1.1609
G01 X5.1419 Y1.1253
G01 X5.1488 Y1.1224
G01 X5.2310 Y1.0931
G01 X5.3155 Y1.0718
G01 X5.3229 Y1.0704
G01 X5.4092 Y1.0577
G01 X5.4962 Y1.0533
G01 X5.9872 Y0.4376
G01 X5.9362 Y0.4617
G01 X5.9235 Y0.4673
G01 X5.8326 Y0.5000
G01 X5.8118 Y0.5063
G01 X5.7249 Y0.5280
G01 X5.7049 Y0.5318
G01 X5.6100 Y0.5457
G01 X5.5961 Y0.5467
G01 X5.5122 Y0.5508
G01 X5.4992 Y0.5511
G01 X5.4039 Y0.5467
G01 X5.3900 Y0.5457
G01 X5.2951 Y0.5318
G01 X5.2748 Y0.5279
G01 X5.1878 Y0.5062
G01 X5.1669 Y0.4998
G01 X5.0765 Y0.4673
G01 X5.0638 Y0.4617
G01 X5.0067 Y0.4347
G01 X5.0386 Y0.4651
G01 X5.0482 Y0.4755
G01 X5.0568 Y0.4858
G01 X5.0663 Y0.4986
G01 X5.0752 Y0.5124
G01 X5.0831 Y0.5264
G01 X5.0902 Y0.5411
G01 X5.0973 Y0.5588
G01 X5.1031 Y0.5766
G01 X5.1231 Y0.6570
G01 X5.1258 Y0.6708
G01 X5.1279 Y0.6852
G01 X5.1291 Y0.6985
G01 X5.1296 Y0.7122
G01 X5.1293 Y0.7290
G01 X5.1277 Y0.7468
G01 X5.1253 Y0.7630
G01 X5.1216 Y0.7798
G01 X5.1162 Y0.7979
G01 X5.0932 Y0.8657
G01 X5.0857 Y0.8849
G01 X5.0793 Y0.8986
G01 X5.0720 Y0.9123
G01 X5.0636 Y0.9257
G01 X5.0549 Y0.9381
G01 X5.0450 Y0.9505
G01 X5.0356 Y0.9609
G01 X5.0249 Y0.9716
G01 X5.0128 Y0.9824
G01 X5.0638 Y0.9583
G01 X5.0765 Y0.9527
G01 X5.1674 Y0.9200
G01 X5.1882 Y0.9137
G01 X5.2751 Y0.8920
G01 X5.2951 Y0.8882
G01 X5.3900 Y0.8743
G01 X5.3967 Y0.8737
G01 X5.3997 Y0.8735
G01 X5.4022 Y0.8734
G01 X5.4024 Y0.8734
G01 X5.4031 Y0.8733
G01 X5.4039 Y0.8733
G01 X5.4878 Y0.8692
G01 X5.5008 Y0.8689
G01 X5.5961 Y0.8733
G01 X5.6100 Y0.8743
G01 X5.6214 Y0.8758
G01 X5.6216 Y0.8758
G01 X5.7041 Y0.8880
G01 X5.7049 Y0.8882
G01 X5.7252 Y0.8921
G01 X5.8122 Y0.9138
G01 X5.8331 Y0.9202
G01 X5.9235 Y0.9527
G01 X5.9362 Y0.9583
G01 X5.9933 Y0.9853
G01 X5.9614 Y0.9549
G01 X5.9518 Y0.9445
G01 X5.9432 Y0.9342
G01 X5.9337 Y0.9213
G01 X5.9248 Y0.9076
G01 X5.9169 Y0.8936
G01 X5.9098 Y0.8789
G01 X5.9027 Y0.8612
G01 X5.8969 Y0.8434
G01 X5.8769 Y0.7630
G01 X5.8742 Y0.7495
G01 X5.8723 Y0.7363
G01 X5.8709 Y0.7219
G01 X5.8704 Y0.7078
G01 X5.8707 Y0.6910
G01 X5.8723 Y0.6732
G01 X5.8747 Y0.6570
G01 X5.8784 Y0.6402
G01 X5.8838 Y0.6221
G01 X5.9068 Y0.5543
G01 X5.9143 Y0.5351
G01 X5.9207 Y0.5214
G01 X5.9210 Y0.5207
G01 X5.9212 Y0.5204
G01 X5.9223 Y0.5181
G01 X5.9241 Y0.5148
G01 X5.9280 Y0.5077
G01 X5.9364 Y0.4942
G01 X5.9451 Y0.4819
G01 X5.9550 Y0.4695
G01 X5.9644 Y0.4591
G01 X5.9751 Y0.4484
G01 X5.9872 Y0.4376
G00 Z2.0000
G00 X5.4962 Y-1.4867
G01 F25.00
G01 Z-0.1000
G01 F120.00
G01 X5.5038 Y-1.4867
G01 X5.5908 Y-1.4823
G01 X5.6771 Y-1.4696
G01 X5.6845 Y-1.4682
G01 X5.7690 Y-1.4469
G01 X5.8512 Y-1.4176
G01 X5.8581 Y-1.4147
G01 X5.9369 Y-1.3774
G01 X6.0117 Y-1.3326
G01 X6.0180 Y-1.3284
G01 X6.0880 Y-1.2764
G01 X6.1526 Y-1.2179
G01 X6.1579 Y-1.2126
G01 X6.2164 Y-1.1480
G01 X6.2684 Y-1.0780
G01 X6.2726 Y-1.0717
G01 X6.3174 Y-0.9969
G01 X6.3547 Y-0.9181
G01 X6.3576 Y-0.9112
G01 X6.3869 Y-0.8290
G01 X6.4082 Y-0.7445
G01 X6.4096 Y-0.7371
G01 X6.4223 Y-0.6508
G01 X6.4267 Y-0.5638
G01 X6.4267 Y-0.5562
G01 X6.4223 Y-0.4692
G01 X6.4096 Y-0.3829
G01 X6.4082 Y-0.3755
G01 X6.3869 Y-0.2910
G01 X6.3576 Y-0.2088
G01 X6.3547 Y-0.2019
G01 X6.3174 Y-0.1231
G01 X6.2726 Y-0.0483
G01 X6.2684 Y-0.0420
G01 X6.2164 Y0.0280
G01 X6.1579 Y0.0926
G01 X6.1526 Y0.0979
G01 X6.0880 Y0.1564
G01 X6.0149 Y0.2106
G01 X5.9402 Y0.2555
G01 X5.9335 Y0.2591
G01 X5.8547 Y0.2963
G01 X5.7726 Y0.3257
G01 X5.7654 Y0.3279
G01 X5.6808 Y0.3490
G01 X5.5946 Y0.3619
G01 X5.5871 Y0.3626
G01 X5.5000 Y0.3668
G01 X5.4129 Y0.3626
G01 X5.4054 Y0.3619
G01 X5.3192 Y0.3490
G01 X5.2346 Y0.3279
G01 X5.2274 Y0.3257
G01 X5.1453 Y0.2963
G01 X5.0665 Y0.2591
G01 X5.0598 Y0.2555
G01 X4.9851 Y0.2106
G01 X4.9150 Y0.1587
G01 X4.9092 Y0.1540
G01 X4.8447 Y0.0953
G01 X4.7860 Y0.0308
G01 X4.7813 Y0.0250
G01 X4.7305 Y-0.0435
G01 X4.6845 Y-0.1198
G01 X4.6809 Y-0.1265
G01 X4.6437 Y-0.2053
G01 X4.6143 Y-0.2874
G01 X4.6121 Y-0.2946
G01 X4.5910 Y-0.3792
G01 X4.5781 Y-0.4654
G01 X4.5774 Y-0.4729
G01 X4.5732 Y-0.5600
G01 X4.5774 Y-0.6471
G01 X4.5781 Y-0.6546
G01 X4.5910 Y-0.7408
G01 X4.6121 Y-0.8254
G01 X4.6143 Y-0.8326
G01 X4.6437 Y-0.9147
G01 X4.6818 Y-0.9952
G01 X4.7294 Y-1.0749
G01 X4.7813 Y-1.1450
G01 X4.7860 Y-1.1508
G01 X4.8447 Y-1.2153
G01 X4.9092 Y-1.2740
G01 X4.9150 Y-1.2787
G01 X4.9851 Y-1.3306
G01 X5.0598 Y-1.3755
G01 X5.0665 Y-1.3791
G01 X5.1453 Y-1.4163
G01 X5.2310 Y-1.4469
G01 X5.3155 Y-1.4682
G01 X5.3229 Y-1.4696
G01 X5.4092 Y-1.4823
G01 X5.4962 Y-1.4867
G01 X5.4932 Y-1.5481
G01 X5.5068 Y-1.5481
G01 X5.5976 Y-1.5434
G01 X5.6861 Y-1.5304
G01 X5.6994 Y-1.5278
G01 X5.7861 Y-1.5059
G01 X5.8719 Y-1.4755
G01 X5.8844 Y-1.4703
G01 X5.9652 Y-1.4319
G01 X6.0497 Y-1.3813
G01 X6.1216 Y-1.3281
G01 X6.1321 Y-1.3195
G01 X6.1993 Y-1.2583
G01 X6.2595 Y-1.1921
G01 X6.2681 Y-1.1816
G01 X6.3213 Y-1.1097
G01 X6.3719 Y-1.0252
G01 X6.4103 Y-0.9444
G01 X6.4155 Y-0.9319
G01 X6.4459 Y-0.8461
G01 X6.4678 Y-0.7594
G01 X6.4704 Y-0.7461
G01 X6.4834 Y-0.6576
G01 X6.4882 Y-0.5592
G01 X6.4840 Y-0.4699
G01 X6.4827 Y-0.4564
G01 X6.4694 Y-0.3679
G01 X6.4475 Y-0.2797
G01 X6.4438 Y-0.2674
G01 X6.4152 Y-0.1874
G01 X6.4103 Y-0.1756
G01 X6.3719 Y-0.0948
G01 X6.3253 Y-0.0167
G01 X6.3182 Y-0.0060
G01 X6.2676 Y0.0622
G01 X6.2595 Y0.0721
G01 X6.1983 Y0.1393
G01 X6.1321 Y0.1995
G01 X6.1216 Y0.2081
G01 X6.0497 Y0.2613
G01 X5.9652 Y0.3119
G01 X5.8775 Y0.3533
G01 X5.7933 Y0.3836
G01 X5.7803 Y0.3875
G01 X5.6921 Y0.4094
G01 X5.6036 Y0.4227
G01 X5.5909 Y0.4239
G01 X5.5068 Y0.4281
G01 X5.4932 Y0.4281
G01 X5.4039 Y0.4236
G01 X5.3065 Y0.4091
G01 X5.2197 Y0.3875
G01 X5.2067 Y0.3836
G01 X5.1225 Y0.3533
G01 X5.0402 Y0.3146
G01 X5.0282 Y0.3082
G01 X4.9516 Y0.2621
G01 X4.8784 Y0.2081
G01 X4.8699 Y0.2012
G01 X4.8056 Y0.1430
G01 X4.7965 Y0.1339
G01 X4.7356 Y0.0663
G01 X4.6822 Y-0.0054
G01 X4.6747 Y-0.0167
G01 X4.6288 Y-0.0935
G01 X4.5897 Y-0.1756
G01 X4.5845 Y-0.1881
G01 X4.5541 Y-0.2739
G01 X4.5322 Y-0.3606
G01 X4.5296 Y-0.3739
G01 X4.5164 Y-0.4639
G01 X4.5119 Y-0.5532
G01 X4.5119 Y-0.5668
G01 X4.5166 Y-0.6576
G01 X4.5296 Y-0.7461
G01 X4.5322 Y-0.7594
G01 X4.5545 Y-0.8476
G01 X4.5845 Y-0.9319
G01 X4.5897 Y-0.9444
G01 X4.6281 Y-1.0252
G01 X4.6747 Y-1.1033
G01 X4.6822 Y-1.1146
G01 X4.7356 Y-1.1863
G01 X4.8017 Y-1.2593
G01 X4.8679 Y-1.3195
G01 X4.8784 Y-1.3281
G01 X4.9516 Y-1.3821
G01 X5.0282 Y-1.4282
G01 X5.0395 Y-1.4343
G01 X5.1180 Y-1.4714
G01 X5.1281 Y-1.4755
G01 X5.2124 Y-1.5055
G01 X5.3065 Y-1.5291
G01 X5.4024 Y-1.5434
G01 X5.4932 Y-1.5481
G01 X5.4902 Y-1.6094
G01 X5.5083 Y-1.6095
G01 X5.6021 Y-1.6047
G01 X5.6126 Y-1.6034
G01 X5.6955 Y-1.5911
G01 X5.7140 Y-1.5875
G01 X5.7953 Y-1.5671
G01 X5.8054 Y-1.5643
G01 X5.8936 Y-1.5329
G01 X5.9107 Y-1.5258
G01 X5.9861 Y-1.4901
G01 X5.9955 Y-1.4854
G01 X6.0797 Y-1.4350
G01 X6.0912 Y-1.4271
G01 X6.1582 Y-1.3774
G01 X6.1665 Y-1.3709
G01 X6.2360 Y-1.3082
G01 X6.2490 Y-1.2951
G01 X6.3050 Y-1.2333
G01 X6.3119 Y-1.2253
G01 X6.3674 Y-1.1509
G01 X6.3774 Y-1.1359
G01 X6.4254 Y-1.0555
G01 X6.4301 Y-1.0461
G01 X6.4658 Y-0.9707
G01 X6.4701 Y-0.9610
G01 X6.5018 Y-0.8729
G01 X6.5071 Y-0.8553
G01 X6.5274 Y-0.7743
G01 X6.5297 Y-0.7640
G01 X6.5435 Y-0.6722
G01 X6.5453 Y-0.6542
G01 X6.5497 Y-0.5608
G01 X6.5494 Y-0.5502
G01 X6.5447 Y-0.4579
G01 X6.5434 Y-0.4474
G01 X6.5297 Y-0.3560
G01 X6.5274 Y-0.3457
G01 X6.5047 Y-0.2560
G01 X6.5014 Y-0.2460
G01 X6.4701 Y-0.1590
G01 X6.4658 Y-0.1493
G01 X6.4261 Y-0.0659
G01 X6.4209 Y-0.0567
G01 X6.3732 Y0.0225
G01 X6.3671 Y0.0312
G01 X6.3119 Y0.1053
G01 X6.3050 Y0.1133
G01 X6.2428 Y0.1817
G01 X6.2351 Y0.1890
G01 X6.1665 Y0.2509
G01 X6.1582 Y0.2574
G01 X6.0838 Y0.3124
G01 X6.0749 Y0.3180
G01 X5.9955 Y0.3654
G01 X5.9861 Y0.3701
G01 X5.9024 Y0.4095
G01 X5.8926 Y0.4133
G01 X5.8054 Y0.4443
G01 X5.7953 Y0.4471
G01 X5.7055 Y0.4694
G01 X5.6951 Y0.4712
G01 X5.6036 Y0.4845
G01 X5.5931 Y0.4853
G01 X5.5008 Y0.4897
G01 X5.4902 Y0.4894
G01 X5.4069 Y0.4853
G01 X5.3964 Y0.4845
G01 X5.3049 Y0.4712
G01 X5.2945 Y0.4694
G01 X5.2047 Y0.4471
G01 X5.1946 Y0.4443
G01 X5.1064 Y0.4129
G01 X5.0893 Y0.4058
G01 X5.0059 Y0.3661
G01 X4.9967 Y0.3609
G01 X4.9251 Y0.3180
G01 X4.9100 Y0.3080
G01 X4.8415 Y0.2572
G01 X4.8275 Y0.2458
G01 X4.7583 Y0.1828
G01 X4.7510 Y0.1751
G01 X4.6891 Y0.1065
G01 X4.6826 Y0.0982
G01 X4.6276 Y0.0238
G01 X4.6220 Y0.0149
G01 X4.5791 Y-0.0567
G01 X4.5739 Y-0.0659
G01 X4.5342 Y-0.1493
G01 X4.5299 Y-0.1590
G01 X4.4982 Y-0.2471
G01 X4.4929 Y-0.2647
G01 X4.4726 Y-0.3457
G01 X4.4703 Y-0.3560
G01 X4.4566 Y-0.4474
G01 X4.4547 Y-0.4654
G01 X4.4505 Y-0.5506
G01 X4.4505 Y-0.5687
G01 X4.4553 Y-0.6621
G01 X4.4566 Y-0.6726
G01 X4.4702 Y-0.7633
G01 X4.4726 Y-0.7743
G01 X4.4953 Y-0.8640
G01 X4.4986 Y-0.8740
G01 X4.5268 Y-0.9529
G01 X4.5337 Y-0.9696
G01 X4.5699 Y-1.0461
G01 X4.5791 Y-1.0633
G01 X4.6220 Y-1.1349
G01 X4.6276 Y-1.1438
G01 X4.6826 Y-1.2182
G01 X4.6891 Y-1.2265
G01 X4.7510 Y-1.2951
G01 X4.7583 Y-1.3028
G01 X4.8335 Y-1.3709
G01 X4.8418 Y-1.3774
G01 X4.9162 Y-1.4324
G01 X4.9251 Y-1.4380
G01 X4.9970 Y-1.4811
G01 X5.0139 Y-1.4901
G01 X5.0904 Y-1.5263
G01 X5.1071 Y-1.5332
G01 X5.1860 Y-1.5614
G01 X5.1960 Y-1.5647
G01 X5.2945 Y-1.5894
G01 X5.3049 Y-1.5912
G01 X5.3964 Y-1.6045
G01 X5.4069 Y-1.6053
G01 X5.4902 Y-1.6094
G01 X5.2483 Y-1.7679
G01 X5.2621 Y-1.7708
G01 X5.2763 Y-1.7733
G01 X5.3613 Y-1.7859
G01 X5.3635 Y-1.7862
G01 X5.3640 Y-1.7863
G01 X5.3659 Y-1.7865
G01 X5.3688 Y-1.7869
G01 X5.3773 Y-1.7879
G01 X5.3978 Y-1.7894
G01 X5.4825 Y-1.7936
G01 X5.5008 Y-1.7940
G01 X5.5177 Y-1.7936
G01 X5.6025 Y-1.7894
G01 X5.6236 Y-1.7878
G01 X5.6387 Y-1.7859
G01 X5.7245 Y-1.7731
G01 X5.7392 Y-1.7706
G01 X5.7535 Y-1.7675
G01 X5.7510 Y-1.7831
G01 X5.7493 Y-1.7982
G01 X5.7480 Y-1.8146
G01 X5.7475 Y-1.8295
G01 X5.7476 Y-1.8452
G01 X5.7483 Y-1.8602
G01 X5.7497 Y-1.8766
G01 X5.7517 Y-1.8921
G01 X5.7379 Y-1.8892
G01 X5.7237 Y-1.8867
G01 X5.6387 Y-1.8741
G01 X5.6227 Y-1.8721
G01 X5.6022 Y-1.8706
G01 X5.5188 Y-1.8665
G01 X5.5175 Y-1.8664
G01 X5.4992 Y-1.8660
G01 X5.4823 Y-1.8664
G01 X5.3975 Y-1.8706
G01 X5.3764 Y-1.8722
G01 X5.3613 Y-1.8741
G01 X5.2755 Y-1.8869
G01 X5.2608 Y-1.8894
G01 X5.2465 Y-1.8925
G01 X5.2490 Y-1.8769
G01 X5.2507 Y-1.8617
G01 X5.2520 Y-1.8453
G01 X5.2525 Y-1.8303
G01 X5.2524 Y-1.8148
G01 X5.2517 Y-1.7997
G01 X5.2503 Y-1.7834
G01 X5.2483 Y-1.7679
G01 X5.1608 Y-1.6824
G01 X5.1749 Y-1.6863
G01 X5.2565 Y-1.7067
G01 X5.2698 Y-1.7097
G01 X5.2858 Y-1.7126
G01 X5.2868 Y-1.7127
G01 X5.3694 Y-1.7250
G01 X5.3838 Y-1.7268
G01 X5.3986 Y-1.7280
G01 X5.4849 Y-1.7322
G01 X5.4992 Y-1.7326
G01 X5.5150 Y-1.7322
G01 X5.6013 Y-1.7280
G01 X5.6159 Y-1.7268
G01 X5.6304 Y-1.7250
G01 X5.7140 Y-1.7126
G01 X5.7300 Y-1.7098
G01 X5.7441 Y-1.7066
G01 X5.8369 Y-1.6831
G01 X5.8179 Y-1.7596
G01 X5.8140 Y-1.7785
G01 X5.8118 Y-1.7922
G01 X5.8101 Y-1.8080
G01 X5.8092 Y-1.8226
G01 X5.8089 Y-1.8381
G01 X5.8095 Y-1.8545
G01 X5.8108 Y-1.8706
G01 X5.8131 Y-1.8872
G01 X5.8161 Y-1.9032
G01 X5.8195 Y-1.9173
G01 X5.8233 Y-1.9305
G01 X5.8392 Y-1.9776
G01 X5.8251 Y-1.9737
G01 X5.7435 Y-1.9533
G01 X5.7302 Y-1.9503
G01 X5.7142 Y-1.9474
G01 X5.7132 Y-1.9473
G01 X5.6306 Y-1.9350
G01 X5.6162 Y-1.9332
G01 X5.6014 Y-1.9320
G01 X5.5151 Y-1.9278
G01 X5.5008 Y-1.9274
G01 X5.4850 Y-1.9278
G01 X5.3987 Y-1.9320
G01 X5.3841 Y-1.9332
G01 X5.3696 Y-1.9350
G01 X5.2860 Y-1.9474
G01 X5.2700 Y-1.9502
G01 X5.2559 Y-1.9534
G01 X5.1631 Y-1.9769
G01 X5.1821 Y-1.9004
G01 X5.1860 Y-1.8815
G01 X5.1885 Y-1.8659
G01 X5.1899 Y-1.8520
G01 X5.1908 Y-1.8374
G01 X5.1911 Y-1.8219
G01 X5.1905 Y-1.8056
G01 X5.1892 Y-1.7894
G01 X5.1869 Y-1.7728
G01 X5.1839 Y-1.7568
G01 X5.1805 Y-1.7427
G01 X5.1767 Y-1.7295
G01 X5.1608 Y-1.6824
G01 X5.9872 Y-2.1024
G01 X5.9362 Y-2.0783
G01 X5.9235 Y-2.0727
G01 X5.8326 Y-2.0400
G01 X5.8118 Y-2.0337
G01 X5.7249 Y-2.0120
G01 X5.7049 Y-2.0082
G01 X5.6100 Y-1.9943
G01 X5.5961 Y-1.9933
G01 X5.5122 Y-1.9892
G01 X5.4992 Y-1.9889
G01 X5.4039 Y-1.9933
G01 X5.3900 Y-1.9943
G01 X5.2951 Y-2.0082
G01 X5.2748 Y-2.0121
G01 X5.1878 Y-2.0338
G01 X5.1669 Y-2.0402
G01 X5.0765 Y-2.0727
G01 X5.0638 Y-2.0783
G01 X5.0067 Y-2.1053
G01 X5.0386 Y-2.0749
G01 X5.0482 Y-2.0645
G01 X5.0568 Y-2.0542
G01 X5.0663 Y-2.0414
G01 X5.0752 Y-2.0276
G01 X5.0831 Y-2.0136
G01 X5.0902 Y-1.9989
G01 X5.0973 Y-1.9812
G01 X5.1031 Y-1.9634
G01 X5.1231 Y-1.8830
G01 X5.1258 Y-1.8692
G01 X5.1279 Y-1.8548
G01 X5.1291 Y-1.8415
G01 X5.1296 Y-1.8278
G01 X5.1293 Y-1.8110
G01 X5.1277 Y-1.7932
G01 X5.1253 Y-1.7770
G01 X5.1216 Y-1.7602
G01 X5.1162 Y-1.7421
G01 X5.0932 Y-1.6743
G01 X5.0857 Y-1.6551
G01 X5.0793 Y-1.6414
G01 X5.0720 Y-1.6277
G01 X5.0636 Y-1.6143
G01 X5.0549 Y-1.6019
G01 X5.0450 Y-1.5895
G01 X5.0356 Y-1.5791
G01 X5.0249 Y-1.5684
G01 X5.0128 Y-1.5576
G01 X5.0638 Y-1.5817
G01 X5.0765 Y-1.5873
G01 X5.1674 Y-1.6200
G01 X5.1882 Y-1.6263
G01 X5.2751 Y-1.6480
G01 X5.2951 Y-1.6518
G01 X5.3900 Y-1.6657
G01 X5.3967 Y-1.6663
G01 X5.3997 Y-1.6665
G01 X5.4022 Y-1.6666
G01 X5.4024 Y-1.6666
G01 X5.4031 Y-1.6667
G01 X5.4039 Y-1.6667
G01 X5.4878 Y-1.6708
G01 X5.5008 Y-1.6711
G01 X5.5961 Y-1.6667
G01 X5.6100 Y-1.6657
G01 X5.7049 Y-1.6518
G01 X5.7252 Y-1.6479
G01 X5.8122 Y-1.6262
G01 X5.8331 Y-1.6198
G01 X5.9235 Y-1.5873
G01 X5.9362 Y-1.5817
G01 X5.9933 Y-1.5547
G01 X5.9614 Y-1.5851
G01 X5.9518 Y-1.5955
G01 X5.9432 Y-1.6058
G01 X5.9337 Y-1.6187
G01 X5.9248 Y-1.6324
G01 X5.9169 Y-1.6464
G01 X5.9098 Y-1.6611
G01 X5.9027 Y-1.6788
G01 X5.8969 Y-1.6966
G01 X5.8769 Y-1.7770
G01 X5.8742 Y-1.7905
G01 X5.8723 Y-1.8037
G01 X5.8709 Y-1.8181
G01 X5.8704 Y-1.8322
G01 X5.8707 Y-1.8490
G01 X5.8723 Y-1.8668
G01 X5.8747 Y-1.8830
G01 X5.8784 Y-1.8998
G01 X5.8838 Y-1.9179
G01 X5.9068 Y-1.9857
G01 X5.9143 Y-2.0049
G01 X5.9207 Y-2.0186
G01 X5.9280 Y-2.0323
G01 X5.9364 Y-2.0458
G01 X5.9451 Y-2.0581
G01 X5.9538 Y-2.0691
G01 X5.9644 Y-2.0809
G01 X5.9751 Y-2.0916
G01 X5.9872 Y-2.1024
G00 Z2.0000
G00 X5.4962 Y-4.0267
G01 F25.00
G01 Z-0.1000
G01 F120.00
G01 X5.5038 Y-4.0267
G01 X5.5908 Y-4.0223
G01 X5.6771 Y-4.0096
G01 X5.6845 Y-4.0082
G01 X5.7690 Y-3.9869
G01 X5.8512 Y-3.9576
G01 X5.8581 Y-3.9547
G01 X5.9369 Y-3.9174
G01 X6.0117 Y-3.8726
G01 X6.0180 Y-3.8684
G01 X6.0880 Y-3.8164
G01 X6.1526 Y-3.7579
G01 X6.1579 Y-3.7526
G01 X6.2164 Y-3.6880
G01 X6.2684 Y-3.6180
G01 X6.2726 Y-3.6117
G01 X6.3174 Y-3.5369
G01 X6.3547 Y-3.4581
G01 X6.3576 Y-3.4512
G01 X6.3869 Y-3.3690
G01 X6.4082 Y-3.2845
G01 X6.4096 Y-3.2771
G01 X6.4223 Y-3.1908
G01 X6.4267 Y-3.1038
G01 X6.4267 Y-3.0962
G01 X6.4223 Y-3.0092
G01 X6.4096 Y-2.9229
G01 X6.4082 Y-2.9155
G01 X6.3869 Y-2.8310
G01 X6.3576 Y-2.7488
G01 X6.3547 Y-2.7419
G01 X6.3174 Y-2.6631
G01 X6.2726 Y-2.5883
G01 X6.2684 Y-2.5820
G01 X6.2164 Y-2.5120
G01 X6.1579 Y-2.4474
G01 X6.1526 Y-2.4421
G01 X6.0880 Y-2.3836
G01 X6.0149 Y-2.3294
G01 X5.9402 Y-2.2845
G01 X5.9335 Y-2.2809
G01 X5.8547 Y-2.2437
G01 X5.7726 Y-2.2143
G01 X5.7654 Y-2.2121
G01 X5.6808 Y-2.1910
G01 X5.5946 Y-2.1781
G01 X5.5871 Y-2.1774
G01 X5.5000 Y-2.1732
G01 X5.4129 Y-2.1774
G01 X5.4054 Y-2.1781
G01 X5.3192 Y-2.1910
G01 X5.2346 Y-2.2121
G01 X5.2274 Y-2.2143
G01 X5.1453 Y-2.2437
G01 X5.0665 Y-2.2809
G01 X5.0598 Y-2.2845
G01 X4.9851 Y-2.3294
G01 X4.9150 Y-2.3813
G01 X4.9092 Y-2.3860
G01 X4.8447 Y-2.4447
G01 X4.7860 Y-2.5092
G01 X4.7813 Y-2.5150
G01 X4.7305 Y-2.5835
G01 X4.6845 Y-2.6598
G01 X4.6809 Y-2.6665
G01 X4.6437 Y-2.7453
G01 X4.6143 Y-2.8274
G01 X4.6121 Y-2.8346
G01 X4.5910 Y-2.9192
G01 X4.5781 Y-3.0054
G01 X4.5774 Y-3.0129
G01 X4.5732 Y-3.1000
G01 X4.5774 Y-3.1871
G01 X4.5781 Y-3.1946
G01 X4.5910 Y-3.2808
G01 X4.6121 Y-3.3654
G01 X4.6143 Y-3.3726
G01 X4.6437 Y-3.4547
G01 X4.6818 Y-3.5352
G01 X4.7294 Y-3.6149
G01 X4.7813 Y-3.6850
G01 X4.7860 Y-3.6908
G01 X4.8447 Y-3.7553
G01 X4.9092 Y-3.8140
G01 X4.9150 Y-3.8187
G01 X4.9851 Y-3.8706
G01 X5.0598 Y-3.9155
G01 X5.0665 Y-3.9191
G01 X5.1453 Y-3.9563
G01 X5.2310 Y-3.9869
G01 X5.3155 Y-4.0082
G01 X5.3229 Y-4.0096
G01 X5.4092 Y-4.0223
G01 X5.4962 Y-4.0267
G01 X5.4932 Y-4.0881
G01 X5.5068 Y-4.0881
G01 X5.5976 Y-4.0834
G01 X5.6861 Y-4.0704
G01 X5.6994 Y-4.0678
G01 X5.7876 Y-4.0455
G01 X5.8719 Y-4.0155
G01 X5.8844 Y-4.0103
G01 X5.9652 Y-3.9719
G01 X6.0497 Y-3.9213
G01 X6.1216 Y-3.8681
G01 X6.1321 Y-3.8595
G01 X6.1993 Y-3.7983
G01 X6.2595 Y-3.7321
G01 X6.2681 Y-3.7216
G01 X6.3213 Y-3.6497
G01 X6.3719 Y-3.5652
G01 X6.4103 Y-3.4844
G01 X6.4155 Y-3.4719
G01 X6.4459 Y-3.3861
G01 X6.4678 Y-3.2994
G01 X6.4704 Y-3.2861
G01 X6.4834 Y-3.1976
G01 X6.4882 Y-3.0992
G01 X6.4840 Y-3.0099
G01 X6.4827 Y-2.9964
G01 X6.4691 Y-2.9065
G01 X6.4475 Y-2.8197
G01 X6.4438 Y-2.8074
G01 X6.4152 Y-2.7274
G01 X6.4103 Y-2.7156
G01 X6.3712 Y-2.6335
G01 X6.3253 Y-2.5567
G01 X6.3182 Y-2.5460
G01 X6.2676 Y-2.4778
G01 X6.2595 Y-2.4679
G01 X6.1993 Y-2.4017
G01 X6.1321 Y-2.3405
G01 X6.1216 Y-2.3319
G01 X6.0497 Y-2.2787
G01 X5.9652 Y-2.2281
G01 X5.8775 Y-2.1867
G01 X5.7933 Y-2.1564
G01 X5.7803 Y-2.1525
G01 X5.6921 Y-2.1306
G01 X5.6036 Y-2.1173
G01 X5.5909 Y-2.1161
G01 X5.5068 Y-2.1119
G01 X5.4932 Y-2.1119
G01 X5.4039 Y-2.1164
G01 X5.3065 Y-2.1309
G01 X5.2197 Y-2.1525
G01 X5.2067 Y-2.1564
G01 X5.1225 Y-2.1867
G01 X5.0402 Y-2.2254
G01 X5.0282 Y-2.2318
G01 X4.9516 Y-2.2779
G01 X4.8784 Y-2.3319
G01 X4.8699 Y-2.3388
G01 X4.8056 Y-2.3970
G01 X4.7965 Y-2.4061
G01 X4.7356 Y-2.4737
G01 X4.6822 Y-2.5454
G01 X4.6747 Y-2.5567
G01 X4.6281 Y-2.6348
G01 X4.5897 Y-2.7156
G01 X4.5845 Y-2.7281
G01 X4.5545 Y-2.8124
G01 X4.5322 Y-2.9006
G01 X4.5296 Y-2.9139
G01 X4.5164 Y-3.0039
G01 X4.5119 Y-3.0932
G01 X4.5119 Y-3.1068
G01 X4.5166 Y-3.1976
G01 X4.5296 Y-3.2861
G01 X4.5322 Y-3.2994
G01 X4.5545 Y-3.3876
G01 X4.5845 Y-3.4719
G01 X4.5897 Y-3.4844
G01 X4.6281 Y-3.5652
G01 X4.6747 Y-3.6433
G01 X4.6822 Y-3.6546
G01 X4.7356 Y-3.7263
G01 X4.8017 Y-3.7993
G01 X4.8679 Y-3.8595
G01 X4.8784 Y-3.8681
G01 X4.9516 Y-3.9221
G01 X5.0282 Y-3.9682
G01 X5.0395 Y-3.9743
G01 X5.1180 Y-4.0114
G01 X5.1281 Y-4.0155
G01 X5.2124 Y-4.0455
G01 X5.3065 Y-4.0691
G01 X5.4024 Y-4.0834
G01 X5.4932 Y-4.0881
G01 X5.4902 Y-4.1494
G01 X5.5083 Y-4.1495
G01 X5.6021 Y-4.1447
G01 X5.6126 Y-4.1434
G01 X5.6955 Y-4.1311
G01 X5.7140 Y-4.1275
G01 X5.7953 Y-4.1071
G01 X5.8054 Y-4.1043
G01 X5.8936 Y-4.0729
G01 X5.9107 Y-4.0658
G01 X5.9861 Y-4.0301
G01 X5.9955 Y-4.0254
G01 X6.0797 Y-3.9750
G01 X6.0912 Y-3.9671
G01 X6.1582 Y-3.9174
G01 X6.1665 Y-3.9109
G01 X6.2360 Y-3.8482
G01 X6.2490 Y-3.8351
G01 X6.3050 Y-3.7733
G01 X6.3119 Y-3.7653
G01 X6.3674 Y-3.6909
G01 X6.3774 Y-3.6759
G01 X6.4254 Y-3.5955
G01 X6.4301 Y-3.5861
G01 X6.4658 Y-3.5107
G01 X6.4701 Y-3.5010
G01 X6.5018 Y-3.4129
G01 X6.5071 Y-3.3953
G01 X6.5274 Y-3.3143
G01 X6.5297 Y-3.3040
G01 X6.5435 Y-3.2122
G01 X6.5453 Y-3.1942
G01 X6.5497 Y-3.1008
G01 X6.5494 Y-3.0902
G01 X6.5447 Y-2.9979
G01 X6.5434 Y-2.9874
G01 X6.5297 Y-2.8960
G01 X6.5274 Y-2.8857
G01 X6.5047 Y-2.7960
G01 X6.5014 Y-2.7860
G01 X6.4701 Y-2.6990
G01 X6.4658 Y-2.6893
G01 X6.4261 Y-2.6059
G01 X6.4209 Y-2.5967
G01 X6.3732 Y-2.5175
G01 X6.3671 Y-2.5088
G01 X6.3119 Y-2.4347
G01 X6.3050 Y-2.4267
G01 X6.2428 Y-2.3583
G01 X6.2351 Y-2.3510
G01 X6.1665 Y-2.2891
G01 X6.1582 Y-2.2826
G01 X6.0838 Y-2.2276
G01 X6.0749 Y-2.2220
G01 X5.9955 Y-2.1746
G01 X5.9861 Y-2.1699
G01 X5.9024 Y-2.1305
G01 X5.8926 Y-2.1267
G01 X5.8054 Y-2.0957
G01 X5.7953 Y-2.0929
G01 X5.7055 Y-2.0706
G01 X5.6951 Y-2.0688
G01 X5.6036 Y-2.0555
G01 X5.5931 Y-2.0547
G01 X5.5008 Y-2.0503
G01 X5.4902 Y-2.0506
G01 X5.4069 Y-2.0547
G01 X5.3964 Y-2.0555
G01 X5.3049 Y-2.0688
G01 X5.2945 Y-2.0706
G01 X5.2047 Y-2.0929
G01 X5.1946 Y-2.0957
G01 X5.1064 Y-2.1271
G01 X5.0893 Y-2.1342
G01 X5.0059 Y-2.1739
G01 X4.9967 Y-2.1791
G01 X4.9251 Y-2.2220
G01 X4.9100 Y-2.2320
G01 X4.8415 Y-2.2828
G01 X4.8275 Y-2.2942
G01 X4.7583 Y-2.3572
G01 X4.7510 Y-2.3649
G01 X4.6891 Y-2.4335
G01 X4.6826 Y-2.4418
G01 X4.6329 Y-2.5088
G01 X4.6268 Y-2.5175
G01 X4.5791 Y-2.5967
G01 X4.5739 Y-2.6059
G01 X4.5342 Y-2.6893
G01 X4.5299 Y-2.6990
G01 X4.4982 Y-2.7871
G01 X4.4929 Y-2.8047
G01 X4.4726 Y-2.8857
G01 X4.4703 Y-2.8960
G01 X4.4566 Y-2.9874
G01 X4.4547 Y-3.0054
G01 X4.4505 Y-3.0906
G01 X4.4505 Y-3.1087
G01 X4.4553 Y-3.2021
G01 X4.4566 Y-3.2126
G01 X4.4702 Y-3.3033
G01 X4.4726 Y-3.3143
G01 X4.4953 Y-3.4040
G01 X4.4986 Y-3.4140
G01 X4.5268 Y-3.4929
G01 X4.5337 Y-3.5096
G01 X4.5699 Y-3.5861
G01 X4.5791 Y-3.6033
G01 X4.6220 Y-3.6749
G01 X4.6276 Y-3.6838
G01 X4.6826 Y-3.7582
G01 X4.6891 Y-3.7665
G01 X4.7510 Y-3.8351
G01 X4.7583 Y-3.8428
G01 X4.8335 Y-3.9109
G01 X4.8418 Y-3.9174
G01 X4.9162 Y-3.9724
G01 X4.9251 Y-3.9780
G01 X4.9970 Y-4.0211
G01 X5.0129 Y-4.0297
G01 X5.0893 Y-4.0658
G01 X5.1071 Y-4.0732
G01 X5.1860 Y-4.1014
G01 X5.1960 Y-4.1047
G01 X5.2945 Y-4.1294
G01 X5.3049 Y-4.1312
G01 X5.3964 Y-4.1445
G01 X5.4069 Y-4.1453
G01 X5.4902 Y-4.1494
G01 X5.2483 Y-4.3079
G01 X5.2621 Y-4.3108
G01 X5.2763 Y-4.3133
G01 X5.3613 Y-4.3259
G01 X5.3635 Y-4.3262
G01 X5.3640 Y-4.3263
G01 X5.3659 Y-4.3265
G01 X5.3688 Y-4.3269
G01 X5.3773 Y-4.3279
G01 X5.3978 Y-4.3294
G01 X5.4825 Y-4.3336
G01 X5.5008 Y-4.3340
G01 X5.5177 Y-4.3336
G01 X5.6025 Y-4.3294
G01 X5.6236 Y-4.3278
G01 X5.6387 Y-4.3259
G01 X5.7245 Y-4.3131
G01 X5.7392 Y-4.3106
G01 X5.7535 Y-4.3075
G01 X5.7510 Y-4.3231
G01 X5.7493 Y-4.3382
G01 X5.7480 Y-4.3546
G01 X5.7475 Y-4.3695
G01 X5.7476 Y-4.3852
G01 X5.7483 Y-4.4002
G01 X5.7497 Y-4.4166
G01 X5.7517 Y-4.4321
G01 X5.7379 Y-4.4292
G01 X5.7237 Y-4.4267
G01 X5.6387 Y-4.4141
G01 X5.6227 Y-4.4121
G01 X5.6022 Y-4.4106
G01 X5.5188 Y-4.4065
G01 X5.5175 Y-4.4064
G01 X5.4992 Y-4.4060
G01 X5.4823 Y-4.4064
G01 X5.3975 Y-4.4106
G01 X5.3764 Y-4.4122
G01 X5.3613 Y-4.4141
G01 X5.2755 Y-4.4269
G01 X5.2608 Y-4.4294
G01 X5.2465 Y-4.4325
G01 X5.2490 Y-4.4169
G01 X5.2507 Y-4.4017
G01 X5.2520 Y-4.3853
G01 X5.2525 Y-4.3703
G01 X5.2524 Y-4.3548
G01 X5.2517 Y-4.3397
G01 X5.2503 Y-4.3234
G01 X5.2483 Y-4.3079
G01 X5.1608 Y-4.2224
G01 X5.1749 Y-4.2263
G01 X5.2565 Y-4.2467
G01 X5.2698 Y-4.2497
G01 X5.2858 Y-4.2526
G01 X5.2868 Y-4.2527
G01 X5.3694 Y-4.2650
G01 X5.3838 Y-4.2668
G01 X5.3986 Y-4.2680
G01 X5.4849 Y-4.2722
G01 X5.4992 Y-4.2726
G01 X5.5150 Y-4.2722
G01 X5.6013 Y-4.2680
G01 X5.6159 Y-4.2668
G01 X5.6304 Y-4.2650
G01 X5.7140 Y-4.2526
G01 X5.7300 Y-4.2498
G01 X5.7441 Y-4.2466
G01 X5.8369 Y-4.2231
G01 X5.8179 Y-4.2996
G01 X5.8140 Y-4.3185
G01 X5.8118 Y-4.3322
G01 X5.8101 Y-4.3480
G01 X5.8092 Y-4.3626
G01 X5.8089 Y-4.3781
G01 X5.8095 Y-4.3945
G01 X5.8108 Y-4.4106
G01 X5.8131 Y-4.4272
G01 X5.8161 Y-4.4432
G01 X5.8195 Y-4.4573
G01 X5.8233 Y-4.4705
G01 X5.8392 Y-4.5176
G01 X5.8251 Y-4.5137
G01 X5.7435 Y-4.4933
G01 X5.7302 Y-4.4903
G01 X5.7142 Y-4.4874
G01 X5.7132 Y-4.4873
G01 X5.6306 Y-4.4750
G01 X5.6162 Y-4.4732
G01 X5.6014 Y-4.4720
G01 X5.5151 Y-4.4678
G01 X5.5008 Y-4.4674
G01 X5.4850 Y-4.4678
G01 X5.3987 Y-4.4720
G01 X5.3841 Y-4.4732
G01 X5.3696 Y-4.4750
G01 X5.2860 Y-4.4874
G01 X5.2700 Y-4.4902
G01 X5.2559 Y-4.4934
G01 X5.1631 Y-4.5169
G01 X5.1821 Y-4.4404
G01 X5.1860 Y-4.4215
G01 X5.1885 Y-4.4059
G01 X5.1899 Y-4.3920
G01 X5.1908 Y-4.3774
G01 X5.1911 Y-4.3619
G01 X5.1905 Y-4.3456
G01 X5.1892 Y-4.3294
G01 X5.1869 Y-4.3128
G01 X5.1839 Y-4.2968
G01 X5.1805 Y-4.2827
G01 X5.1767 Y-4.2695
G01 X5.1608 Y-4.2224
G01 X5.9872 Y-4.6424
G01 X5.9362 Y-4.6183
G01 X5.9235 Y-4.6127
G01 X5.8326 Y-4.5800
G01 X5.8118 Y-4.5737
G01 X5.7249 Y-4.5520
G01 X5.7049 Y-4.5482
G01 X5.6100 Y-4.5343
G01 X5.5961 Y-4.5333
G01 X5.5122 Y-4.5292
G01 X5.4992 Y-4.5289
G01 X5.4039 Y-4.5333
G01 X5.3900 Y-4.5343
G01 X5.2951 Y-4.5482
G01 X5.2748 Y-4.5521
G01 X5.1878 Y-4.5738
G01 X5.1669 Y-4.5802
G01 X5.0765 Y-4.6127
G01 X5.0638 Y-4.6183
G01 X5.0067 Y-4.6453
G01 X5.0386 Y-4.6149
G01 X5.0482 Y-4.6045
G01 X5.0568 Y-4.5942
G01 X5.0663 Y-4.5814
G01 X5.0752 Y-4.5676
G01 X5.0831 Y-4.5536
G01 X5.0902 Y-4.5389
G01 X5.0973 Y-4.5212
G01 X5.1031 Y-4.5034
G01 X5.1231 Y-4.4230
G01 X5.1258 Y-4.4096
G01 X5.1277 Y-4.3963
G01 X5.1291 Y-4.3819
G01 X5.1296 Y-4.3678
G01 X5.1293 Y-4.3510
G01 X5.1277 Y-4.3332
G01 X5.1253 Y-4.3170
G01 X5.1216 Y-4.3002
G01 X5.1162 Y-4.2821
G01 X5.0932 Y-4.2143
G01 X5.0857 Y-4.1951
G01 X5.0793 Y-4.1814
G01 X5.0720 Y-4.1677
G01 X5.0636 Y-4.1543
G01 X5.0549 Y-4.1419
G01 X5.0450 Y-4.1295
G01 X5.0356 Y-4.1191
G01 X5.0249 Y-4.1084
G01 X5.0128 Y-4.0976
G01 X5.0638 Y-4.1217
G01 X5.0765 Y-4.1273
G01 X5.1674 Y-4.1600
G01 X5.1882 Y-4.1663
G01 X5.2751 Y-4.1880
G01 X5.2951 Y-4.1918
G01 X5.3900 Y-4.2057
G01 X5.3967 Y-4.2063
G01 X5.3997 Y-4.2065
G01 X5.4022 Y-4.2066
G01 X5.4024 Y-4.2066
G01 X5.4031 Y-4.2067
G01 X5.4039 Y-4.2067
G01 X5.4878 Y-4.2108
G01 X5.5008 Y-4.2111
G01 X5.5961 Y-4.2067
G01 X5.6100 Y-4.2057
G01 X5.7049 Y-4.1918
G01 X5.7252 Y-4.1879
G01 X5.8122 Y-4.1662
G01 X5.8331 Y-4.1598
G01 X5.9235 Y-4.1273
G01 X5.9362 Y-4.1217
G01 X5.9933 Y-4.0947
G01 X5.9614 Y-4.1251
G01 X5.9518 Y-4.1355
G01 X5.9432 Y-4.1458
G01 X5.9337 Y-4.1587
G01 X5.9248 Y-4.1724
G01 X5.9169 Y-4.1864
G01 X5.9098 Y-4.2011
G01 X5.9027 Y-4.2188
G01 X5.8969 Y-4.2366
G01 X5.8769 Y-4.3170
G01 X5.8742 Y-4.3305
G01 X5.8723 Y-4.3437
G01 X5.8709 Y-4.3581
G01 X5.8704 Y-4.3722
G01 X5.8707 Y-4.3890
G01 X5.8723 Y-4.4068
G01 X5.8747 Y-4.4230
G01 X5.8784 Y-4.4398
G01 X5.8838 Y-4.4579
G01 X5.9068 Y-4.5257
G01 X5.9143 Y-4.5449
G01 X5.9207 Y-4.5586
G01 X5.9280 Y-4.5723
G01 X5.9364 Y-4.5858
G01 X5.9451 Y-4.5981
G01 X5.9538 Y-4.6091
G01 X5.9644 Y-4.6209
G01 X5.9751 Y-4.6316
G01 X5.9872 Y-4.6424
G00 Z2.0000
G00 X5.4962 Y-6.5667
G01 F25.00
G01 Z-0.1000
G01 F120.00
G01 X5.5038 Y-6.5667
G01 X5.5908 Y-6.5623
G01 X5.6771 Y-6.5496
G01 X5.6845 Y-6.5482
G01 X5.7690 Y-6.5269
G01 X5.8512 Y-6.4976
G01 X5.8581 Y-6.4947
G01 X5.9369 Y-6.4574
G01 X6.0117 Y-6.4126
G01 X6.0180 Y-6.4084
G01 X6.0880 Y-6.3564
G01 X6.1526 Y-6.2979
G01 X6.1579 Y-6.2926
G01 X6.2164 Y-6.2280
G01 X6.2684 Y-6.1580
G01 X6.2726 Y-6.1517
G01 X6.3174 Y-6.0769
G01 X6.3547 Y-5.9981
G01 X6.3576 Y-5.9912
G01 X6.3869 Y-5.9090
G01 X6.4082 Y-5.8245
G01 X6.4096 Y-5.8171
G01 X6.4223 Y-5.7308
G01 X6.4267 Y-5.6438
G01 X6.4267 Y-5.6362
G01 X6.4223 Y-5.5492
G01 X6.4096 Y-5.4629
G01 X6.4082 Y-5.4555
G01 X6.3869 Y-5.3710
G01 X6.3576 Y-5.2888
G01 X6.3547 Y-5.2819
G01 X6.3174 Y-5.2031
G01 X6.2706 Y-5.1251
G01 X6.2187 Y-5.0550
G01 X6.2140 Y-5.0492
G01 X6.1553 Y-4.9847
G01 X6.0908 Y-4.9260
G01 X6.0850 Y-4.9213
G01 X6.0149 Y-4.8694
G01 X5.9402 Y-4.8245
G01 X5.9335 Y-4.8209
G01 X5.8547 Y-4.7837
G01 X5.7726 Y-4.7543
G01 X5.7654 Y-4.7521
G01 X5.6808 Y-4.7310
G01 X5.5946 Y-4.7181
G01 X5.5871 Y-4.7174
G01 X5.5000 Y-4.7132
G01 X5.4129 Y-4.7174
G01 X5.4054 Y-4.7181
G01 X5.3192 Y-4.7310
G01 X5.2346 Y-4.7521
G01 X5.2274 Y-4.7543
G01 X5.1453 Y-4.7837
G01 X5.0665 Y-4.8209
G01 X5.0598 Y-4.8245
G01 X4.9851 Y-4.8694
G01 X4.9150 Y-4.9213
G01 X4.9092 Y-4.9260
G01 X4.8447 Y-4.9847
G01 X4.7860 Y-5.0492
G01 X4.7813 Y-5.0550
G01 X4.7305 Y-5.1235
G01 X4.6845 Y-5.1998
G01 X4.6809 Y-5.2065
G01 X4.6437 Y-5.2853
G01 X4.6143 Y-5.3674
G01 X4.6121 Y-5.3746
G01 X4.5910 Y-5.4592
G01 X4.5781 Y-5.5454
G01 X4.5774 Y-5.5529
G01 X4.5732 Y-5.6400
G01 X4.5774 Y-5.7271
G01 X4.5781 Y-5.7346
G01 X4.5910 Y-5.8208
G01 X4.6121 Y-5.9054
G01 X4.6143 Y-5.9126
G01 X4.6437 Y-5.9947
G01 X4.6818 Y-6.0752
G01 X4.7294 Y-6.1549
G01 X4.7813 Y-6.2250
G01 X4.7860 Y-6.2308
G01 X4.8447 Y-6.2953
G01 X4.9092 Y-6.3540
G01 X4.9150 Y-6.3587
G01 X4.9851 Y-6.4106
G01 X5.0598 Y-6.4555
G01 X5.0665 Y-6.4591
G01 X5.1453 Y-6.4963
G01 X5.2310 Y-6.5269
G01 X5.3155 Y-6.5482
G01 X5.3229 Y-6.5496
G01 X5.4092 Y-6.5623
G01 X5.4962 Y-6.5667
G01 X5.4932 Y-6.6281
G01 X5.5068 Y-6.6281
G01 X5.5976 Y-6.6234
G01 X5.6861 Y-6.6104
G01 X5.6994 Y-6.6078
G01 X5.7861 Y-6.5859
G01 X5.8719 Y-6.5555
G01 X5.8844 Y-6.5503
G01 X5.9652 Y-6.5119
G01 X6.0497 Y-6.4613
G01 X6.1216 Y-6.4081
G01 X6.1321 Y-6.3995
G01 X6.1993 Y-6.3383
G01 X6.2595 Y-6.2721
G01 X6.2681 Y-6.2616
G01 X6.3213 Y-6.1897
G01 X6.3719 Y-6.1052
G01 X6.4103 Y-6.0244
G01 X6.4155 Y-6.0119
G01 X6.4455 Y-5.9276
G01 X6.4678 Y-5.8394
G01 X6.4704 Y-5.8261
G01 X6.4834 Y-5.7376
G01 X6.4882 Y-5.6392
G01 X6.4840 Y-5.5499
G01 X6.4827 Y-5.5364
G01 X6.4694 Y-5.4479
G01 X6.4475 Y-5.3597
G01 X6.4438 Y-5.3474
G01 X6.4152 Y-5.2674
G01 X6.4103 Y-5.2556
G01 X6.3719 Y-5.1748
G01 X6.3253 Y-5.0967
G01 X6.3182 Y-5.0860
G01 X6.2676 Y-5.0178
G01 X6.2595 Y-5.0079
G01 X6.1993 Y-4.9417
G01 X6.1321 Y-4.8805
G01 X6.1216 Y-4.8719
G01 X6.0497 Y-4.8187
G01 X5.9652 Y-4.7681
G01 X5.8775 Y-4.7267
G01 X5.7933 Y-4.6964
G01 X5.7803 Y-4.6925
G01 X5.6935 Y-4.6709
G01 X5.6036 Y-4.6573
G01 X5.5909 Y-4.6561
G01 X5.5068 Y-4.6519
G01 X5.4932 Y-4.6519
G01 X5.4039 Y-4.6564
G01 X5.3065 Y-4.6709
G01 X5.2197 Y-4.6925
G01 X5.2067 Y-4.6964
G01 X5.1211 Y-4.7273
G01 X5.0402 Y-4.7654
G01 X5.0282 Y-4.7718
G01 X4.9516 Y-4.8179
G01 X4.8784 Y-4.8719
G01 X4.8699 Y-4.8788
G01 X4.8056 Y-4.9370
G01 X4.7965 Y-4.9461
G01 X4.7366 Y-5.0125
G01 X4.6822 Y-5.0854
G01 X4.6747 Y-5.0967
G01 X4.6288 Y-5.1735
G01 X4.5867 Y-5.2625
G01 X4.5564 Y-5.3467
G01 X4.5525 Y-5.3597
G01 X4.5309 Y-5.4465
G01 X4.5173 Y-5.5364
G01 X4.5160 Y-5.5499
G01 X4.5118 Y-5.6392
G01 X4.5160 Y-5.7301
G01 X4.5173 Y-5.7436
G01 X4.5306 Y-5.8321
G01 X4.5525 Y-5.9203
G01 X4.5564 Y-5.9333
G01 X4.5873 Y-6.0189
G01 X4.6254 Y-6.0998
G01 X4.6318 Y-6.1118
G01 X4.6779 Y-6.1884
G01 X4.7319 Y-6.2616
G01 X4.7405 Y-6.2721
G01 X4.8017 Y-6.3393
G01 X4.8679 Y-6.3995
G01 X4.8784 Y-6.4081
G01 X4.9516 Y-6.4621
G01 X5.0282 Y-6.5082
G01 X5.0395 Y-6.5143
G01 X5.1180 Y-6.5514
G01 X5.1281 Y-6.5555
G01 X5.2124 Y-6.5855
G01 X5.3065 Y-6.6091
G01 X5.4024 Y-6.6234
G01 X5.4932 Y-6.6281
G01 X5.4902 Y-6.6894
G01 X5.5083 Y-6.6895
G01 X5.6021 Y-6.6847
G01 X5.6126 Y-6.6834
G01 X5.6955 Y-6.6711
G01 X5.7140 Y-6.6675
G01 X5.7953 Y-6.6471
G01 X5.8054 Y-6.6443
G01 X5.8936 Y-6.6129
G01 X5.9107 Y-6.6058
G01 X5.9861 Y-6.5701
G01 X5.9955 Y-6.5654
G01 X6.0797 Y-6.5150
G01 X6.0912 Y-6.5071
G01 X6.1582 Y-6.4574
G01 X6.1665 Y-6.4509
G01 X6.2360 Y-6.3882
G01 X6.2490 Y-6.3751
G01 X6.3050 Y-6.3133
G01 X6.3119 Y-6.3053
G01 X6.3674 Y-6.2309
G01 X6.3774 Y-6.2159
G01 X6.4254 Y-6.1355
G01 X6.4301 Y-6.1261
G01 X6.4658 Y-6.0507
G01 X6.4701 Y-6.0410
G01 X6.5018 Y-5.9529
G01 X6.5071 Y-5.9353
G01 X6.5274 Y-5.8543
G01 X6.5297 Y-5.8440
G01 X6.5435 Y-5.7522
G01 X6.5453 Y-5.7342
G01 X6.5497 Y-5.6408
G01 X6.5494 Y-5.6302
G01 X6.5447 Y-5.5379
G01 X6.5434 Y-5.5274
G01 X6.5297 Y-5.4360
G01 X6.5274 Y-5.4257
G01 X6.5047 Y-5.3360
G01 X6.5014 Y-5.3260
G01 X6.4701 Y-5.2390
G01 X6.4658 Y-5.2293
G01 X6.4261 Y-5.1459
G01 X6.4209 Y-5.1367
G01 X6.3732 Y-5.0575
G01 X6.3671 Y-5.0488
G01 X6.3119 Y-4.9747
G01 X6.3050 Y-4.9667
G01 X6.2428 Y-4.8983
G01 X6.2351 Y-4.8910
G01 X6.1665 Y-4.8291
G01 X6.1582 Y-4.8226
G01 X6.0838 Y-4.7676
G01 X6.0749 Y-4.7620
G01 X5.9955 Y-4.7146
G01 X5.9861 Y-4.7099
G01 X5.9024 Y-4.6705
G01 X5.8926 Y-4.6667
G01 X5.8054 Y-4.6357
G01 X5.7953 Y-4.6329
G01 X5.7055 Y-4.6106
G01 X5.6951 Y-4.6088
G01 X5.6036 Y-4.5955
G01 X5.5931 Y-4.5947
G01 X5.5008 Y-4.5903
G01 X5.4902 Y-4.5906
G01 X5.4069 Y-4.5947
G01 X5.3964 Y-4.5955
G01 X5.3049 Y-4.6088
G01 X5.2945 Y-4.6106
G01 X5.2047 Y-4.6329
G01 X5.1946 Y-4.6357
G01 X5.1064 Y-4.6671
G01 X5.0893 Y-4.6742
G01 X5.0059 Y-4.7139
G01 X4.9967 Y-4.7191
G01 X4.9251 Y-4.7620
G01 X4.9100 Y-4.7720
G01 X4.8415 Y-4.8228
G01 X4.8275 Y-4.8342
G01 X4.7583 Y-4.8972
G01 X4.7510 Y-4.9049
G01 X4.6891 Y-4.9735
G01 X4.6826 Y-4.9818
G01 X4.6329 Y-5.0488
G01 X4.6268 Y-5.0575
G01 X4.5791 Y-5.1367
G01 X4.5739 Y-5.1459
G01 X4.5342 Y-5.2293
G01 X4.5299 Y-5.2390
G01 X4.4982 Y-5.3271
G01 X4.4929 Y-5.3447
G01 X4.4706 Y-5.4345
G01 X4.4688 Y-5.4449
G01 X4.4566 Y-5.5274
G01 X4.4547 Y-5.5454
G01 X4.4505 Y-5.6306
G01 X4.4505 Y-5.6487
G01 X4.4553 Y-5.7421
G01 X4.4566 Y-5.7526
G01 X4.4702 Y-5.8433
G01 X4.4726 Y-5.8543
G01 X4.4953 Y-5.9440
G01 X4.4986 Y-5.9540
G01 X4.5268 Y-6.0329
G01 X4.5337 Y-6.0496
G01 X4.5699 Y-6.1261
G01 X4.5791 Y-6.1433
G01 X4.6220 Y-6.2149
G01 X4.6276 Y-6.2238
G01 X4.6826 Y-6.2982
G01 X4.6891 Y-6.3065
G01 X4.7510 Y-6.3751
G01 X4.7583 Y-6.3828
G01 X4.8335 Y-6.4509
G01 X4.8418 Y-6.4574
G01 X4.9162 Y-6.5124
G01 X4.9251 Y-6.5180
G01 X4.9970 Y-6.5611
G01 X5.0139 Y-6.5701
G01 X5.0904 Y-6.6063
G01 X5.1071 Y-6.6132
G01 X5.1860 Y-6.6414
G01 X5.1960 Y-6.6447
G01 X5.2945 Y-6.6694
G01 X5.3049 Y-6.6712
G01 X5.3964 Y-6.6845
G01 X5.4069 Y-6.6853
G01 X5.4902 Y-6.6894
G01 X5.2483 Y-6.8479
G01 X5.2621 Y-6.8508
G01 X5.2763 Y-6.8533
G01 X5.3613 Y-6.8659
G01 X5.3635 Y-6.8662
G01 X5.3640 Y-6.8663
G01 X5.3659 Y-6.8665
G01 X5.3688 Y-6.8669
G01 X5.3773 Y-6.8679
G01 X5.3978 Y-6.8694
G01 X5.4825 Y-6.8736
G01 X5.5008 Y-6.8740
G01 X5.5177 Y-6.8736
G01 X5.6025 Y-6.8694
G01 X5.6236 Y-6.8678
G01 X5.6387 Y-6.8659
G01 X5.7245 Y-6.8531
G01 X5.7392 Y-6.8506
G01 X5.7535 Y-6.8475
G01 X5.7510 Y-6.8631
G01 X5.7493 Y-6.8782
G01 X5.7480 Y-6.8946
G01 X5.7475 Y-6.9095
G01 X5.7476 Y-6.9252
G01 X5.7483 Y-6.9402
G01 X5.7497 Y-6.9566
G01 X5.7517 Y-6.9721
G01 X5.7379 Y-6.9692
G01 X5.7237 Y-6.9667
G01 X5.6387 Y-6.9541
G01 X5.6227 Y-6.9521
G01 X5.6022 Y-6.9506
G01 X5.5188 Y-6.9465
G01 X5.5175 Y-6.9464
G01 X5.4992 Y-6.9460
G01 X5.4823 Y-6.9464
G01 X5.3975 Y-6.9506
G01 X5.3764 Y-6.9522
G01 X5.3613 Y-6.9541
G01 X5.2755 Y-6.9669
G01 X5.2608 Y-6.9694
G01 X5.2465 Y-6.9725
G01 X5.2490 Y-6.9569
G01 X5.2507 Y-6.9417
G01 X5.2520 Y-6.9253
G01 X5.2525 Y-6.9103
G01 X5.2524 Y-6.8948
G01 X5.2517 Y-6.8797
G01 X5.2503 Y-6.8634
G01 X5.2483 Y-6.8479
G01 X5.1608 Y-6.7624
G01 X5.1749 Y-6.7663
G01 X5.2565 Y-6.7867
G01 X5.2698 Y-6.7897
G01 X5.2858 Y-6.7926
G01 X5.2868 Y-6.7927
G01 X5.3694 Y-6.8050
G01 X5.3838 Y-6.8068
G01 X5.3986 Y-6.8080
G01 X5.4849 Y-6.8122
G01 X5.4992 Y-6.8126
G01 X5.5150 Y-6.8122
G01 X5.6013 Y-6.8080
G01 X5.6159 Y-6.8068
G01 X5.6304 Y-6.8050
G01 X5.7140 Y-6.7926
G01 X5.7300 Y-6.7898
G01 X5.7441 Y-6.7866
G01 X5.8369 Y-6.7631
G01 X5.8179 Y-6.8396
G01 X5.8140 Y-6.8585
G01 X5.8118 Y-6.8722
G01 X5.8101 Y-6.8880
G01 X5.8092 Y-6.9026
G01 X5.8089 Y-6.9181
G01 X5.8095 Y-6.9345
G01 X5.8108 Y-6.9506
G01 X5.8131 Y-6.9672
G01 X5.8161 Y-6.9832
G01 X5.8195 Y-6.9973
G01 X5.8233 Y-7.0105
G01 X5.8392 Y-7.0576
G01 X5.8251 Y-7.0537
G01 X5.7435 Y-7.0333
G01 X5.7302 Y-7.0303
G01 X5.7142 Y-7.0274
G01 X5.7132 Y-7.0273
G01 X5.6306 Y-7.0150
G01 X5.6162 Y-7.0132
G01 X5.6014 Y-7.0120
G01 X5.5151 Y-7.0078
G01 X5.5008 Y-7.0074
G01 X5.4850 Y-7.0078
G01 X5.3987 Y-7.0120
G01 X5.3841 Y-7.0132
G01 X5.3696 Y-7.0150
G01 X5.2860 Y-7.0274
G01 X5.2700 Y-7.0302
G01 X5.2559 Y-7.0334
G01 X5.1631 Y-7.0569
G01 X5.1821 Y-6.9804
G01 X5.1860 Y-6.9615
G01 X5.1882 Y-6.9478
G01 X5.1899 Y-6.9320
G01 X5.1908 Y-6.9174
G01 X5.1911 Y-6.9019
G01 X5.1905 Y-6.8856
G01 X5.1892 Y-6.8694
G01 X5.1869 Y-6.8528
G01 X5.1839 Y-6.8368
G01 X5.1805 Y-6.8227
G01 X5.1767 Y-6.8095
G01 X5.1608 Y-6.7624
G01 X5.9872 Y-7.1824
G01 X5.9362 Y-7.1583
G01 X5.9235 Y-7.1527
G01 X5.8326 Y-7.1200
G01 X5.8118 Y-7.1137
G01 X5.7249 Y-7.0920
G01 X5.7049 Y-7.0882
G01 X5.6100 Y-7.0743
G01 X5.5961 Y-7.0733
G01 X5.5122 Y-7.0692
G01 X5.4992 Y-7.0689
G01 X5.4039 Y-7.0733
G01 X5.3900 Y-7.0743
G01 X5.2951 Y-7.0882
G01 X5.2748 Y-7.0921
G01 X5.1878 Y-7.1138
G01 X5.1669 Y-7.1202
G01 X5.0765 Y-7.1527
G01 X5.0638 Y-7.1583
G01 X5.0067 Y-7.1853
G01 X5.0386 Y-7.1549
G01 X5.0482 Y-7.1445
G01 X5.0568 Y-7.1342
G01 X5.0663 Y-7.1214
G01 X5.0752 Y-7.1076
G01 X5.0831 Y-7.0936
G01 X5.0902 Y-7.0789
G01 X5.0973 Y-7.0612
G01 X5.1031 Y-7.0434
G01 X5.1231 Y-6.9630
G01 X5.1258 Y-6.9496
G01 X5.1277 Y-6.9363
G01 X5.1291 Y-6.9219
G01 X5.1296 Y-6.9078
G01 X5.1293 Y-6.8910
G01 X5.1277 Y-6.8732
G01 X5.1253 Y-6.8570
G01 X5.1216 Y-6.8402
G01 X5.1162 Y-6.8221
G01 X5.0932 Y-6.7543
G01 X5.0857 Y-6.7351
G01 X5.0793 Y-6.7214
G01 X5.0720 Y-6.7077
G01 X5.0636 Y-6.6943
G01 X5.0549 Y-6.6819
G01 X5.0462 Y-6.6709
G01 X5.0356 Y-6.6591
G01 X5.0249 Y-6.6484
G01 X5.0128 Y-6.6376
G01 X5.0638 Y-6.6617
G01 X5.0765 Y-6.6673
G01 X5.1674 Y-6.7000
G01 X5.1882 Y-6.7063
G01 X5.2751 Y-6.7280
G01 X5.2951 Y-6.7318
G01 X5.3900 Y-6.7457
G01 X5.3967 Y-6.7463
G01 X5.3997 Y-6.7465
G01 X5.4022 Y-6.7466
G01 X5.4024 Y-6.7466
G01 X5.4031 Y-6.7467
G01 X5.4039 Y-6.7467
G01 X5.4878 Y-6.7508
G01 X5.5008 Y-6.7511
G01 X5.5961 Y-6.7467
G01 X5.6100 Y-6.7457
G01 X5.7049 Y-6.7318
G01 X5.7252 Y-6.7279
G01 X5.8122 Y-6.7062
G01 X5.8331 Y-6.6998
G01 X5.9235 Y-6.6673
G01 X5.9362 Y-6.6617
G01 X5.9933 Y-6.6347
G01 X5.9614 Y-6.6651
G01 X5.9518 Y-6.6755
G01 X5.9432 Y-6.6858
G01 X5.9337 Y-6.6987
G01 X5.9248 Y-6.7124
G01 X5.9169 Y-6.7264
G01 X5.9098 Y-6.7411
G01 X5.9027 Y-6.7588
G01 X5.8969 Y-6.7766
G01 X5.8769 Y-6.8570
G01 X5.8742 Y-6.8705
G01 X5.8723 Y-6.8837
G01 X5.8709 Y-6.8981
G01 X5.8704 Y-6.9122
G01 X5.8707 Y-6.9290
G01 X5.8723 Y-6.9468
G01 X5.8747 Y-6.9630
G01 X5.8784 Y-6.9798
G01 X5.8838 Y-6.9979
G01 X5.9068 Y-7.0657
G01 X5.9143 Y-7.0849
G01 X5.9207 Y-7.0986
G01 X5.9280 Y-7.1123
G01 X5.9364 Y-7.1258
G01 X5.9451 Y-7.1381
G01 X5.9538 Y-7.1491
G01 X5.9644 Y-7.1609
G01 X5.9751 Y-7.1716
G01 X5.9872 Y-7.1824
G00 Z2.0000
G00 X5.4962 Y-9.1067
G01 F25.00
G01 Z-0.1000
G01 F120.00
G01 X5.5038 Y-9.1067
G01 X5.5908 Y-9.1023
G01 X5.6771 Y-9.0896
G01 X5.6845 Y-9.0882
G01 X5.7690 Y-9.0669
G01 X5.8512 Y-9.0376
G01 X5.8581 Y-9.0347
G01 X5.9369 Y-8.9974
G01 X6.0117 Y-8.9526
G01 X6.0180 Y-8.9484
G01 X6.0880 Y-8.8964
G01 X6.1526 Y-8.8379
G01 X6.1579 Y-8.8326
G01 X6.2164 Y-8.7680
G01 X6.2684 Y-8.6980
G01 X6.2726 Y-8.6917
G01 X6.3174 Y-8.6169
G01 X6.3547 Y-8.5381
G01 X6.3576 Y-8.5312
G01 X6.3869 Y-8.4490
G01 X6.4082 Y-8.3645
G01 X6.4096 Y-8.3571
G01 X6.4223 Y-8.2708
G01 X6.4267 Y-8.1838
G01 X6.4267 Y-8.1762
G01 X6.4223 Y-8.0892
G01 X6.4096 Y-8.0029
G01 X6.4082 Y-7.9955
G01 X6.3869 Y-7.9110
G01 X6.3576 Y-7.8288
G01 X6.3547 Y-7.8219
G01 X6.3174 Y-7.7431
G01 X6.2726 Y-7.6683
G01 X6.2684 Y-7.6620
G01 X6.2164 Y-7.5920
G01 X6.1579 Y-7.5274
G01 X6.1526 Y-7.5221
G01 X6.0880 Y-7.4636
G01 X6.0149 Y-7.4094
G01 X5.9402 Y-7.3645
G01 X5.9335 Y-7.3609
G01 X5.8547 Y-7.3237
G01 X5.7726 Y-7.2943
G01 X5.7654 Y-7.2921
G01 X5.6808 Y-7.2710
G01 X5.5946 Y-7.2581
G01 X5.5871 Y-7.2574
G01 X5.5000 Y-7.2532
G01 X5.4129 Y-7.2574
G01 X5.4054 Y-7.2581
G01 X5.3192 Y-7.2710
G01 X5.2346 Y-7.2921
G01 X5.2274 Y-7.2943
G01 X5.1453 Y-7.3237
G01 X5.0665 Y-7.3609
G01 X5.0598 Y-7.3645
G01 X4.9851 Y-7.4094
G01 X4.9150 Y-7.4613
G01 X4.9092 Y-7.4660
G01 X4.8447 Y-7.5247
G01 X4.7860 Y-7.5892
G01 X4.7813 Y-7.5950
G01 X4.7305 Y-7.6635
G01 X4.6845 Y-7.7398
G01 X4.6809 Y-7.7465
G01 X4.6437 Y-7.8253
G01 X4.6143 Y-7.9074
G01 X4.6121 Y-7.9146
G01 X4.5910 Y-7.9992
G01 X4.5781 Y-8.0854
G01 X4.5774 Y-8.0929
G01 X4.5732 Y-8.1800
G01 X4.5774 Y-8.2671
G01 X4.5781 Y-8.2746
G01 X4.5910 Y-8.3608
G01 X4.6121 Y-8.4454
G01 X4.6143 Y-8.4526
G01 X4.6437 Y-8.5347
G01 X4.6818 Y-8.6152
G01 X4.7294 Y-8.6949
G01 X4.7813 Y-8.7650
G01 X4.7860 Y-8.7708
G01 X4.8447 Y-8.8353
G01 X4.9092 Y-8.8940
G01 X4.9150 Y-8.8987
G01 X4.9851 Y-8.9506
G01 X5.0598 Y-8.9955
G01 X5.0665 Y-8.9991
G01 X5.1453 Y-9.0363
G01 X5.2310 Y-9.0669
G01 X5.3155 Y-9.0882
G01 X5.3229 Y-9.0896
G01 X5.4092 Y-9.1023
G01 X5.4962 Y-9.1067
G01 X5.4932 Y-9.1681
G01 X5.5068 Y-9.1681
G01 X5.5976 Y-9.1634
G01 X5.6861 Y-9.1504
G01 X5.6994 Y-9.1478
G01 X5.7876 Y-9.1255
G01 X5.8719 Y-9.0955
G01 X5.8844 Y-9.0903
G01 X5.9652 Y-9.0519
G01 X6.0497 Y-9.0013
G01 X6.1216 Y-8.9481
G01 X6.1321 Y-8.9395
G01 X6.1993 Y-8.8783
G01 X6.2595 Y-8.8121
G01 X6.2681 Y-8.8016
G01 X6.3213 Y-8.7297
G01 X6.3682 Y-8.6518
G01 X6.3746 Y-8.6398
G01 X6.4127 Y-8.5589
G01 X6.4436 Y-8.4733
G01 X6.4475 Y-8.4603
G01 X6.4691 Y-8.3735
G01 X6.4836 Y-8.2761
G01 X6.4881 Y-8.1868
G01 X6.4881 Y-8.1732
G01 X6.4834 Y-8.0824
G01 X6.4704 Y-7.9939
G01 X6.4678 Y-7.9806
G01 X6.4459 Y-7.8939
G01 X6.4127 Y-7.8011
G01 X6.3712 Y-7.7135
G01 X6.3253 Y-7.6367
G01 X6.3178 Y-7.6254
G01 X6.2644 Y-7.5537
G01 X6.2035 Y-7.4861
G01 X6.1939 Y-7.4765
G01 X6.1275 Y-7.4166
G01 X6.0484 Y-7.3579
G01 X5.9718 Y-7.3118
G01 X5.9598 Y-7.3054
G01 X5.8789 Y-7.2673
G01 X5.7933 Y-7.2364
G01 X5.7803 Y-7.2325
G01 X5.6935 Y-7.2109
G01 X5.5961 Y-7.1964
G01 X5.5068 Y-7.1919
G01 X5.4932 Y-7.1919
G01 X5.4039 Y-7.1964
G01 X5.3139 Y-7.2096
G01 X5.3006 Y-7.2122
G01 X5.2139 Y-7.2341
G01 X5.1211 Y-7.2673
G01 X5.0402 Y-7.3054
G01 X5.0282 Y-7.3118
G01 X4.9516 Y-7.3579
G01 X4.8784 Y-7.4119
G01 X4.8679 Y-7.4205
G01 X4.8017 Y-7.4807
G01 X4.7405 Y-7.5479
G01 X4.7319 Y-7.5584
G01 X4.6779 Y-7.6316
G01 X4.6288 Y-7.7135
G01 X4.5897 Y-7.7956
G01 X4.5845 Y-7.8081
G01 X4.5541 Y-7.8939
G01 X4.5309 Y-7.9865
G01 X4.5173 Y-8.0764
G01 X4.5160 Y-8.0899
G01 X4.5118 Y-8.1808
G01 X4.5164 Y-8.2761
G01 X4.5296 Y-8.3661
G01 X4.5322 Y-8.3794
G01 X4.5545 Y-8.4676
G01 X4.5860 Y-8.5557
G01 X4.5897 Y-8.5644
G01 X4.6254 Y-8.6398
G01 X4.6318 Y-8.6518
G01 X4.6779 Y-8.7284
G01 X4.7319 Y-8.8016
G01 X4.7405 Y-8.8121
G01 X4.8007 Y-8.8783
G01 X4.8679 Y-8.9395
G01 X4.8784 Y-8.9481
G01 X4.9454 Y-8.9978
G01 X4.9516 Y-9.0021
G01 X5.0335 Y-9.0512
G01 X5.1211 Y-9.0927
G01 X5.2067 Y-9.1236
G01 X5.2197 Y-9.1275
G01 X5.3013 Y-9.1479
G01 X5.3131 Y-9.1503
G01 X5.3139 Y-9.1504
G01 X5.3964 Y-9.1627
G01 X5.4024 Y-9.1634
G01 X5.4932 Y-9.1681
G01 X5.4902 Y-9.2294
G01 X5.5087 Y-9.2295
G01 X5.6021 Y-9.2247
G01 X5.6126 Y-9.2234
G01 X5.7040 Y-9.2097
G01 X5.7143 Y-9.2074
G01 X5.8040 Y-9.1847
G01 X5.8140 Y-9.1814
G01 X5.9010 Y-9.1501
G01 X5.9107 Y-9.1458
G01 X5.9861 Y-9.1101
G01 X5.9955 Y-9.1054
G01 X6.0749 Y-9.0580
G01 X6.0838 Y-9.0524
G01 X6.1582 Y-8.9974
G01 X6.1665 Y-8.9909
G01 X6.2354 Y-8.9287
G01 X6.2482 Y-8.9160
G01 X6.3053 Y-8.8531
G01 X6.3124 Y-8.8447
G01 X6.3678 Y-8.7703
G01 X6.3780 Y-8.7549
G01 X6.4217 Y-8.6820
G01 X6.4301 Y-8.6661
G01 X6.4695 Y-8.5824
G01 X6.4733 Y-8.5726
G01 X6.5014 Y-8.4940
G01 X6.5068 Y-8.4764
G01 X6.5292 Y-8.3863
G01 X6.5312 Y-8.3751
G01 X6.5445 Y-8.2844
G01 X6.5453 Y-8.2731
G01 X6.5497 Y-8.1808
G01 X6.5494 Y-8.1702
G01 X6.5449 Y-8.0805
G01 X6.5434 Y-8.0674
G01 X6.5297 Y-7.9760
G01 X6.5274 Y-7.9657
G01 X6.5047 Y-7.8760
G01 X6.5014 Y-7.8660
G01 X6.4733 Y-7.7874
G01 X6.4695 Y-7.7776
G01 X6.4301 Y-7.6939
G01 X6.4254 Y-7.6845
G01 X6.3780 Y-7.6051
G01 X6.3724 Y-7.5962
G01 X6.3174 Y-7.5218
G01 X6.3109 Y-7.5135
G01 X6.2490 Y-7.4449
G01 X6.2417 Y-7.4372
G01 X6.1725 Y-7.3742
G01 X6.1585 Y-7.3628
G01 X6.0909 Y-7.3126
G01 X6.0819 Y-7.3064
G01 X6.0024 Y-7.2585
G01 X5.9861 Y-7.2499
G01 X5.9024 Y-7.2105
G01 X5.8926 Y-7.2067
G01 X5.8140 Y-7.1786
G01 X5.7967 Y-7.1733
G01 X5.7143 Y-7.1526
G01 X5.6962 Y-7.1490
G01 X5.6044 Y-7.1355
G01 X5.5931 Y-7.1347
G01 X5.5015 Y-7.1303
G01 X5.4902 Y-7.1306
G01 X5.3979 Y-7.1353
G01 X5.3874 Y-7.1366
G01 X5.3008 Y-7.1495
G01 X5.2860 Y-7.1525
G01 X5.1960 Y-7.1753
G01 X5.1860 Y-7.1786
G01 X5.0997 Y-7.2097
G01 X5.0893 Y-7.2142
G01 X5.0059 Y-7.2539
G01 X4.9967 Y-7.2591
G01 X4.9251 Y-7.3020
G01 X4.9100 Y-7.3120
G01 X4.8418 Y-7.3626
G01 X4.8267 Y-7.3750
G01 X4.7646 Y-7.4313
G01 X4.7567 Y-7.4388
G01 X4.6942 Y-7.5075
G01 X4.6828 Y-7.5215
G01 X4.6329 Y-7.5888
G01 X4.6268 Y-7.5975
G01 X4.5791 Y-7.6767
G01 X4.5739 Y-7.6859
G01 X4.5342 Y-7.7693
G01 X4.5299 Y-7.7790
G01 X4.4986 Y-7.8660
G01 X4.4953 Y-7.8760
G01 X4.4706 Y-7.9745
G01 X4.4688 Y-7.9849
G01 X4.4555 Y-8.0764
G01 X4.4547 Y-8.0869
G01 X4.4503 Y-8.1792
G01 X4.4506 Y-8.1898
G01 X4.4552 Y-8.2814
G01 X4.4566 Y-8.2926
G01 X4.4703 Y-8.3840
G01 X4.4726 Y-8.3943
G01 X4.4953 Y-8.4840
G01 X4.4986 Y-8.4940
G01 X4.5299 Y-8.5810
G01 X4.5342 Y-8.5907
G01 X4.5700 Y-8.6664
G01 X4.5785 Y-8.6824
G01 X4.6264 Y-8.7619
G01 X4.6326 Y-8.7709
G01 X4.6826 Y-8.8382
G01 X4.6950 Y-8.8533
G01 X4.7510 Y-8.9151
G01 X4.7518 Y-8.9160
G01 X4.7646 Y-8.9287
G01 X4.8267 Y-8.9850
G01 X4.8347 Y-8.9919
G01 X4.9088 Y-9.0471
G01 X4.9175 Y-9.0532
G01 X5.0045 Y-9.1054
G01 X5.0139 Y-9.1101
G01 X5.0976 Y-9.1495
G01 X5.1074 Y-9.1533
G01 X5.1946 Y-9.1843
G01 X5.2047 Y-9.1871
G01 X5.2945 Y-9.2094
G01 X5.3049 Y-9.2112
G01 X5.3964 Y-9.2245
G01 X5.4069 Y-9.2253
G01 X5.4902 Y-9.2294
G01 X4.5157 Y-8.7832
G01 X4.4335 Y-8.6218
G01 X4.3775 Y-8.4495
G01 X4.3492 Y-8.2706
G01 X4.3492 Y-8.0894
G01 X4.3775 Y-7.9105
G01 X4.4335 Y-7.7382
G01 X4.5157 Y-7.5768
G01 X4.6222 Y-7.4303
G01 X4.7503 Y-7.3022
G01 X4.8974 Y-7.1953
G01 X4.9127 Y-7.1860
G01 X4.9262 Y-7.1760
G01 X4.9372 Y-7.1664
G01 X4.9913 Y-7.1153
G01 X5.0016 Y-7.1045
G01 X5.0110 Y-7.0930
G01 X5.0211 Y-7.0782
G01 X5.0298 Y-7.0630
G01 X5.0369 Y-7.0473
G01 X5.0427 Y-7.0308
G01 X5.0456 Y-7.0205
G01 X5.0644 Y-6.9438
G01 X5.0673 Y-6.9241
G01 X5.0682 Y-6.9043
G01 X5.0678 Y-6.8921
G01 X5.0666 Y-6.8796
G01 X5.0647 Y-6.8676
G01 X5.0620 Y-6.8553
G01 X5.0579 Y-6.8414
G01 X5.0350 Y-6.7742
G01 X5.0293 Y-6.7594
G01 X5.0219 Y-6.7441
G01 X5.0135 Y-6.7298
G01 X5.0041 Y-6.7166
G01 X4.9934 Y-6.7039
G01 X4.9814 Y-6.6918
G01 X4.9317 Y-6.6486
G01 X4.9236 Y-6.6420
G01 X4.9112 Y-6.6331
G01 X4.8974 Y-6.6247
G01 X4.7503 Y-6.5178
G01 X4.6222 Y-6.3897
G01 X4.5157 Y-6.2432
G01 X4.4335 Y-6.0818
G01 X4.3775 Y-5.9095
G01 X4.3492 Y-5.7306
G01 X4.3492 Y-5.5494
G01 X4.3775 Y-5.3705
G01 X4.4335 Y-5.1982
G01 X4.5157 Y-5.0368
G01 X4.6222 Y-4.8903
G01 X4.7503 Y-4.7622
G01 X4.8974 Y-4.6553
G01 X4.9115 Y-4.6468
G01 X4.9248 Y-4.6371
G01 X4.9372 Y-4.6264
G01 X4.9897 Y-4.5769
G01 X4.9982 Y-4.5682
G01 X5.0063 Y-4.5590
G01 X5.0172 Y-4.5443
G01 X5.0271 Y-4.5280
G01 X5.0357 Y-4.5102
G01 X5.0419 Y-4.4934
G01 X5.0456 Y-4.4805
G01 X5.0642 Y-4.4045
G01 X5.0661 Y-4.3940
G01 X5.0673 Y-4.3841
G01 X5.0682 Y-4.3643
G01 X5.0678 Y-4.3521
G01 X5.0666 Y-4.3396
G01 X5.0647 Y-4.3276
G01 X5.0620 Y-4.3153
G01 X5.0579 Y-4.3014
G01 X5.0339 Y-4.2310
G01 X5.0273 Y-4.2150
G01 X5.0189 Y-4.1986
G01 X5.0098 Y-4.1843
G01 X4.9992 Y-4.1705
G01 X4.9901 Y-4.1604
G01 X4.9798 Y-4.1503
G01 X4.9314 Y-4.1084
G01 X4.9231 Y-4.1015
G01 X4.9112 Y-4.0931
G01 X4.8974 Y-4.0847
G01 X4.7503 Y-3.9778
G01 X4.6222 Y-3.8497
G01 X4.5157 Y-3.7032
G01 X4.4335 Y-3.5418
G01 X4.3775 Y-3.3695
G01 X4.3492 Y-3.1906
G01 X4.3492 Y-3.0094
G01 X4.3775 Y-2.8305
G01 X4.4335 Y-2.6582
G01 X4.5157 Y-2.4968
G01 X4.6222 Y-2.3503
G01 X4.7503 Y-2.2222
G01 X4.8974 Y-2.1153
G01 X4.9115 Y-2.1068
G01 X4.9248 Y-2.0971
G01 X4.9372 Y-2.0864
G01 X4.9897 Y-2.0369
G01 X4.9982 Y-2.0282
G01 X5.0063 Y-2.0190
G01 X5.0172 Y-2.0043
G01 X5.0271 Y-1.9880
G01 X5.0357 Y-1.9702
G01 X5.0419 Y-1.9534
G01 X5.0456 Y-1.9405
G01 X5.0642 Y-1.8645
G01 X5.0661 Y-1.8540
G01 X5.0673 Y-1.8441
G01 X5.0682 Y-1.8243
G01 X5.0678 Y-1.8121
G01 X5.0666 Y-1.7996
G01 X5.0647 Y-1.7876
G01 X5.0620 Y-1.7753
G01 X5.0579 Y-1.7614
G01 X5.0339 Y-1.6910
G01 X5.0273 Y-1.6750
G01 X5.0189 Y-1.6586
G01 X5.0098 Y-1.6443
G01 X4.9992 Y-1.6305
G01 X4.9901 Y-1.6204
G01 X4.9798 Y-1.6103
G01 X4.9314 Y-1.5684
G01 X4.9231 Y-1.5615
G01 X4.9112 Y-1.5531
G01 X4.8974 Y-1.5447
G01 X4.7503 Y-1.4378
G01 X4.6222 Y-1.3097
G01 X4.5157 Y-1.1632
G01 X4.4335 Y-1.0018
G01 X4.3775 Y-0.8295
G01 X4.3492 Y-0.6506
G01 X4.3492 Y-0.4694
G01 X4.3775 Y-0.2905
G01 X4.4335 Y-0.1182
G01 X4.5157 Y0.0432
G01 X4.6222 Y0.1897
G01 X4.7503 Y0.3178
G01 X4.8974 Y0.4247
G01 X4.9115 Y0.4332
G01 X4.9248 Y0.4429
G01 X4.9372 Y0.4536
G01 X4.9897 Y0.5031
G01 X4.9982 Y0.5118
G01 X5.0063 Y0.5210
G01 X5.0172 Y0.5357
G01 X5.0271 Y0.5520
G01 X5.0357 Y0.5698
G01 X5.0419 Y0.5866
G01 X5.0456 Y0.5995
G01 X5.0642 Y0.6755
G01 X5.0661 Y0.6860
G01 X5.0673 Y0.6959
G01 X5.0682 Y0.7157
G01 X5.0678 Y0.7279
G01 X5.0666 Y0.7404
G01 X5.0647 Y0.7524
G01 X5.0620 Y0.7647
G01 X5.0579 Y0.7786
G01 X5.0339 Y0.8490
G01 X5.0273 Y0.8650
G01 X5.0196 Y0.8801
G01 X5.0098 Y0.8957
G01 X4.9992 Y0.9095
G01 X4.9901 Y0.9196
G01 X4.9798 Y0.9297
G01 X4.9314 Y0.9716
G01 X4.9231 Y0.9785
G01 X4.9112 Y0.9869
G01 X4.8974 Y0.9953
G01 X4.7503 Y1.1022
G01 X4.6222 Y1.2303
G01 X4.5157 Y1.3768
G01 X4.4335 Y1.5382
G01 X4.3775 Y1.7105
G01 X4.3492 Y1.8894
G01 X4.3492 Y2.0706
G01 X4.3775 Y2.2495
G01 X4.4335 Y2.4218
G01 X4.5157 Y2.5832
G01 X4.6222 Y2.7297
G01 X4.7503 Y2.8578
G01 X4.8974 Y2.9647
G01 X4.9115 Y2.9732
G01 X4.9248 Y2.9829
G01 X4.9372 Y2.9936
G01 X4.9897 Y3.0431
G01 X4.9982 Y3.0518
G01 X5.0063 Y3.0610
G01 X5.0172 Y3.0757
G01 X5.0271 Y3.0920
G01 X5.0350 Y3.1081
G01 X5.0419 Y3.1266
G01 X5.0456 Y3.1395
G01 X5.0642 Y3.2155
G01 X5.0661 Y3.2260
G01 X5.0673 Y3.2359
G01 X5.0682 Y3.2557
G01 X5.0678 Y3.2679
G01 X5.0666 Y3.2804
G01 X5.0647 Y3.2924
G01 X5.0620 Y3.3047
G01 X5.0579 Y3.3186
G01 X5.0339 Y3.3890
G01 X5.0273 Y3.4050
G01 X5.0189 Y3.4214
G01 X5.0098 Y3.4357
G01 X4.9992 Y3.4495
G01 X4.9901 Y3.4596
G01 X4.9798 Y3.4697
G01 X4.9314 Y3.5116
G01 X4.9231 Y3.5185
G01 X4.9112 Y3.5269
G01 X4.8974 Y3.5353
G01 X4.7503 Y3.6422
G01 X4.6222 Y3.7703
G01 X4.5157 Y3.9168
G01 X4.4335 Y4.0782
G01 X4.3775 Y4.2505
G01 X4.3492 Y4.4294
G01 X4.3492 Y4.6106
G01 X4.3775 Y4.7895
G01 X4.4335 Y4.9618
G01 X4.5157 Y5.1232
G01 X4.6222 Y5.2697
G01 X4.7503 Y5.3978
G01 X4.8968 Y5.5043
G01 X5.0582 Y5.5865
G01 X5.2305 Y5.6425
G01 X5.4094 Y5.6708
G01 X5.5906 Y5.6708
G01 X5.7695 Y5.6425
G01 X5.9418 Y5.5865
G01 X6.1032 Y5.5043
G01 X6.2497 Y5.3978
G01 X6.3778 Y5.2697
G01 X6.4843 Y5.1232
G01 X6.5665 Y4.9618
G01 X6.6225 Y4.7895
G01 X6.6508 Y4.6106
G01 X6.6508 Y4.4294
G01 X6.6225 Y4.2505
G01 X6.5665 Y4.0782
G01 X6.4843 Y3.9168
G01 X6.3778 Y3.7703
G01 X6.2497 Y3.6422
G01 X6.1026 Y3.5353
G01 X6.0885 Y3.5268
G01 X6.0752 Y3.5171
G01 X6.0627 Y3.5064
G01 X6.0103 Y3.4569
G01 X6.0018 Y3.4482
G01 X5.9937 Y3.4390
G01 X5.9828 Y3.4243
G01 X5.9729 Y3.4080
G01 X5.9650 Y3.3919
G01 X5.9583 Y3.3741
G01 X5.9545 Y3.3609
G01 X5.9362 Y3.2864
G01 X5.9330 Y3.2668
G01 X5.9318 Y3.2470
G01 X5.9323 Y3.2302
G01 X5.9343 Y3.2132
G01 X5.9378 Y3.1960
G01 X5.9423 Y3.1806
G01 X5.9654 Y3.1131
G01 X5.9707 Y3.0993
G01 X5.9759 Y3.0883
G01 X5.9815 Y3.0780
G01 X5.9888 Y3.0664
G01 X5.9959 Y3.0566
G01 X6.0066 Y3.0439
G01 X6.0186 Y3.0318
G01 X6.0683 Y2.9886
G01 X6.0764 Y2.9820
G01 X6.0888 Y2.9731
G01 X6.1026 Y2.9647
G01 X6.2497 Y2.8578
G01 X6.3778 Y2.7297
G01 X6.4843 Y2.5832
G01 X6.5665 Y2.4218
G01 X6.6225 Y2.2495
G01 X6.6508 Y2.0706
G01 X6.6508 Y1.8894
G01 X6.6225 Y1.7105
G01 X6.5665 Y1.5382
G01 X6.4843 Y1.3768
G01 X6.3778 Y1.2303
G01 X6.2497 Y1.1022
G01 X6.1026 Y0.9953
G01 X6.0885 Y0.9868
G01 X6.0752 Y0.9771
G01 X6.0627 Y0.9664
G01 X6.0103 Y0.9169
G01 X6.0018 Y0.9082
G01 X5.9937 Y0.8990
G01 X5.9828 Y0.8843
G01 X5.9729 Y0.8680
G01 X5.9643 Y0.8502
G01 X5.9581 Y0.8333
G01 X5.9544 Y0.8205
G01 X5.9358 Y0.7445
G01 X5.9339 Y0.7340
G01 X5.9327 Y0.7241
G01 X5.9318 Y0.7043
G01 X5.9322 Y0.6921
G01 X5.9334 Y0.6796
G01 X5.9353 Y0.6675
G01 X5.9380 Y0.6553
G01 X5.9421 Y0.6414
G01 X5.9661 Y0.5710
G01 X5.9727 Y0.5550
G01 X5.9804 Y0.5399
G01 X5.9903 Y0.5243
G01 X6.0008 Y0.5105
G01 X6.0099 Y0.5004
G01 X6.0202 Y0.4903
G01 X6.0686 Y0.4484
G01 X6.0770 Y0.4415
G01 X6.0888 Y0.4331
G01 X6.1026 Y0.4247
G01 X6.2497 Y0.3178
G01 X6.3778 Y0.1897
G01 X6.4843 Y0.0432
G01 X6.5665 Y-0.1182
G01 X6.6225 Y-0.2905
G01 X6.6508 Y-0.4694
G01 X6.6508 Y-0.6506
G01 X6.6225 Y-0.8295
G01 X6.5665 Y-1.0018
G01 X6.4843 Y-1.1632
G01 X6.3778 Y-1.3097
G01 X6.2497 Y-1.4378
G01 X6.1026 Y-1.5447
G01 X6.0885 Y-1.5532
G01 X6.0752 Y-1.5629
G01 X6.0627 Y-1.5736
G01 X6.0103 Y-1.6231
G01 X6.0018 Y-1.6318
G01 X5.9937 Y-1.6410
G01 X5.9828 Y-1.6557
G01 X5.9729 Y-1.6720
G01 X5.9643 Y-1.6898
G01 X5.9581 Y-1.7067
G01 X5.9544 Y-1.7195
G01 X5.9358 Y-1.7955
G01 X5.9339 Y-1.8060
G01 X5.9327 Y-1.8159
G01 X5.9318 Y-1.8357
G01 X5.9322 Y-1.8479
G01 X5.9334 Y-1.8604
G01 X5.9353 Y-1.8725
G01 X5.9380 Y-1.8847
G01 X5.9421 Y-1.8986
G01 X5.9661 Y-1.9690
G01 X5.9727 Y-1.9850
G01 X5.9804 Y-2.0001
G01 X5.9903 Y-2.0157
G01 X6.0008 Y-2.0295
G01 X6.0099 Y-2.0396
G01 X6.0202 Y-2.0497
G01 X6.0686 Y-2.0916
G01 X6.0770 Y-2.0985
G01 X6.0888 Y-2.1069
G01 X6.1026 Y-2.1153
G01 X6.2497 Y-2.2222
G01 X6.3778 Y-2.3503
G01 X6.4843 Y-2.4968
G01 X6.5665 Y-2.6582
G01 X6.6225 Y-2.8305
G01 X6.6508 Y-3.0094
G01 X6.6508 Y-3.1906
G01 X6.6225 Y-3.3695
G01 X6.5665 Y-3.5418
G01 X6.4843 Y-3.7032
G01 X6.3778 Y-3.8497
G01 X6.2497 Y-3.9778
G01 X6.1026 Y-4.0847
G01 X6.0885 Y-4.0932
G01 X6.0752 Y-4.1029
G01 X6.0627 Y-4.1136
G01 X6.0103 Y-4.1631
G01 X6.0018 Y-4.1718
G01 X5.9937 Y-4.1810
G01 X5.9828 Y-4.1957
G01 X5.9729 Y-4.2120
G01 X5.9643 Y-4.2298
G01 X5.9581 Y-4.2467
G01 X5.9544 Y-4.2595
G01 X5.9358 Y-4.3355
G01 X5.9339 Y-4.3460
G01 X5.9327 Y-4.3559
G01 X5.9318 Y-4.3757
G01 X5.9322 Y-4.3879
G01 X5.9334 Y-4.4004
G01 X5.9353 Y-4.4125
G01 X5.9380 Y-4.4247
G01 X5.9421 Y-4.4386
G01 X5.9661 Y-4.5090
G01 X5.9727 Y-4.5250
G01 X5.9811 Y-4.5414
G01 X5.9903 Y-4.5557
G01 X6.0008 Y-4.5695
G01 X6.0099 Y-4.5796
G01 X6.0202 Y-4.5897
G01 X6.0686 Y-4.6316
G01 X6.0770 Y-4.6385
G01 X6.0888 Y-4.6469
G01 X6.1026 Y-4.6553
G01 X6.2497 Y-4.7622
G01 X6.3778 Y-4.8903
G01 X6.4843 Y-5.0368
G01 X6.5665 Y-5.1982
G01 X6.6225 Y-5.3705
G01 X6.6508 Y-5.5494
G01 X6.6508 Y-5.7306
G01 X6.6225 Y-5.9095
G01 X6.5665 Y-6.0818
G01 X6.4843 Y-6.2432
G01 X6.3778 Y-6.3897
G01 X6.2497 Y-6.5178
G01 X6.1026 Y-6.6247
G01 X6.0885 Y-6.6332
G01 X6.0752 Y-6.6429
G01 X6.0627 Y-6.6536
G01 X6.0103 Y-6.7031
G01 X6.0018 Y-6.7118
G01 X5.9937 Y-6.7210
G01 X5.9828 Y-6.7357
G01 X5.9729 Y-6.7520
G01 X5.9643 Y-6.7698
G01 X5.9581 Y-6.7867
G01 X5.9544 Y-6.7995
G01 X5.9358 Y-6.8755
G01 X5.9339 Y-6.8860
G01 X5.9327 Y-6.8959
G01 X5.9318 Y-6.9157
G01 X5.9322 Y-6.9279
G01 X5.9334 Y-6.9404
G01 X5.9353 Y-6.9525
G01 X5.9380 Y-6.9647
G01 X5.9421 Y-6.9786
G01 X5.9661 Y-7.0490
G01 X5.9727 Y-7.0650
G01 X5.9811 Y-7.0814
G01 X5.9903 Y-7.0957
G01 X6.0008 Y-7.1095
G01 X6.0099 Y-7.1196
G01 X6.0202 Y-7.1297
G01 X6.0686 Y-7.1716
G01 X6.0770 Y-7.1785
G01 X6.0888 Y-7.1869
G01 X6.1026 Y-7.1953
G01 X6.2497 Y-7.3022
G01 X6.3778 Y-7.4303
G01 X6.4843 Y-7.5768
G01 X6.5665 Y-7.7382
G01 X6.6225 Y-7.9105
G01 X6.6508 Y-8.0894
G01 X6.6508 Y-8.2706
G01 X6.6225 Y-8.4495
G01 X6.5665 Y-8.6218
G01 X6.4843 Y-8.7832
G01 X6.3778 Y-8.9297
G01 X6.2497 Y-9.0578
G01 X6.1032 Y-9.1643
G01 X5.9418 Y-9.2465
G01 X5.7695 Y-9.3025
G01 X5.5906 Y-9.3308
G01 X5.4094 Y-9.3308
G01 X5.2305 Y-9.3025
G01 X5.0582 Y-9.2465
G01 X4.8968 Y-9.1643
G01 X4.7503 Y-9.0578
G01 X4.6222 Y-8.9297
G01 X4.5157 Y-8.7832
G01 X4.4632 Y-8.8154
G01 X4.3766 Y-8.6453
G01 X4.3176 Y-8.4639
G01 X4.2877 Y-8.2754
G01 X4.2877 Y-8.0846
G01 X4.3176 Y-7.8961
G01 X4.3766 Y-7.7147
G01 X4.4632 Y-7.5446
G01 X4.5753 Y-7.3903
G01 X4.7103 Y-7.2553
G01 X4.8647 Y-7.1432
G01 X4.8757 Y-7.1367
G01 X4.8865 Y-7.1291
G01 X4.8953 Y-7.1215
G01 X4.9467 Y-7.0730
G01 X4.9567 Y-7.0625
G01 X4.9651 Y-7.0517
G01 X4.9724 Y-7.0400
G01 X4.9785 Y-7.0278
G01 X4.9833 Y-7.0149
G01 X4.9859 Y-7.0057
G01 X5.0037 Y-6.9338
G01 X5.0059 Y-6.9203
G01 X5.0068 Y-6.9066
G01 X5.0064 Y-6.8944
G01 X5.0050 Y-6.8827
G01 X5.0025 Y-6.8707
G01 X4.9994 Y-6.8601
G01 X4.9769 Y-6.7940
G01 X4.9736 Y-6.7853
G01 X4.9694 Y-6.7763
G01 X4.9646 Y-6.7676
G01 X4.9603 Y-6.7607
G01 X4.9544 Y-6.7527
G01 X4.9466 Y-6.7438
G01 X4.9385 Y-6.7358
G01 X4.8857 Y-6.6903
G01 X4.8760 Y-6.6834
G01 X4.8647 Y-6.6768
G01 X4.7103 Y-6.5647
G01 X4.5753 Y-6.4297
G01 X4.4632 Y-6.2754
G01 X4.3766 Y-6.1053
G01 X4.3176 Y-5.9239
G01 X4.2877 Y-5.7354
G01 X4.2877 Y-5.5446
G01 X4.3176 Y-5.3561
G01 X4.3766 Y-5.1747
G01 X4.4632 Y-5.0046
G01 X4.5753 Y-4.8503
G01 X4.7103 Y-4.7153
G01 X4.8647 Y-4.6032
G01 X4.8757 Y-4.5967
G01 X4.8865 Y-4.5891
G01 X4.8953 Y-4.5815
G01 X4.9467 Y-4.5330
G01 X4.9567 Y-4.5225
G01 X4.9651 Y-4.5117
G01 X4.9724 Y-4.5000
G01 X4.9785 Y-4.4878
G01 X4.9833 Y-4.4749
G01 X4.9859 Y-4.4657
G01 X5.0037 Y-4.3938
G01 X5.0061 Y-4.3784
G01 X5.0068 Y-4.3647
G01 X5.0065 Y-4.3563
G01 X5.0057 Y-4.3476
G01 X5.0044 Y-4.3393
G01 X5.0021 Y-4.3292
G01 X4.9994 Y-4.3201
G01 X4.9760 Y-4.2515
G01 X4.9709 Y-4.2393
G01 X4.9656 Y-4.2292
G01 X4.9584 Y-4.2180
G01 X4.9511 Y-4.2087
G01 X4.9456 Y-4.2027
G01 X4.9385 Y-4.1958
G01 X4.8915 Y-4.1550
G01 X4.8842 Y-4.1492
G01 X4.8747 Y-4.1426
G01 X4.8647 Y-4.1368
G01 X4.7103 Y-4.0247
G01 X4.5753 Y-3.8897
G01 X4.4632 Y-3.7354
G01 X4.3766 Y-3.5653
G01 X4.3176 Y-3.3839
G01 X4.2877 Y-3.1954
G01 X4.2877 Y-3.0046
G01 X4.3176 Y-2.8161
G01 X4.3766 Y-2.6347
G01 X4.4632 Y-2.4646
G01 X4.5753 Y-2.3103
G01 X4.7103 Y-2.1753
G01 X4.8647 Y-2.0632
G01 X4.8757 Y-2.0567
G01 X4.8865 Y-2.0491
G01 X4.8953 Y-2.0415
G01 X4.9467 Y-1.9930
G01 X4.9567 Y-1.9825
G01 X4.9651 Y-1.9717
G01 X4.9724 Y-1.9600
G01 X4.9785 Y-1.9478
G01 X4.9833 Y-1.9349
G01 X4.9859 Y-1.9257
G01 X5.0037 Y-1.8538
G01 X5.0061 Y-1.8384
G01 X5.0068 Y-1.8247
G01 X5.0065 Y-1.8163
G01 X5.0055 Y-1.8061
G01 X5.0041 Y-1.7974
G01 X5.0021 Y-1.7892
G01 X4.9994 Y-1.7801
G01 X4.9760 Y-1.7115
G01 X4.9709 Y-1.6993
G01 X4.9656 Y-1.6892
G01 X4.9592 Y-1.6792
G01 X4.9511 Y-1.6687
G01 X4.9456 Y-1.6627
G01 X4.9385 Y-1.6558
G01 X4.8915 Y-1.6150
G01 X4.8842 Y-1.6092
G01 X4.8747 Y-1.6026
G01 X4.8647 Y-1.5968
G01 X4.7103 Y-1.4847
G01 X4.5753 Y-1.3497
G01 X4.4632 Y-1.1954
G01 X4.3766 Y-1.0253
G01 X4.3176 Y-0.8439
G01 X4.2877 Y-0.6554
G01 X4.2877 Y-0.4646
G01 X4.3176 Y-0.2761
G01 X4.3766 Y-0.0947
G01 X4.4632 Y0.0754
G01 X4.5753 Y0.2297
G01 X4.7103 Y0.3647
G01 X4.8647 Y0.4768
G01 X4.8757 Y0.4833
G01 X4.8865 Y0.4909
G01 X4.8953 Y0.4985
G01 X4.9467 Y0.5470
G01 X4.9567 Y0.5575
G01 X4.9651 Y0.5683
G01 X4.9724 Y0.5800
G01 X4.9785 Y0.5922
G01 X4.9833 Y0.6051
G01 X4.9859 Y0.6143
G01 X5.0037 Y0.6862
G01 X5.0061 Y0.7016
G01 X5.0068 Y0.7153
G01 X5.0065 Y0.7237
G01 X5.0055 Y0.7339
G01 X5.0041 Y0.7426
G01 X5.0021 Y0.7508
G01 X4.9994 Y0.7599
G01 X4.9760 Y0.8285
G01 X4.9717 Y0.8390
G01 X4.9656 Y0.8508
G01 X4.9584 Y0.8620
G01 X4.9511 Y0.8713
G01 X4.9456 Y0.8773
G01 X4.9385 Y0.8842
G01 X4.8915 Y0.9250
G01 X4.8842 Y0.9308
G01 X4.8747 Y0.9374
G01 X4.8647 Y0.9432
G01 X4.7103 Y1.0553
G01 X4.5753 Y1.1903
G01 X4.4632 Y1.3446
G01 X4.3766 Y1.5147
G01 X4.3176 Y1.6961
G01 X4.2877 Y1.8846
G01 X4.2877 Y2.0754
G01 X4.3176 Y2.2639
G01 X4.3766 Y2.4453
G01 X4.4632 Y2.6154
G01 X4.5753 Y2.7697
G01 X4.7103 Y2.9047
G01 X4.8647 Y3.0168
G01 X4.8757 Y3.0233
G01 X4.8865 Y3.0309
G01 X4.8953 Y3.0385
G01 X4.9467 Y3.0870
G01 X4.9567 Y3.0975
G01 X4.9651 Y3.1083
G01 X4.9724 Y3.1200
G01 X4.9785 Y3.1322
G01 X4.9833 Y3.1451
G01 X4.9859 Y3.1543
G01 X5.0037 Y3.2262
G01 X5.0061 Y3.2416
G01 X5.0068 Y3.2553
G01 X5.0065 Y3.2637
G01 X5.0057 Y3.2724
G01 X5.0044 Y3.2807
G01 X5.0021 Y3.2908
G01 X4.9994 Y3.2999
G01 X4.9760 Y3.3685
G01 X4.9717 Y3.3790
G01 X4.9656 Y3.3908
G01 X4.9584 Y3.4020
G01 X4.9511 Y3.4113
G01 X4.9443 Y3.4186
G01 X4.9385 Y3.4242
G01 X4.8915 Y3.4650
G01 X4.8842 Y3.4708
G01 X4.8747 Y3.4774
G01 X4.8647 Y3.4832
G01 X4.7103 Y3.5953
G01 X4.5753 Y3.7303
G01 X4.4632 Y3.8846
G01 X4.3766 Y4.0547
G01 X4.3176 Y4.2361
G01 X4.2877 Y4.4246
G01 X4.2877 Y4.6154
G01 X4.3176 Y4.8039
G01 X4.3766 Y4.9853
G01 X4.4632 Y5.1554
G01 X4.5753 Y5.3097
G01 X4.7103 Y5.4447
G01 X4.8646 Y5.5568
G01 X5.0347 Y5.6434
G01 X5.2161 Y5.7024
G01 X5.4046 Y5.7323
G01 X5.5954 Y5.7323
G01 X5.7839 Y5.7024
G01 X5.9653 Y5.6434
G01 X6.1354 Y5.5568
G01 X6.2897 Y5.4447
G01 X6.4247 Y5.3097
G01 X6.5368 Y5.1554
G01 X6.6234 Y4.9853
G01 X6.6824 Y4.8039
G01 X6.7123 Y4.6154
G01 X6.7123 Y4.4246
G01 X6.6824 Y4.2361
G01 X6.6234 Y4.0547
G01 X6.5368 Y3.8846
G01 X6.4247 Y3.7303
G01 X6.2897 Y3.5953
G01 X6.1353 Y3.4831
G01 X6.1243 Y3.4767
G01 X6.1135 Y3.4691
G01 X6.1047 Y3.4615
G01 X6.0533 Y3.4130
G01 X6.0433 Y3.4025
G01 X6.0349 Y3.3917
G01 X6.0276 Y3.3800
G01 X6.0215 Y3.3677
G01 X6.0167 Y3.3549
G01 X6.0141 Y3.3457
G01 X5.9963 Y3.2738
G01 X5.9941 Y3.2603
G01 X5.9932 Y3.2466
G01 X5.9936 Y3.2344
G01 X5.9950 Y3.2226
G01 X5.9975 Y3.2107
G01 X6.0006 Y3.2001
G01 X6.0232 Y3.1340
G01 X6.0264 Y3.1253
G01 X6.0298 Y3.1179
G01 X6.0344 Y3.1092
G01 X6.0398 Y3.1007
G01 X6.0456 Y3.0927
G01 X6.0534 Y3.0838
G01 X6.0615 Y3.0758
G01 X6.1143 Y3.0303
G01 X6.1240 Y3.0234
G01 X6.1353 Y3.0168
G01 X6.2897 Y2.9047
G01 X6.4247 Y2.7697
G01 X6.5368 Y2.6154
G01 X6.6234 Y2.4453
G01 X6.6824 Y2.2639
G01 X6.7123 Y2.0754
G01 X6.7123 Y1.8846
G01 X6.6824 Y1.6961
G01 X6.6234 Y1.5147
G01 X6.5368 Y1.3446
G01 X6.4247 Y1.1903
G01 X6.2897 Y1.0553
G01 X6.1353 Y0.9431
G01 X6.1243 Y0.9367
G01 X6.1135 Y0.9291
G01 X6.1047 Y0.9215
G01 X6.0533 Y0.8730
G01 X6.0433 Y0.8625
G01 X6.0349 Y0.8517
G01 X6.0276 Y0.8400
G01 X6.0215 Y0.8277
G01 X6.0167 Y0.8149
G01 X6.0141 Y0.8057
G01 X5.9963 Y0.7338
G01 X5.9939 Y0.7184
G01 X5.9932 Y0.7047
G01 X5.9935 Y0.6963
G01 X5.9943 Y0.6876
G01 X5.9956 Y0.6793
G01 X5.9979 Y0.6692
G01 X6.0006 Y0.6601
G01 X6.0240 Y0.5915
G01 X6.0283 Y0.5809
G01 X6.0344 Y0.5692
G01 X6.0417 Y0.5580
G01 X6.0489 Y0.5487
G01 X6.0544 Y0.5427
G01 X6.0615 Y0.5358
G01 X6.1085 Y0.4950
G01 X6.1158 Y0.4892
G01 X6.1253 Y0.4826
G01 X6.1353 Y0.4768
G01 X6.2897 Y0.3647
G01 X6.4247 Y0.2297
G01 X6.5368 Y0.0754
G01 X6.6234 Y-0.0947
G01 X6.6824 Y-0.2761
G01 X6.7123 Y-0.4646
G01 X6.7123 Y-0.6554
G01 X6.6824 Y-0.8439
G01 X6.6234 Y-1.0253
G01 X6.5368 Y-1.1954
G01 X6.4247 Y-1.3497
G01 X6.2897 Y-1.4847
G01 X6.1353 Y-1.5969
G01 X6.1243 Y-1.6033
G01 X6.1135 Y-1.6109
G01 X6.1047 Y-1.6185
G01 X6.0533 Y-1.6670
G01 X6.0433 Y-1.6775
G01 X6.0349 Y-1.6883
G01 X6.0276 Y-1.7000
G01 X6.0215 Y-1.7123
G01 X6.0167 Y-1.7251
G01 X6.0141 Y-1.7343
G01 X5.9963 Y-1.8062
G01 X5.9939 Y-1.8216
G01 X5.9932 Y-1.8353
G01 X5.9935 Y-1.8437
G01 X5.9943 Y-1.8524
G01 X5.9956 Y-1.8607
G01 X5.9979 Y-1.8708
G01 X6.0006 Y-1.8799
G01 X6.0240 Y-1.9485
G01 X6.0283 Y-1.9591
G01 X6.0344 Y-1.9708
G01 X6.0417 Y-1.9820
G01 X6.0489 Y-1.9913
G01 X6.0544 Y-1.9973
G01 X6.0615 Y-2.0042
G01 X6.1085 Y-2.0450
G01 X6.1158 Y-2.0508
G01 X6.1253 Y-2.0574
G01 X6.1353 Y-2.0632
G01 X6.2897 Y-2.1753
G01 X6.4247 Y-2.3103
G01 X6.5368 Y-2.4646
G01 X6.6234 Y-2.6347
G01 X6.6824 Y-2.8161
G01 X6.7123 Y-3.0046
G01 X6.7123 Y-3.1954
G01 X6.6824 Y-3.3839
G01 X6.6234 Y-3.5653
G01 X6.5368 Y-3.7354
G01 X6.4247 Y-3.8897
G01 X6.2897 Y-4.0247
G01 X6.1353 Y-4.1369
G01 X6.1243 Y-4.1433
G01 X6.1135 Y-4.1509
G01 X6.1047 Y-4.1585
G01 X6.0533 Y-4.2070
G01 X6.0433 Y-4.2175
G01 X6.0349 Y-4.2283
G01 X6.0276 Y-4.2400
G01 X6.0215 Y-4.2523
G01 X6.0167 Y-4.2651
G01 X6.0141 Y-4.2743
G01 X5.9963 Y-4.3462
G01 X5.9939 Y-4.3616
G01 X5.9932 Y-4.3753
G01 X5.9935 Y-4.3837
G01 X5.9943 Y-4.3924
G01 X5.9956 Y-4.4007
G01 X5.9979 Y-4.4108
G01 X6.0006 Y-4.4199
G01 X6.0240 Y-4.4885
G01 X6.0283 Y-4.4991
G01 X6.0344 Y-4.5108
G01 X6.0408 Y-4.5208
G01 X6.0489 Y-4.5313
G01 X6.0544 Y-4.5373
G01 X6.0615 Y-4.5442
G01 X6.1085 Y-4.5850
G01 X6.1158 Y-4.5908
G01 X6.1253 Y-4.5974
G01 X6.1353 Y-4.6032
G01 X6.2897 Y-4.7153
G01 X6.4247 Y-4.8503
G01 X6.5368 Y-5.0046
G01 X6.6234 Y-5.1747
G01 X6.6824 Y-5.3561
G01 X6.7123 Y-5.5446
G01 X6.7123 Y-5.7354
G01 X6.6824 Y-5.9239
G01 X6.6234 Y-6.1053
G01 X6.5368 Y-6.2754
G01 X6.4247 Y-6.4297
G01 X6.2897 Y-6.5647
G01 X6.1353 Y-6.6769
G01 X6.1243 Y-6.6833
G01 X6.1135 Y-6.6909
G01 X6.1047 Y-6.6985
G01 X6.0533 Y-6.7470
G01 X6.0433 Y-6.7575
G01 X6.0349 Y-6.7683
G01 X6.0276 Y-6.7800
G01 X6.0215 Y-6.7923
G01 X6.0167 Y-6.8051
G01 X6.0141 Y-6.8143
G01 X5.9963 Y-6.8862
G01 X5.9941 Y-6.8997
G01 X5.9932 Y-6.9153
G01 X5.9935 Y-6.9237
G01 X5.9943 Y-6.9324
G01 X5.9959 Y-6.9426
G01 X5.9979 Y-6.9508
G01 X6.0006 Y-6.9599
G01 X6.0240 Y-7.0285
G01 X6.0283 Y-7.0391
G01 X6.0344 Y-7.0508
G01 X6.0408 Y-7.0608
G01 X6.0489 Y-7.0713
G01 X6.0557 Y-7.0786
G01 X6.0615 Y-7.0842
G01 X6.1085 Y-7.1250
G01 X6.1158 Y-7.1308
G01 X6.1253 Y-7.1374
G01 X6.1353 Y-7.1432
G01 X6.2897 Y-7.2553
G01 X6.4247 Y-7.3903
G01 X6.5368 Y-7.5446
G01 X6.6234 Y-7.7147
G01 X6.6824 Y-7.8961
G01 X6.7123 Y-8.0846
G01 X6.7123 Y-8.2754
G01 X6.6824 Y-8.4639
G01 X6.6234 Y-8.6453
G01 X6.5368 Y-8.8154
G01 X6.4247 Y-8.9697
G01 X6.2897 Y-9.1047
G01 X6.1354 Y-9.2168
G01 X5.9653 Y-9.3034
G01 X5.7839 Y-9.3624
G01 X5.5954 Y-9.3923
G01 X5.4046 Y-9.3923
G01 X5.2161 Y-9.3624
G01 X5.0347 Y-9.3034
G01 X4.8646 Y-9.2168
G01 X4.7103 Y-9.1047
G01 X4.5753 Y-8.9697
G01 X4.4632 Y-8.8154
G01 X4.4106 Y-8.8476
G01 X4.3196 Y-8.6689
G01 X4.2577 Y-8.4783
G01 X4.2263 Y-8.2802
G01 X4.2263 Y-8.0798
G01 X4.2577 Y-7.8817
G01 X4.3196 Y-7.6911
G01 X4.4106 Y-7.5124
G01 X4.5285 Y-7.3502
G01 X4.6702 Y-7.2085
G01 X4.8324 Y-7.0906
G01 X4.8406 Y-7.0863
G01 X4.8481 Y-7.0811
G01 X4.8537 Y-7.0763
G01 X4.9045 Y-7.0283
G01 X4.9098 Y-7.0228
G01 X4.9145 Y-7.0168
G01 X4.9195 Y-7.0087
G01 X4.9227 Y-7.0018
G01 X4.9253 Y-6.9947
G01 X4.9435 Y-6.9213
G01 X4.9448 Y-6.9138
G01 X4.9453 Y-6.9062
G01 X4.9447 Y-6.8948
G01 X4.9424 Y-6.8836
G01 X4.9181 Y-6.8120
G01 X4.9152 Y-6.8053
G01 X4.9117 Y-6.7988
G01 X4.9065 Y-6.7912
G01 X4.9016 Y-6.7856
G01 X4.8963 Y-6.7805
G01 X4.8469 Y-6.7380
G01 X4.8407 Y-6.7338
G01 X4.8324 Y-6.7294
G01 X4.6702 Y-6.6115
G01 X4.5285 Y-6.4698
G01 X4.4106 Y-6.3076
G01 X4.3196 Y-6.1289
G01 X4.2577 Y-5.9383
G01 X4.2263 Y-5.7402
G01 X4.2263 Y-5.5398
G01 X4.2577 Y-5.3417
G01 X4.3196 Y-5.1511
G01 X4.4106 Y-4.9724
G01 X4.5285 Y-4.8102
G01 X4.6702 Y-4.6685
G01 X4.8324 Y-4.5506
G01 X4.8406 Y-4.5463
G01 X4.8481 Y-4.5411
G01 X4.8537 Y-4.5363
G01 X4.9045 Y-4.4883
G01 X4.9098 Y-4.4828
G01 X4.9145 Y-4.4768
G01 X4.9195 Y-4.4687
G01 X4.9227 Y-4.4618
G01 X4.9253 Y-4.4547
G01 X4.9435 Y-4.3813
G01 X4.9450 Y-4.3719
G01 X4.9453 Y-4.3643
G01 X4.9447 Y-4.3548
G01 X4.9424 Y-4.3436
G01 X4.9181 Y-4.2720
G01 X4.9152 Y-4.2653
G01 X4.9117 Y-4.2588
G01 X4.9076 Y-4.2527
G01 X4.9029 Y-4.2470
G01 X4.8963 Y-4.2405
G01 X4.8469 Y-4.1980
G01 X4.8407 Y-4.1938
G01 X4.8324 Y-4.1894
G01 X4.6702 Y-4.0715
G01 X4.5285 Y-3.9298
G01 X4.4106 Y-3.7676
G01 X4.3196 Y-3.5889
G01 X4.2577 Y-3.3983
G01 X4.2263 Y-3.2002
G01 X4.2263 Y-2.9998
G01 X4.2577 Y-2.8017
G01 X4.3196 Y-2.6111
G01 X4.4106 Y-2.4324
G01 X4.5285 Y-2.2702
G01 X4.6702 Y-2.1285
G01 X4.8324 Y-2.0106
G01 X4.8406 Y-2.0063
G01 X4.8481 Y-2.0011
G01 X4.8537 Y-1.9963
G01 X4.9045 Y-1.9483
G01 X4.9098 Y-1.9428
G01 X4.9145 Y-1.9368
G01 X4.9195 Y-1.9287
G01 X4.9227 Y-1.9218
G01 X4.9253 Y-1.9147
G01 X4.9435 Y-1.8413
G01 X4.9450 Y-1.8319
G01 X4.9453 Y-1.8243
G01 X4.9447 Y-1.8148
G01 X4.9424 Y-1.8036
G01 X4.9181 Y-1.7320
G01 X4.9152 Y-1.7253
G01 X4.9117 Y-1.7188
G01 X4.9076 Y-1.7127
G01 X4.9029 Y-1.7070
G01 X4.8963 Y-1.7005
G01 X4.8469 Y-1.6580
G01 X4.8407 Y-1.6538
G01 X4.8324 Y-1.6494
G01 X4.6702 Y-1.5315
G01 X4.5285 Y-1.3898
G01 X4.4106 Y-1.2276
G01 X4.3196 Y-1.0489
G01 X4.2577 Y-0.8583
G01 X4.2263 Y-0.6602
G01 X4.2263 Y-0.4598
G01 X4.2577 Y-0.2617
G01 X4.3196 Y-0.0711
G01 X4.4106 Y0.1076
G01 X4.5285 Y0.2698
G01 X4.6702 Y0.4115
G01 X4.8324 Y0.5294
G01 X4.8406 Y0.5337
G01 X4.8481 Y0.5389
G01 X4.8537 Y0.5437
G01 X4.9045 Y0.5917
G01 X4.9098 Y0.5972
G01 X4.9145 Y0.6032
G01 X4.9195 Y0.6113
G01 X4.9227 Y0.6182
G01 X4.9253 Y0.6253
G01 X4.9435 Y0.6987
G01 X4.9450 Y0.7081
G01 X4.9453 Y0.7157
G01 X4.9447 Y0.7252
G01 X4.9424 Y0.7364
G01 X4.9181 Y0.8080
G01 X4.9152 Y0.8147
G01 X4.9117 Y0.8212
G01 X4.9076 Y0.8273
G01 X4.9029 Y0.8330
G01 X4.8963 Y0.8395
G01 X4.8469 Y0.8820
G01 X4.8407 Y0.8862
G01 X4.8324 Y0.8906
G01 X4.6702 Y1.0085
G01 X4.5285 Y1.1502
G01 X4.4106 Y1.3124
G01 X4.3196 Y1.4911
G01 X4.2577 Y1.6817
G01 X4.2263 Y1.8798
G01 X4.2263 Y2.0802
G01 X4.2577 Y2.2783
G01 X4.3196 Y2.4689
G01 X4.4106 Y2.6476
G01 X4.5285 Y2.8098
G01 X4.6702 Y2.9515
G01 X4.8324 Y3.0694
G01 X4.8406 Y3.0737
G01 X4.8481 Y3.0789
G01 X4.8537 Y3.0837
G01 X4.9045 Y3.1317
G01 X4.9098 Y3.1372
G01 X4.9145 Y3.1432
G01 X4.9195 Y3.1513
G01 X4.9227 Y3.1582
G01 X4.9253 Y3.1653
G01 X4.9435 Y3.2387
G01 X4.9450 Y3.2481
G01 X4.9453 Y3.2557
G01 X4.9447 Y3.2652
G01 X4.9424 Y3.2764
G01 X4.9181 Y3.3480
G01 X4.9152 Y3.3547
G01 X4.9117 Y3.3612
G01 X4.9076 Y3.3673
G01 X4.9029 Y3.3730
G01 X4.8963 Y3.3795
G01 X4.8469 Y3.4220
G01 X4.8407 Y3.4262
G01 X4.8324 Y3.4306
G01 X4.6702 Y3.5485
G01 X4.5285 Y3.6902
G01 X4.4106 Y3.8524
G01 X4.3196 Y4.0311
G01 X4.2577 Y4.2217
G01 X4.2263 Y4.4198
G01 X4.2263 Y4.6202
G01 X4.2577 Y4.8183
G01 X4.3196 Y5.0089
G01 X4.4106 Y5.1876
G01 X4.5285 Y5.3498
G01 X4.6702 Y5.4915
G01 X4.8324 Y5.6094
G01 X5.0111 Y5.7004
G01 X5.2017 Y5.7623
G01 X5.3998 Y5.7937
G01 X5.6002 Y5.7937
G01 X5.7983 Y5.7623
G01 X5.9889 Y5.7004
G01 X6.1676 Y5.6094
G01 X6.3298 Y5.4915
G01 X6.4715 Y5.3498
G01 X6.5894 Y5.1876
G01 X6.6804 Y5.0089
G01 X6.7423 Y4.8183
G01 X6.7737 Y4.6202
G01 X6.7737 Y4.4198
G01 X6.7423 Y4.2217
G01 X6.6804 Y4.0311
G01 X6.5894 Y3.8524
G01 X6.4715 Y3.6902
G01 X6.3298 Y3.5485
G01 X6.1676 Y3.4306
G01 X6.1594 Y3.4263
G01 X6.1519 Y3.4211
G01 X6.1463 Y3.4163
G01 X6.0955 Y3.3683
G01 X6.0902 Y3.3628
G01 X6.0855 Y3.3568
G01 X6.0815 Y3.3504
G01 X6.0773 Y3.3418
G01 X6.0747 Y3.3346
G01 X6.0565 Y3.2613
G01 X6.0552 Y3.2538
G01 X6.0547 Y3.2462
G01 X6.0553 Y3.2347
G01 X6.0576 Y3.2236
G01 X6.0819 Y3.1520
G01 X6.0848 Y3.1452
G01 X6.0883 Y3.1388
G01 X6.0936 Y3.1312
G01 X6.0984 Y3.1256
G01 X6.1037 Y3.1205
G01 X6.1531 Y3.0780
G01 X6.1593 Y3.0738
G01 X6.1676 Y3.0694
G01 X6.3298 Y2.9515
G01 X6.4715 Y2.8098
G01 X6.5894 Y2.6476
G01 X6.6804 Y2.4689
G01 X6.7423 Y2.2783
G01 X6.7737 Y2.0802
G01 X6.7737 Y1.8798
G01 X6.7423 Y1.6817
G01 X6.6804 Y1.4911
G01 X6.5894 Y1.3124
G01 X6.4715 Y1.1502
G01 X6.3298 Y1.0085
G01 X6.1676 Y0.8906
G01 X6.1594 Y0.8863
G01 X6.1519 Y0.8811
G01 X6.1463 Y0.8763
G01 X6.0955 Y0.8283
G01 X6.0902 Y0.8228
G01 X6.0855 Y0.8168
G01 X6.0815 Y0.8104
G01 X6.0773 Y0.8018
G01 X6.0747 Y0.7946
G01 X6.0565 Y0.7213
G01 X6.0552 Y0.7138
G01 X6.0547 Y0.7043
G01 X6.0553 Y0.6947
G01 X6.0576 Y0.6836
G01 X6.0819 Y0.6120
G01 X6.0848 Y0.6052
G01 X6.0883 Y0.5988
G01 X6.0924 Y0.5926
G01 X6.0971 Y0.5870
G01 X6.1037 Y0.5805
G01 X6.1531 Y0.5380
G01 X6.1593 Y0.5338
G01 X6.1676 Y0.5294
G01 X6.3298 Y0.4115
G01 X6.4715 Y0.2698
G01 X6.5894 Y0.1076
G01 X6.6804 Y-0.0711
G01 X6.7423 Y-0.2617
G01 X6.7737 Y-0.4598
G01 X6.7737 Y-0.6602
G01 X6.7423 Y-0.8583
G01 X6.6804 Y-1.0489
G01 X6.5894 Y-1.2276
G01 X6.4715 Y-1.3898
G01 X6.3298 Y-1.5315
G01 X6.1676 Y-1.6494
G01 X6.1594 Y-1.6537
G01 X6.1519 Y-1.6589
G01 X6.1463 Y-1.6637
G01 X6.0955 Y-1.7117
G01 X6.0902 Y-1.7172
G01 X6.0855 Y-1.7232
G01 X6.0805 Y-1.7313
G01 X6.0773 Y-1.7382
G01 X6.0747 Y-1.7454
G01 X6.0565 Y-1.8187
G01 X6.0552 Y-1.8262
G01 X6.0547 Y-1.8357
G01 X6.0553 Y-1.8453
G01 X6.0576 Y-1.8564
G01 X6.0819 Y-1.9280
G01 X6.0848 Y-1.9348
G01 X6.0883 Y-1.9412
G01 X6.0924 Y-1.9474
G01 X6.0971 Y-1.9530
G01 X6.1037 Y-1.9595
G01 X6.1531 Y-2.0020
G01 X6.1593 Y-2.0062
G01 X6.1676 Y-2.0106
G01 X6.3298 Y-2.1285
G01 X6.4715 Y-2.2702
G01 X6.5894 Y-2.4324
G01 X6.6804 Y-2.6111
G01 X6.7423 Y-2.8017
G01 X6.7737 Y-2.9998
G01 X6.7737 Y-3.2002
G01 X6.7423 Y-3.3983
G01 X6.6804 Y-3.5889
G01 X6.5894 Y-3.7676
G01 X6.4715 Y-3.9298
G01 X6.3298 Y-4.0715
G01 X6.1676 Y-4.1894
G01 X6.1594 Y-4.1937
G01 X6.1519 Y-4.1989
G01 X6.1463 Y-4.2037
G01 X6.0955 Y-4.2517
G01 X6.0902 Y-4.2572
G01 X6.0855 Y-4.2632
G01 X6.0805 Y-4.2713
G01 X6.0773 Y-4.2782
G01 X6.0747 Y-4.2854
G01 X6.0565 Y-4.3587
G01 X6.0552 Y-4.3662
G01 X6.0547 Y-4.3757
G01 X6.0553 Y-4.3853
G01 X6.0576 Y-4.3964
G01 X6.0819 Y-4.4680
G01 X6.0848 Y-4.4748
G01 X6.0883 Y-4.4812
G01 X6.0924 Y-4.4874
G01 X6.0971 Y-4.4930
G01 X6.1037 Y-4.4995
G01 X6.1531 Y-4.5420
G01 X6.1593 Y-4.5462
G01 X6.1676 Y-4.5506
G01 X6.3298 Y-4.6685
G01 X6.4715 Y-4.8102
G01 X6.5894 Y-4.9724
G01 X6.6804 Y-5.1511
G01 X6.7423 Y-5.3417
G01 X6.7737 Y-5.5398
G01 X6.7737 Y-5.7402
G01 X6.7423 Y-5.9383
G01 X6.6804 Y-6.1289
G01 X6.5894 Y-6.3076
G01 X6.4715 Y-6.4698
G01 X6.3298 Y-6.6115
G01 X6.1676 Y-6.7294
G01 X6.1594 Y-6.7337
G01 X6.1519 Y-6.7389
G01 X6.1463 Y-6.7437
G01 X6.0955 Y-6.7917
G01 X6.0902 Y-6.7972
G01 X6.0845 Y-6.8047
G01 X6.0805 Y-6.8113
G01 X6.0773 Y-6.8182
G01 X6.0747 Y-6.8254
G01 X6.0565 Y-6.8987
G01 X6.0552 Y-6.9062
G01 X6.0547 Y-6.9157
G01 X6.0553 Y-6.9253
G01 X6.0576 Y-6.9364
G01 X6.0819 Y-7.0080
G01 X6.0848 Y-7.0148
G01 X6.0883 Y-7.0212
G01 X6.0924 Y-7.0274
G01 X6.0971 Y-7.0330
G01 X6.1037 Y-7.0395
G01 X6.1531 Y-7.0820
G01 X6.1593 Y-7.0862
G01 X6.1676 Y-7.0906
G01 X6.3298 Y-7.2085
G01 X6.4715 Y-7.3502
G01 X6.5894 Y-7.5124
G01 X6.6804 Y-7.6911
G01 X6.7423 Y-7.8817
G01 X6.7737 Y-8.0798
G01 X6.7737 Y-8.2802
G01 X6.7423 Y-8.4783
G01 X6.6804 Y-8.6689
G01 X6.5894 Y-8.8476
G01 X6.4715 Y-9.0098
G01 X6.3298 Y-9.1515
G01 X6.1676 Y-9.2694
G01 X5.9889 Y-9.3604
G01 X5.7983 Y-9.4223
G01 X5.6002 Y-9.4537
G01 X5.3998 Y-9.4537
G01 X5.2017 Y-9.4223
G01 X5.0111 Y-9.3604
G01 X4.8324 Y-9.2694
G01 X4.6702 Y-9.1515
G01 X4.5285 Y-9.0098
G01 X4.4106 Y-8.8476
G00 Z2.0000
G00 X5.9872 Y2.9776
G01 F25.00
G01 Z-0.1000
G01 F120.00
G01 X5.9362 Y3.0017
G01 X5.9235 Y3.0073
G01 X5.8326 Y3.0400
G01 X5.8118 Y3.0463
G01 X5.7249 Y3.0680
G01 X5.7049 Y3.0718
G01 X5.6100 Y3.0857
G01 X5.5961 Y3.0867
G01 X5.5122 Y3.0908
G01 X5.4992 Y3.0911
G01 X5.4039 Y3.0867
G01 X5.3900 Y3.0857
G01 X5.2951 Y3.0718
G01 X5.2748 Y3.0679
G01 X5.1878 Y3.0462
G01 X5.1669 Y3.0398
G01 X5.0765 Y3.0073
G01 X5.0638 Y3.0017
G01 X5.0067 Y2.9747
G01 X5.0386 Y3.0051
G01 X5.0482 Y3.0155
G01 X5.0568 Y3.0258
G01 X5.0663 Y3.0386
G01 X5.0752 Y3.0524
G01 X5.0831 Y3.0664
G01 X5.0902 Y3.0811
G01 X5.0973 Y3.0988
G01 X5.1031 Y3.1166
G01 X5.1231 Y3.1970
G01 X5.1258 Y3.2108
G01 X5.1279 Y3.2252
G01 X5.1291 Y3.2385
G01 X5.1296 Y3.2522
G01 X5.1293 Y3.2690
G01 X5.1277 Y3.2868
G01 X5.1253 Y3.3030
G01 X5.1216 Y3.3198
G01 X5.1162 Y3.3379
G01 X5.0932 Y3.4057
G01 X5.0857 Y3.4249
G01 X5.0793 Y3.4386
G01 X5.0720 Y3.4523
G01 X5.0636 Y3.4657
G01 X5.0549 Y3.4781
G01 X5.0462 Y3.4891
G01 X5.0356 Y3.5009
G01 X5.0249 Y3.5116
G01 X5.0128 Y3.5224
G01 X5.0638 Y3.4983
G01 X5.0765 Y3.4927
G01 X5.1674 Y3.4600
G01 X5.1882 Y3.4537
G01 X5.2751 Y3.4320
G01 X5.2951 Y3.4282
G01 X5.2959 Y3.4280
G01 X5.3784 Y3.4158
G01 X5.3786 Y3.4158
G01 X5.3900 Y3.4143
G01 X5.4039 Y3.4133
G01 X5.4878 Y3.4092
G01 X5.5008 Y3.4089
G01 X5.5126 Y3.4092
G01 X5.5128 Y3.4092
G01 X5.5961 Y3.4133
G01 X5.6100 Y3.4143
G01 X5.7049 Y3.4282
G01 X5.7252 Y3.4321
G01 X5.8122 Y3.4538
G01 X5.8331 Y3.4602
G01 X5.9235 Y3.4927
G01 X5.9362 Y3.4983
G01 X5.9933 Y3.5253
G01 X5.9614 Y3.4949
G01 X5.9518 Y3.4845
G01 X5.9432 Y3.4742
G01 X5.9337 Y3.4613
G01 X5.9248 Y3.4476
G01 X5.9169 Y3.4336
G01 X5.9098 Y3.4189
G01 X5.9027 Y3.4012
G01 X5.8969 Y3.3834
G01 X5.8769 Y3.3030
G01 X5.8742 Y3.2895
G01 X5.8723 Y3.2763
G01 X5.8709 Y3.2619
G01 X5.8704 Y3.2478
G01 X5.8707 Y3.2310
G01 X5.8723 Y3.2132
G01 X5.8747 Y3.1970
G01 X5.8784 Y3.1802
G01 X5.8838 Y3.1621
G01 X5.9068 Y3.0943
G01 X5.9143 Y3.0751
G01 X5.9207 Y3.0614
G01 X5.9280 Y3.0477
G01 X5.9364 Y3.0342
G01 X5.9451 Y3.0219
G01 X5.9538 Y3.0109
G01 X5.9550 Y3.0095
G01 X5.9552 Y3.0092
G01 X5.9569 Y3.0073
G01 X5.9591 Y3.0048
G01 X5.9644 Y2.9991
G01 X5.9751 Y2.9884
G01 X5.9872 Y2.9776
G01 X5.4902 Y3.4706
G01 X5.5098 Y3.4706
G01 X5.5942 Y3.4747
G01 X5.6122 Y3.4765
G01 X5.6951 Y3.4888
G01 X5.7055 Y3.4906
G01 X5.8040 Y3.5153
G01 X5.8140 Y3.5186
G01 X5.9010 Y3.5499
G01 X5.9107 Y3.5542
G01 X5.9864 Y3.5900
G01 X6.0024 Y3.5985
G01 X6.0749 Y3.6420
G01 X6.0909 Y3.6526
G01 X6.1582 Y3.7026
G01 X6.1665 Y3.7091
G01 X6.2351 Y3.7710
G01 X6.2428 Y3.7783
G01 X6.3109 Y3.8535
G01 X6.3174 Y3.8618
G01 X6.3674 Y3.9291
G01 X6.3774 Y3.9441
G01 X6.4209 Y4.0167
G01 X6.4300 Y4.0336
G01 X6.4658 Y4.1093
G01 X6.4701 Y4.1190
G01 X6.5040 Y4.2139
G01 X6.5071 Y4.2247
G01 X6.5294 Y4.3145
G01 X6.5312 Y4.3249
G01 X6.5445 Y4.4164
G01 X6.5453 Y4.4269
G01 X6.5497 Y4.5192
G01 X6.5494 Y4.5298
G01 X6.5447 Y4.6221
G01 X6.5434 Y4.6326
G01 X6.5297 Y4.7240
G01 X6.5274 Y4.7343
G01 X6.5047 Y4.8240
G01 X6.5014 Y4.8340
G01 X6.4701 Y4.9210
G01 X6.4658 Y4.9307
G01 X6.4261 Y5.0141
G01 X6.4209 Y5.0233
G01 X6.3732 Y5.1025
G01 X6.3671 Y5.1112
G01 X6.3174 Y5.1782
G01 X6.3109 Y5.1865
G01 X6.2490 Y5.2551
G01 X6.2417 Y5.2628
G01 X6.1733 Y5.3250
G01 X6.1653 Y5.3319
G01 X6.0912 Y5.3871
G01 X6.0825 Y5.3932
G01 X6.0033 Y5.4409
G01 X5.9941 Y5.4461
G01 X5.9107 Y5.4858
G01 X5.9010 Y5.4901
G01 X5.8140 Y5.5214
G01 X5.8040 Y5.5247
G01 X5.7143 Y5.5474
G01 X5.7040 Y5.5497
G01 X5.6126 Y5.5634
G01 X5.6021 Y5.5647
G01 X5.5098 Y5.5694
G01 X5.4992 Y5.5697
G01 X5.4069 Y5.5653
G01 X5.3964 Y5.5645
G01 X5.3049 Y5.5512
G01 X5.2945 Y5.5494
G01 X5.2047 Y5.5271
G01 X5.1946 Y5.5243
G01 X5.1074 Y5.4933
G01 X5.0976 Y5.4895
G01 X5.0139 Y5.4501
G01 X5.0045 Y5.4454
G01 X4.9251 Y5.3980
G01 X4.9162 Y5.3924
G01 X4.8418 Y5.3374
G01 X4.8335 Y5.3309
G01 X4.7649 Y5.2690
G01 X4.7572 Y5.2617
G01 X4.6950 Y5.1933
G01 X4.6881 Y5.1853
G01 X4.6329 Y5.1112
G01 X4.6268 Y5.1025
G01 X4.5791 Y5.0233
G01 X4.5739 Y5.0141
G01 X4.5342 Y4.9307
G01 X4.5299 Y4.9210
G01 X4.4986 Y4.8340
G01 X4.4953 Y4.8240
G01 X4.4726 Y4.7343
G01 X4.4703 Y4.7240
G01 X4.4564 Y4.6315
G01 X4.4547 Y4.6135
G01 X4.4505 Y4.5283
G01 X4.4506 Y4.5102
G01 X4.4547 Y4.4269
G01 X4.4555 Y4.4164
G01 X4.4689 Y4.3245
G01 X4.4724 Y4.3068
G01 X4.4953 Y4.2160
G01 X4.4986 Y4.2060
G01 X4.5267 Y4.1274
G01 X4.5305 Y4.1176
G01 X4.5699 Y4.0339
G01 X4.5746 Y4.0245
G01 X4.6226 Y3.9441
G01 X4.6326 Y3.9291
G01 X4.6835 Y3.8606
G01 X4.6950 Y3.8467
G01 X4.7510 Y3.7849
G01 X4.7583 Y3.7772
G01 X4.8269 Y3.7147
G01 X4.8409 Y3.7032
G01 X4.9162 Y3.6476
G01 X4.9251 Y3.6420
G01 X5.0045 Y3.5946
G01 X5.0139 Y3.5899
G01 X5.0893 Y3.5542
G01 X5.0990 Y3.5499
G01 X5.1871 Y3.5182
G01 X5.2044 Y3.5130
G01 X5.2871 Y3.4923
G01 X5.3049 Y3.4888
G01 X5.3874 Y3.4766
G01 X5.3907 Y3.4761
G01 X5.3915 Y3.4760
G01 X5.3930 Y3.4758
G01 X5.3979 Y3.4753
G01 X5.4902 Y3.4706
G01 X5.4932 Y3.5319
G01 X5.5068 Y3.5319
G01 X5.5909 Y3.5361
G01 X5.6036 Y3.5373
G01 X5.6935 Y3.5509
G01 X5.7861 Y3.5741
G01 X5.8719 Y3.6045
G01 X5.8844 Y3.6097
G01 X5.9652 Y3.6481
G01 X6.0433 Y3.6947
G01 X6.0546 Y3.7022
G01 X6.1263 Y3.7556
G01 X6.1983 Y3.8207
G01 X6.2644 Y3.8937
G01 X6.3178 Y3.9654
G01 X6.3231 Y3.9732
G01 X6.3682 Y4.0482
G01 X6.3746 Y4.0602
G01 X6.4133 Y4.1425
G01 X6.4436 Y4.2267
G01 X6.4475 Y4.2397
G01 X6.4691 Y4.3265
G01 X6.4836 Y4.4239
G01 X6.4881 Y4.5132
G01 X6.4881 Y4.5268
G01 X6.4836 Y4.6161
G01 X6.4704 Y4.7061
G01 X6.4678 Y4.7194
G01 X6.4459 Y4.8061
G01 X6.4155 Y4.8919
G01 X6.4103 Y4.9044
G01 X6.3712 Y4.9865
G01 X6.3253 Y5.0633
G01 X6.3182 Y5.0740
G01 X6.2676 Y5.1422
G01 X6.2595 Y5.1521
G01 X6.1983 Y5.2193
G01 X6.1321 Y5.2795
G01 X6.1216 Y5.2881
G01 X6.0484 Y5.3421
G01 X5.9718 Y5.3882
G01 X5.9598 Y5.3946
G01 X5.8789 Y5.4327
G01 X5.7933 Y5.4636
G01 X5.7803 Y5.4675
G01 X5.6935 Y5.4891
G01 X5.6036 Y5.5027
G01 X5.5901 Y5.5040
G01 X5.4992 Y5.5082
G01 X5.4099 Y5.5040
G01 X5.3964 Y5.5027
G01 X5.3065 Y5.4891
G01 X5.2197 Y5.4675
G01 X5.2067 Y5.4636
G01 X5.1225 Y5.4333
G01 X5.0335 Y5.3912
G01 X4.9567 Y5.3453
G01 X4.9454 Y5.3378
G01 X4.8725 Y5.2834
G01 X4.8061 Y5.2235
G01 X4.7965 Y5.2139
G01 X4.7366 Y5.1475
G01 X4.6779 Y5.0684
G01 X4.6318 Y4.9918
G01 X4.6254 Y4.9798
G01 X4.5867 Y4.8975
G01 X4.5564 Y4.8133
G01 X4.5525 Y4.8003
G01 X4.5309 Y4.7135
G01 X4.5164 Y4.6161
G01 X4.5119 Y4.5268
G01 X4.5119 Y4.5132
G01 X4.5166 Y4.4224
G01 X4.5296 Y4.3339
G01 X4.5322 Y4.3206
G01 X4.5545 Y4.2324
G01 X4.5845 Y4.1481
G01 X4.5897 Y4.1356
G01 X4.6288 Y4.0535
G01 X4.6747 Y3.9767
G01 X4.6822 Y3.9654
G01 X4.7356 Y3.8937
G01 X4.8017 Y3.8207
G01 X4.8679 Y3.7605
G01 X4.8784 Y3.7519
G01 X4.9516 Y3.6979
G01 X5.0282 Y3.6518
G01 X5.0402 Y3.6454
G01 X5.1211 Y3.6073
G01 X5.2067 Y3.5764
G01 X5.2171 Y3.5732
G01 X5.3013 Y3.5521
G01 X5.3139 Y3.5496
G01 X5.4039 Y3.5364
G01 X5.4099 Y3.5360
G01 X5.4932 Y3.5319
G01 X5.4962 Y3.5933
G01 X5.5038 Y3.5933
G01 X5.5908 Y3.5977
G01 X5.6808 Y3.6110
G01 X5.7690 Y3.6331
G01 X5.8547 Y3.6637
G01 X5.9369 Y3.7026
G01 X6.0149 Y3.7494
G01 X6.0880 Y3.8036
G01 X6.1540 Y3.8633
G01 X6.2164 Y3.9320
G01 X6.2684 Y4.0020
G01 X6.2726 Y4.0083
G01 X6.3174 Y4.0831
G01 X6.3547 Y4.1619
G01 X6.3576 Y4.1688
G01 X6.3869 Y4.2510
G01 X6.4082 Y4.3355
G01 X6.4096 Y4.3429
G01 X6.4223 Y4.4292
G01 X6.4267 Y4.5162
G01 X6.4267 Y4.5238
G01 X6.4223 Y4.6108
G01 X6.4096 Y4.6971
G01 X6.4082 Y4.7045
G01 X6.3869 Y4.7890
G01 X6.3576 Y4.8712
G01 X6.3547 Y4.8781
G01 X6.3174 Y4.9569
G01 X6.2726 Y5.0317
G01 X6.2684 Y5.0380
G01 X6.2164 Y5.1080
G01 X6.1579 Y5.1726
G01 X6.1526 Y5.1779
G01 X6.0880 Y5.2364
G01 X6.0180 Y5.2884
G01 X6.0117 Y5.2926
G01 X5.9369 Y5.3374
G01 X5.8581 Y5.3747
G01 X5.8512 Y5.3776
G01 X5.7690 Y5.4069
G01 X5.6808 Y5.4290
G01 X5.5946 Y5.4419
G01 X5.5871 Y5.4426
G01 X5.5000 Y5.4468
G01 X5.4129 Y5.4426
G01 X5.4054 Y5.4419
G01 X5.3192 Y5.4290
G01 X5.2346 Y5.4079
G01 X5.2274 Y5.4057
G01 X5.1453 Y5.3763
G01 X5.0665 Y5.3391
G01 X5.0598 Y5.3355
G01 X4.9851 Y5.2906
G01 X4.9150 Y5.2387
G01 X4.9092 Y5.2340
G01 X4.8433 Y5.1740
G01 X4.7836 Y5.1080
G01 X4.7316 Y5.0380
G01 X4.7274 Y5.0317
G01 X4.6826 Y4.9569
G01 X4.6437 Y4.8747
G01 X4.6143 Y4.7926
G01 X4.6121 Y4.7854
G01 X4.5918 Y4.7045
G01 X4.5904 Y4.6971
G01 X4.5777 Y4.6108
G01 X4.5733 Y4.5238
G01 X4.5733 Y4.5162
G01 X4.5774 Y4.4329
G01 X4.5781 Y4.4254
G01 X4.5910 Y4.3392
G01 X4.6131 Y4.2510
G01 X4.6437 Y4.1653
G01 X4.6809 Y4.0865
G01 X4.6845 Y4.0798
G01 X4.7294 Y4.0051
G01 X4.7813 Y3.9350
G01 X4.7860 Y3.9292
G01 X4.8447 Y3.8647
G01 X4.9092 Y3.8060
G01 X4.9150 Y3.8013
G01 X4.9820 Y3.7516
G01 X4.9883 Y3.7474
G01 X5.0631 Y3.7026
G01 X5.1419 Y3.6653
G01 X5.1488 Y3.6624
G01 X5.2310 Y3.6331
G01 X5.3155 Y3.6118
G01 X5.3229 Y3.6104
G01 X5.4092 Y3.5977
G01 X5.4962 Y3.5933
G01 X5.2483 Y3.3121
G01 X5.2621 Y3.3092
G01 X5.2763 Y3.3067
G01 X5.3613 Y3.2941
G01 X5.3773 Y3.2921
G01 X5.3978 Y3.2906
G01 X5.4825 Y3.2864
G01 X5.5008 Y3.2860
G01 X5.5177 Y3.2864
G01 X5.6025 Y3.2906
G01 X5.6236 Y3.2922
G01 X5.6387 Y3.2941
G01 X5.6396 Y3.2942
G01 X5.7222 Y3.3065
G01 X5.7245 Y3.3069
G01 X5.7392 Y3.3094
G01 X5.7535 Y3.3125
G01 X5.7510 Y3.2969
G01 X5.7493 Y3.2818
G01 X5.7480 Y3.2654
G01 X5.7475 Y3.2505
G01 X5.7476 Y3.2348
G01 X5.7483 Y3.2198
G01 X5.7486 Y3.2158
G01 X5.7486 Y3.2148
G01 X5.7486 Y3.2147
G01 X5.7488 Y3.2132
G01 X5.7489 Y3.2121
G01 X5.7497 Y3.2034
G01 X5.7517 Y3.1879
G01 X5.7379 Y3.1908
G01 X5.7237 Y3.1933
G01 X5.6387 Y3.2059
G01 X5.6227 Y3.2079
G01 X5.6022 Y3.2094
G01 X5.5175 Y3.2136
G01 X5.4992 Y3.2140
G01 X5.4823 Y3.2136
G01 X5.3975 Y3.2094
G01 X5.3764 Y3.2078
G01 X5.3613 Y3.2059
G01 X5.2755 Y3.1931
G01 X5.2608 Y3.1906
G01 X5.2465 Y3.1875
G01 X5.2490 Y3.2031
G01 X5.2507 Y3.2183
G01 X5.2520 Y3.2347
G01 X5.2525 Y3.2497
G01 X5.2524 Y3.2652
G01 X5.2517 Y3.2803
G01 X5.2503 Y3.2966
G01 X5.2483 Y3.3121
G01 X5.1608 Y3.3976
G01 X5.1749 Y3.3937
G01 X5.2565 Y3.3733
G01 X5.2698 Y3.3703
G01 X5.2858 Y3.3674
G01 X5.2868 Y3.3673
G01 X5.3694 Y3.3550
G01 X5.3838 Y3.3532
G01 X5.3986 Y3.3520
G01 X5.4849 Y3.3478
G01 X5.4992 Y3.3474
G01 X5.5150 Y3.3478
G01 X5.6013 Y3.3520
G01 X5.6085 Y3.3525
G01 X5.6093 Y3.3526
G01 X5.6095 Y3.3526
G01 X5.6100 Y3.3526
G01 X5.6125 Y3.3529
G01 X5.6159 Y3.3532
G01 X5.6304 Y3.3550
G01 X5.7140 Y3.3674
G01 X5.7300 Y3.3702
G01 X5.7441 Y3.3734
G01 X5.8369 Y3.3969
G01 X5.8179 Y3.3204
G01 X5.8140 Y3.3015
G01 X5.8115 Y3.2859
G01 X5.8101 Y3.2720
G01 X5.8092 Y3.2574
G01 X5.8089 Y3.2419
G01 X5.8095 Y3.2255
G01 X5.8108 Y3.2094
G01 X5.8131 Y3.1928
G01 X5.8161 Y3.1768
G01 X5.8195 Y3.1627
G01 X5.8233 Y3.1495
G01 X5.8260 Y3.1410
G01 X5.8261 Y3.1406
G01 X5.8392 Y3.1024
G01 X5.8251 Y3.1063
G01 X5.7435 Y3.1267
G01 X5.7302 Y3.1297
G01 X5.7142 Y3.1326
G01 X5.6306 Y3.1450
G01 X5.6162 Y3.1468
G01 X5.6014 Y3.1480
G01 X5.5151 Y3.1522
G01 X5.5008 Y3.1526
G01 X5.4850 Y3.1522
G01 X5.3987 Y3.1480
G01 X5.3841 Y3.1468
G01 X5.3696 Y3.1450
G01 X5.2860 Y3.1326
G01 X5.2700 Y3.1298
G01 X5.2559 Y3.1266
G01 X5.1631 Y3.1031
G01 X5.1821 Y3.1796
G01 X5.1860 Y3.1985
G01 X5.1885 Y3.2141
G01 X5.1899 Y3.2280
G01 X5.1908 Y3.2426
G01 X5.1911 Y3.2581
G01 X5.1905 Y3.2744
G01 X5.1892 Y3.2906
G01 X5.1869 Y3.3072
G01 X5.1839 Y3.3232
G01 X5.1805 Y3.3373
G01 X5.1767 Y3.3505
G01 X5.1608 Y3.3976
G00 Z2.0000
G00 X6.6106 Y8.7329
G01 F25.00
G01 Z-0.1000
G01 F120.00
G01 X6.6111 Y8.7494
G01 X6.6111 Y8.8887
G01 X6.8204 Y8.8887
G01 X6.7838 Y8.8777
G01 X6.7720 Y8.8735
G01 X6.7600 Y8.8685
G01 X6.7462 Y8.8620
G01 X6.7345 Y8.8555
G01 X6.7225 Y8.8481
G01 X6.7103 Y8.8396
G01 X6.7004 Y8.8319
G01 X6.6920 Y8.8247
G01 X6.6833 Y8.8166
G01 X6.6756 Y8.8087
G01 X6.6222 Y8.7474
G01 X6.6106 Y8.7329
G00 Z2.0000
G00 X6.6103 Y10.4711
G01 F25.00
G01 Z-0.1000
G01 F120.00
G01 X6.6505 Y10.4174
G01 X6.6612 Y10.4042
G01 X6.6699 Y10.3946
G01 X6.6791 Y10.3855
G01 X6.6899 Y10.3758
G01 X6.7000 Y10.3677
G01 X6.7108 Y10.3599
G01 X6.7227 Y10.3522
G01 X6.7339 Y10.3457
G01 X6.7472 Y10.3390
G01 X6.7651 Y10.3314
G01 X6.8188 Y10.3113
G01 X6.6111 Y10.3113
G01 X6.6111 Y10.4508
G01 X6.6103 Y10.4711
G01 X6.3938 Y10.8737
G01 X6.4397 Y10.8688
G01 X6.5551 Y10.8257
G01 X6.6527 Y10.7527
G01 X6.7257 Y10.6552
G01 X6.7453 Y10.6026
G01 X6.7501 Y10.5928
G01 X6.7551 Y10.5851
G01 X6.7970 Y10.5292
G01 X6.8032 Y10.5219
G01 X6.8087 Y10.5167
G01 X6.8148 Y10.5121
G01 X6.8213 Y10.5081
G01 X6.8281 Y10.5047
G01 X6.8989 Y10.4782
G01 X6.9080 Y10.4757
G01 X6.9174 Y10.4743
G01 X6.9328 Y10.4737
G01 X11.2892 Y10.4737
G01 X11.3002 Y10.4745
G01 X11.3109 Y10.4768
G01 X11.3797 Y10.4970
G01 X11.3868 Y10.4997
G01 X11.3952 Y10.5040
G01 X11.4030 Y10.5092
G01 X11.4282 Y10.5297
G01 X11.4702 Y10.5715
G01 X11.6324 Y10.6894
G01 X11.8111 Y10.7804
G01 X12.0017 Y10.8423
G01 X12.1571 Y10.8669
G01 X12.1998 Y10.8737
G01 X12.4002 Y10.8737
G01 X12.5983 Y10.8423
G01 X12.7889 Y10.7804
G01 X12.9676 Y10.6894
G01 X13.1298 Y10.5715
G01 X13.2715 Y10.4298
G01 X13.3894 Y10.2676
G01 X13.4804 Y10.0889
G01 X13.5423 Y9.8983
G01 X13.5737 Y9.7002
G01 X13.5737 Y9.4998
G01 X13.5423 Y9.3017
G01 X13.4804 Y9.1111
G01 X13.3894 Y8.9324
G01 X13.2715 Y8.7702
G01 X13.1298 Y8.6285
G01 X12.9676 Y8.5106
G01 X12.7889 Y8.4196
G01 X12.5983 Y8.3577
G01 X12.4002 Y8.3263
G01 X12.1998 Y8.3263
G01 X12.0017 Y8.3577
G01 X11.8111 Y8.4196
G01 X11.6324 Y8.5106
G01 X11.4702 Y8.6285
G01 X11.4299 Y8.6688
G01 X11.4229 Y8.6747
G01 X11.4153 Y8.6797
G01 X11.3524 Y8.7141
G01 X11.3421 Y8.7187
G01 X11.3349 Y8.7210
G01 X11.3275 Y8.7225
G01 X11.2913 Y8.7263
G01 X6.9273 Y8.7261
G01 X6.9201 Y8.7252
G01 X6.9129 Y8.7237
G01 X6.8405 Y8.7023
G01 X6.8317 Y8.6987
G01 X6.8250 Y8.6949
G01 X6.8173 Y8.6894
G01 X6.8116 Y8.6843
G01 X6.7620 Y8.6273
G01 X6.7562 Y8.6198
G01 X6.7514 Y8.6116
G01 X6.7457 Y8.5982
G01 X6.7257 Y8.5449
G01 X6.6527 Y8.4473
G01 X6.5552 Y8.3743
G01 X6.4397 Y8.3312
G01 X6.3938 Y8.3263
G01 X4.6062 Y8.3263
G01 X4.5603 Y8.3312
G01 X4.4449 Y8.3743
G01 X4.3473 Y8.4473
G01 X4.2743 Y8.5449
G01 X4.2312 Y8.6603
G01 X4.2263 Y8.7062
G01 X4.2263 Y10.4937
G01 X4.2312 Y10.5397
G01 X4.2743 Y10.6551
G01 X4.3473 Y10.7527
G01 X4.4449 Y10.8257
G01 X4.5603 Y10.8688
G01 X4.6062 Y10.8737
G01 X6.3938 Y10.8737
G00 Z2.0000
G00 X4.3518 Y10.5112
G01 F25.00
G01 Z-0.1000
G01 F120.00
G01 X4.3833 Y10.5956
G01 X4.4351 Y10.6649
G01 X4.5043 Y10.7167
G01 X4.5888 Y10.7482
G01 X4.6128 Y10.7508
G01 X6.3872 Y10.7508
G01 X6.4112 Y10.7482
G01 X6.4956 Y10.7167
G01 X6.5649 Y10.6649
G01 X6.6167 Y10.5957
G01 X6.6300 Y10.5600
G01 X6.6353 Y10.5476
G01 X6.6433 Y10.5320
G01 X6.6531 Y10.5165
G01 X6.6986 Y10.4556
G01 X6.7057 Y10.4466
G01 X6.7123 Y10.4392
G01 X6.7206 Y10.4308
G01 X6.7285 Y10.4236
G01 X6.7374 Y10.4164
G01 X6.7496 Y10.4079
G01 X6.7624 Y10.4002
G01 X6.7757 Y10.3935
G01 X6.7883 Y10.3883
G01 X6.8545 Y10.3636
G01 X6.8649 Y10.3601
G01 X6.8763 Y10.3569
G01 X6.8859 Y10.3548
G01 X6.8964 Y10.3530
G01 X6.9077 Y10.3518
G01 X6.9328 Y10.3508
G01 X11.2955 Y10.3509
G01 X11.3090 Y10.3518
G01 X11.3209 Y10.3534
G01 X11.3324 Y10.3555
G01 X11.3444 Y10.3586
G01 X11.4212 Y10.3813
G01 X11.4369 Y10.3875
G01 X11.4538 Y10.3959
G01 X11.4645 Y10.4024
G01 X11.4750 Y10.4096
G01 X11.5057 Y10.4342
G01 X11.5169 Y10.4445
G01 X11.5503 Y10.4778
G01 X11.6968 Y10.5843
G01 X11.8582 Y10.6665
G01 X12.0305 Y10.7225
G01 X12.1763 Y10.7456
G01 X12.2094 Y10.7508
G01 X12.3906 Y10.7508
G01 X12.5695 Y10.7225
G01 X12.7418 Y10.6665
G01 X12.9032 Y10.5843
G01 X13.0497 Y10.4778
G01 X13.1778 Y10.3497
G01 X13.2843 Y10.2032
G01 X13.3665 Y10.0418
G01 X13.4225 Y9.8695
G01 X13.4508 Y9.6906
G01 X13.4508 Y9.5094
G01 X13.4225 Y9.3305
G01 X13.3665 Y9.1582
G01 X13.2843 Y8.9968
G01 X13.1778 Y8.8503
G01 X13.0497 Y8.7222
G01 X12.9032 Y8.6157
G01 X12.7418 Y8.5335
G01 X12.5695 Y8.4775
G01 X12.3906 Y8.4492
G01 X12.2094 Y8.4492
G01 X12.0305 Y8.4775
G01 X11.8582 Y8.5335
G01 X11.6968 Y8.6157
G01 X11.5503 Y8.7222
G01 X11.5171 Y8.7554
G01 X11.5071 Y8.7646
G01 X11.4916 Y8.7767
G01 X11.4821 Y8.7829
G01 X11.4736 Y8.7879
G01 X11.4063 Y8.8246
G01 X11.3930 Y8.8307
G01 X11.3785 Y8.8362
G01 X11.3618 Y8.8409
G01 X11.3452 Y8.8441
G01 X11.3069 Y8.8484
G01 X11.2892 Y8.8492
G01 X6.9328 Y8.8492
G01 X6.9218 Y8.8489
G01 X6.9029 Y8.8469
G01 X6.8843 Y8.8432
G01 X6.8008 Y8.8186
G01 X6.7855 Y8.8127
G01 X6.7714 Y8.8058
G01 X6.7570 Y8.7973
G01 X6.7430 Y8.7873
G01 X6.7297 Y8.7759
G01 X6.7176 Y8.7637
G01 X6.6681 Y8.7066
G01 X6.6565 Y8.6916
G01 X6.6467 Y8.6762
G01 X6.6381 Y8.6594
G01 X6.6301 Y8.6402
G01 X6.6167 Y8.6044
G01 X6.5649 Y8.5351
G01 X6.4957 Y8.4833
G01 X6.4112 Y8.4518
G01 X6.3872 Y8.4492
G01 X4.6128 Y8.4492
G01 X4.5888 Y8.4518
G01 X4.5043 Y8.4833
G01 X4.4351 Y8.5351
G01 X4.3833 Y8.6043
G01 X4.3518 Y8.6888
G01 X4.3492 Y8.7128
G01 X4.3492 Y10.4872
G01 X4.3518 Y10.5112
G01 X4.2915 Y10.5254
G01 X4.3288 Y10.6254
G01 X4.3912 Y10.7088
G01 X4.4746 Y10.7712
G01 X4.5746 Y10.8085
G01 X4.6095 Y10.8123
G01 X6.3905 Y10.8123
G01 X6.4254 Y10.8085
G01 X6.5254 Y10.7712
G01 X6.6088 Y10.7088
G01 X6.6712 Y10.6254
G01 X6.6898 Y10.5761
G01 X6.6949 Y10.5656
G01 X6.7017 Y10.5543
G01 X6.7516 Y10.4876
G01 X6.7619 Y10.4763
G01 X6.7722 Y10.4673
G01 X6.7820 Y10.4601
G01 X6.7908 Y10.4547
G01 X6.8000 Y10.4500
G01 X6.8102 Y10.4457
G01 X6.8828 Y10.4188
G01 X6.8912 Y10.4165
G01 X6.8994 Y10.4148
G01 X6.9080 Y10.4135
G01 X6.9164 Y10.4128
G01 X6.9328 Y10.4123
G01 X11.2892 Y10.4123
G01 X11.2984 Y10.4126
G01 X11.3082 Y10.4136
G01 X11.3161 Y10.4149
G01 X11.3257 Y10.4172
G01 X11.3992 Y10.4388
G01 X11.4119 Y10.4436
G01 X11.4240 Y10.4497
G01 X11.4327 Y10.4550
G01 X11.4398 Y10.4600
G01 X11.4671 Y10.4821
G01 X11.4747 Y10.4891
G01 X11.5103 Y10.5247
G01 X11.6646 Y10.6368
G01 X11.8347 Y10.7234
G01 X12.0161 Y10.7824
G01 X12.1667 Y10.8063
G01 X12.2046 Y10.8123
G01 X12.3954 Y10.8123
G01 X12.5839 Y10.7824
G01 X12.7653 Y10.7234
G01 X12.9354 Y10.6368
G01 X13.0897 Y10.5247
G01 X13.2247 Y10.3897
G01 X13.3368 Y10.2354
G01 X13.4234 Y10.0653
G01 X13.4824 Y9.8839
G01 X13.5123 Y9.6954
G01 X13.5123 Y9.5046
G01 X13.4824 Y9.3161
G01 X13.4234 Y9.1347
G01 X13.3368 Y8.9646
G01 X13.2247 Y8.8103
G01 X13.0897 Y8.6753
G01 X12.9354 Y8.5632
G01 X12.7653 Y8.4766
G01 X12.5839 Y8.4176
G01 X12.3954 Y8.3877
G01 X12.2046 Y8.3877
G01 X12.0161 Y8.4176
G01 X11.8347 Y8.4766
G01 X11.6646 Y8.5632
G01 X11.5103 Y8.6753
G01 X11.4694 Y8.7160
G01 X11.4577 Y8.7254
G01 X11.4454 Y8.7333
G01 X11.3795 Y8.7692
G01 X11.3703 Y8.7736
G01 X11.3608 Y8.7773
G01 X11.3478 Y8.7811
G01 X11.3364 Y8.7833
G01 X11.3012 Y8.7872
G01 X11.2892 Y8.7877
G01 X6.9255 Y8.7875
G01 X6.9106 Y8.7859
G01 X6.8977 Y8.7832
G01 X6.8210 Y8.7606
G01 X6.8100 Y8.7563
G01 X6.8007 Y8.7518
G01 X6.7902 Y8.7456
G01 X6.7806 Y8.7387
G01 X6.7713 Y8.7308
G01 X6.7630 Y8.7223
G01 X6.7150 Y8.6670
G01 X6.7067 Y8.6562
G01 X6.6994 Y8.6446
G01 X6.6933 Y8.6324
G01 X6.6871 Y8.6171
G01 X6.6712 Y8.5746
G01 X6.6088 Y8.4912
G01 X6.5254 Y8.4288
G01 X6.4254 Y8.3915
G01 X6.3905 Y8.3877
G01 X4.6095 Y8.3877
G01 X4.5746 Y8.3915
G01 X4.4746 Y8.4288
G01 X4.3912 Y8.4912
G01 X4.3288 Y8.5746
G01 X4.2915 Y8.6746
G01 X4.2877 Y8.7095
G01 X4.2877 Y10.4905
G01 X4.2915 Y10.5254
G00 Z2.0000
G00 X11.4016 Y10.3113
G01 F25.00
G01 Z-0.1000
G01 F120.00
G01 X11.4410 Y10.3232
G01 X11.4534 Y10.3278
G01 X11.4666 Y10.3335
G01 X11.4466 Y10.3113
G01 X11.4016 Y10.3113
G00 Z2.0000
G00 X11.5383 Y9.0730
G01 F25.00
G01 Z-0.1000
G01 F120.00
G01 X11.5836 Y9.0120
G01 X11.6447 Y8.9447
G01 X11.7120 Y8.8836
G01 X11.7851 Y8.8294
G01 X11.8631 Y8.7826
G01 X11.9453 Y8.7437
G01 X12.0310 Y8.7131
G01 X12.1192 Y8.6910
G01 X12.2092 Y8.6777
G01 X12.3000 Y8.6732
G01 X12.3908 Y8.6777
G01 X12.4808 Y8.6910
G01 X12.5690 Y8.7131
G01 X12.6547 Y8.7437
G01 X12.7369 Y8.7826
G01 X12.8149 Y8.8294
G01 X12.8880 Y8.8836
G01 X12.9553 Y8.9447
G01 X13.0164 Y9.0120
G01 X13.0706 Y9.0851
G01 X13.1174 Y9.1631
G01 X13.1563 Y9.2453
G01 X13.1869 Y9.3310
G01 X13.2090 Y9.4192
G01 X13.2223 Y9.5092
G01 X13.2268 Y9.6000
G01 X13.2223 Y9.6908
G01 X13.2090 Y9.7808
G01 X13.1869 Y9.8690
G01 X13.1563 Y9.9547
G01 X13.1174 Y10.0369
G01 X13.0706 Y10.1149
G01 X13.0187 Y10.1850
G01 X13.0140 Y10.1908
G01 X12.9553 Y10.2553
G01 X12.8908 Y10.3140
G01 X12.8850 Y10.3187
G01 X12.8149 Y10.3706
G01 X12.7369 Y10.4174
G01 X12.6547 Y10.4563
G01 X12.5726 Y10.4857
G01 X12.5654 Y10.4879
G01 X12.4808 Y10.5090
G01 X12.3946 Y10.5219
G01 X12.3871 Y10.5226
G01 X12.3038 Y10.5267
G01 X12.2962 Y10.5267
G01 X12.2092 Y10.5223
G01 X12.1229 Y10.5096
G01 X12.1155 Y10.5082
G01 X12.0310 Y10.4869
G01 X11.9488 Y10.4576
G01 X11.9419 Y10.4547
G01 X11.8631 Y10.4174
G01 X11.7851 Y10.3706
G01 X11.7150 Y10.3187
G01 X11.7092 Y10.3140
G01 X11.6474 Y10.2579
G01 X11.6421 Y10.2526
G01 X11.5836 Y10.1880
G01 X11.5383 Y10.1270
G01 X6.4268 Y10.1270
G01 X6.4268 Y10.4500
G01 X6.4260 Y10.4613
G01 X6.4235 Y10.4723
G01 X6.4210 Y10.4794
