(G-CODE GENERATED BY FLATCAM v8.994 - www.flatcam.org - Version Date: 2020/11/7)

(Name: M¾dulo Patas-B_Cu.gbr_ncc_cnc)
(Type: G-code from Geometry)
(Units: MM)

(Created on Thursday, 30 October 2025 at 10:11)

(This preprocessor is the default preprocessor used by FlatCAM.)
(It is made to work with MACH3 compatible motion controllers.)

(TOOL DIAMETER: 0.2 mm)
(Feedrate_XY: 120.0 mm/min)
(Feedrate_Z: 25.0 mm/min)
(Feedrate rapids 1500.0 mm/min)

(Z_Cut: -0.1866 mm)
(Z_Move: 2.0 mm)
(Z Start: None mm)
(Z End: 2.5 mm)
(X,Y End: 0.0000, 0.0000 mm)
(Steps per circle: 64)
(Preprocessor Geometry: default)

(X range:  -38.5005 ...   -4.0595  mm)
(Y range:  -22.6015 ...   22.7005  mm)

(Spindle Speed: 10000.0 RPM)
G21
G90
G94

G01 F120.00

M5
G00 Z15.0000
G00 X0.0000 Y0.0000
T1
M6    
(MSG, Change to Tool Dia = 0.2000)
M0
G00 Z15.0000

M03 S10000.0
G01 F120.00
G00 X-6.0707 Y-1.3126
G01 F25.00
G01 Z-0.1866
G01 F120.00
G01 X-6.0141 Y-1.2993
G01 X-6.0013 Y-1.2952
G01 X-5.9871 Y-1.2893
G01 X-5.9712 Y-1.2810
G01 X-5.9563 Y-1.2712
G01 X-5.9424 Y-1.2600
G01 X-5.9292 Y-1.2470
G01 X-5.9292 Y-1.4913
G01 X-5.9407 Y-1.4723
G01 X-5.9467 Y-1.4633
G01 X-6.0016 Y-1.3893
G01 X-6.0096 Y-1.3799
G01 X-6.0707 Y-1.3126
G00 Z2.0000
G00 X-5.9292 Y-2.5887
G01 F25.00
G01 Z-0.1866
G01 F120.00
G01 X-5.9292 Y-2.8348
G01 X-5.9549 Y-2.8126
G01 X-5.9654 Y-2.8042
G01 X-5.9803 Y-2.7944
G01 X-5.9943 Y-2.7869
G01 X-6.0108 Y-2.7800
G01 X-6.0279 Y-2.7748
G01 X-6.0429 Y-2.7716
G01 X-6.0709 Y-2.7676
G01 X-6.0096 Y-2.7001
G01 X-6.0016 Y-2.6907
G01 X-5.9467 Y-2.6167
G01 X-5.9407 Y-2.6077
G01 X-5.9292 Y-2.5887
G00 Z2.0000
G00 X-5.9500 Y-5.5300
G01 F25.00
G01 Z-0.1866
G01 F120.00
G01 X-5.9426 Y-5.5297
G01 X-5.9329 Y-5.5285
G01 X-5.9233 Y-5.5264
G01 X-5.9140 Y-5.5233
G01 X-5.9050 Y-5.5193
G01 X-5.8965 Y-5.5145
G01 X-5.8885 Y-5.5088
G01 X-5.8810 Y-5.5024
G01 X-5.8759 Y-5.4972
G01 X-5.8697 Y-5.4896
G01 X-5.8642 Y-5.4814
G01 X-5.8596 Y-5.4728
G01 X-5.8558 Y-5.4637
G01 X-5.8530 Y-5.4543
G01 X-5.8511 Y-5.4447
G01 X-5.8501 Y-5.4349
G01 X-5.8500 Y-3.7275
G01 X-5.8505 Y-3.7202
G01 X-5.8519 Y-3.7105
G01 X-5.8543 Y-3.7010
G01 X-5.8576 Y-3.6917
G01 X-5.8618 Y-3.6829
G01 X-5.8669 Y-3.6744
G01 X-5.8727 Y-3.6666
G01 X-5.8776 Y-3.6610
G01 X-5.8847 Y-3.6543
G01 X-5.8924 Y-3.6482
G01 X-5.9007 Y-3.6430
G01 X-5.9095 Y-3.6386
G01 X-5.9186 Y-3.6350
G01 X-5.9281 Y-3.6324
G01 X-5.9378 Y-3.6308
G01 X-5.9500 Y-3.6300
G01 X-7.6525 Y-3.6300
G01 X-7.6622 Y-3.6308
G01 X-7.6719 Y-3.6324
G01 X-7.6790 Y-3.6343
G01 X-7.6883 Y-3.6376
G01 X-7.6971 Y-3.6418
G01 X-7.7056 Y-3.6469
G01 X-7.7134 Y-3.6527
G01 X-7.7190 Y-3.6576
G01 X-7.7257 Y-3.6647
G01 X-7.7318 Y-3.6724
G01 X-7.7370 Y-3.6807
G01 X-7.7414 Y-3.6895
G01 X-7.7450 Y-3.6986
G01 X-7.7476 Y-3.7081
G01 X-7.7492 Y-3.7178
G01 X-7.7500 Y-3.7275
G01 X-7.7500 Y-5.4300
G01 X-7.7495 Y-5.4398
G01 X-7.7481 Y-5.4495
G01 X-7.7464 Y-5.4567
G01 X-7.7442 Y-5.4637
G01 X-7.7414 Y-5.4705
G01 X-7.7382 Y-5.4771
G01 X-7.7345 Y-5.4835
G01 X-7.7303 Y-5.4896
G01 X-7.7257 Y-5.4953
G01 X-7.7207 Y-5.5007
G01 X-7.7153 Y-5.5057
G01 X-7.7096 Y-5.5103
G01 X-7.7035 Y-5.5145
G01 X-7.6971 Y-5.5182
G01 X-7.6905 Y-5.5214
G01 X-7.6837 Y-5.5242
G01 X-7.6767 Y-5.5264
G01 X-7.6695 Y-5.5281
G01 X-7.6598 Y-5.5295
G01 X-7.6500 Y-5.5300
G01 X-7.3502 Y-5.5300
G01 X-7.3502 Y-15.0721
G01 X-11.8281 Y-19.5500
G01 X-12.8525 Y-19.5500
G01 X-12.8622 Y-19.5508
G01 X-12.8719 Y-19.5524
G01 X-12.8814 Y-19.5550
G01 X-12.8928 Y-19.5596
G01 X-12.9014 Y-19.5642
G01 X-12.9096 Y-19.5697
G01 X-12.9172 Y-19.5759
G01 X-12.9257 Y-19.5847
G01 X-12.9318 Y-19.5924
G01 X-12.9358 Y-19.5986
G01 X-12.9393 Y-19.6050
G01 X-12.9433 Y-19.6140
G01 X-12.9457 Y-19.6210
G01 X-12.9481 Y-19.6305
G01 X-12.9492 Y-19.6378
G01 X-12.9500 Y-19.6475
G01 X-12.9500 Y-21.3525
G01 X-12.9495 Y-21.3598
G01 X-12.9485 Y-21.3671
G01 X-12.9470 Y-21.3743
G01 X-12.9450 Y-21.3814
G01 X-12.9404 Y-21.3928
G01 X-12.9370 Y-21.3993
G01 X-12.9331 Y-21.4056
G01 X-12.9288 Y-21.4115
G01 X-12.9241 Y-21.4172
G01 X-12.9190 Y-21.4224
G01 X-12.9134 Y-21.4273
G01 X-12.9076 Y-21.4318
G01 X-12.9014 Y-21.4358
G01 X-12.8905 Y-21.4414
G01 X-12.8814 Y-21.4450
G01 X-12.8695 Y-21.4481
G01 X-12.8598 Y-21.4495
G01 X-12.8500 Y-21.4500
G01 X-11.1500 Y-21.4500
G01 X-11.1402 Y-21.4495
G01 X-11.1329 Y-21.4485
G01 X-11.1233 Y-21.4464
G01 X-11.1140 Y-21.4433
G01 X-11.1050 Y-21.4393
G01 X-11.0986 Y-21.4358
G01 X-11.0904 Y-21.4303
G01 X-11.0828 Y-21.4241
G01 X-11.0759 Y-21.4172
G01 X-11.0697 Y-21.4096
G01 X-11.0642 Y-21.4014
G01 X-11.0596 Y-21.3928
G01 X-11.0558 Y-21.3837
G01 X-11.0530 Y-21.3743
G01 X-11.0508 Y-21.3622
G01 X-11.0500 Y-21.3525
G01 X-11.0500 Y-20.3281
G01 X-6.4109 Y-15.6891
G01 X-6.3747 Y-15.6491
G01 X-6.3425 Y-15.6057
G01 X-6.3147 Y-15.5594
G01 X-6.2917 Y-15.5106
G01 X-6.2735 Y-15.4597
G01 X-6.2603 Y-15.4073
G01 X-6.2524 Y-15.3539
G01 X-6.2498 Y-15.3000
G01 X-6.2498 Y-5.5300
G01 X-5.9500 Y-5.5300
G01 X-5.9292 Y-5.6088
G01 X-5.9292 Y-15.5443
G01 X-5.9602 Y-15.5177
G01 X-5.9690 Y-15.5112
G01 X-5.9786 Y-15.5050
G01 X-5.9903 Y-15.4984
G01 X-6.0024 Y-15.4928
G01 X-6.0150 Y-15.4881
G01 X-6.0279 Y-15.4843
G01 X-6.0454 Y-15.4808
G01 X-6.1155 Y-15.4707
G01 X-6.1343 Y-15.4690
G01 X-6.1502 Y-15.4691
G01 X-6.1655 Y-15.4705
G01 X-6.1812 Y-15.4734
G01 X-6.1953 Y-15.4772
G01 X-6.1821 Y-15.4239
G01 X-6.1739 Y-15.3705
G01 X-6.1722 Y-15.3539
G01 X-6.1698 Y-15.3000
G01 X-6.1698 Y-5.6100
G01 X-5.9500 Y-5.6100
G01 X-5.9402 Y-5.6097
G01 X-5.9292 Y-5.6088
G00 Z2.0000
G00 X-6.0963 Y-15.3926
G01 F25.00
G01 Z-0.1866
G01 F120.00
G01 X-6.0938 Y-15.3750
G01 X-6.0926 Y-15.3623
G01 X-6.0901 Y-15.3123
G01 X-6.0898 Y-15.3000
G01 X-6.0898 Y-5.6900
G01 X-6.0092 Y-5.6900
G01 X-6.0092 Y-15.4065
G01 X-6.0306 Y-15.4021
G01 X-6.0963 Y-15.3926
G00 Z2.0000
G00 X-5.8995 Y-15.7716
G01 F25.00
G01 Z-0.1866
G01 F120.00
G01 X-5.9002 Y-15.7597
G01 X-5.9023 Y-15.7480
G01 X-5.9232 Y-15.6764
G01 X-5.9256 Y-15.6693
G01 X-5.9285 Y-15.6625
G01 X-5.9319 Y-15.6558
G01 X-5.9357 Y-15.6495
G01 X-5.9432 Y-15.6396
G01 X-5.9500 Y-15.6323
G01 X-6.0065 Y-15.5832
G01 X-6.0123 Y-15.5786
G01 X-6.0184 Y-15.5744
G01 X-6.0249 Y-15.5706
G01 X-6.0316 Y-15.5673
G01 X-6.0432 Y-15.5630
G01 X-6.0529 Y-15.5607
G01 X-6.1269 Y-15.5499
G01 X-6.1343 Y-15.5491
G01 X-6.1418 Y-15.5489
G01 X-6.1492 Y-15.5492
G01 X-6.1566 Y-15.5501
G01 X-6.1687 Y-15.5527
G01 X-6.1781 Y-15.5560
G01 X-6.2462 Y-15.5869
G01 X-6.2529 Y-15.5903
G01 X-6.2592 Y-15.5941
G01 X-6.2653 Y-15.5983
G01 X-6.2710 Y-15.6030
G01 X-6.2797 Y-15.6117
G01 X-6.3050 Y-15.6407
G01 X-6.3097 Y-15.6472
G01 X-6.3336 Y-15.6828
G01 X-10.9372 Y-20.2866
G01 X-10.9446 Y-20.2958
G01 X-10.9498 Y-20.3038
G01 X-10.9844 Y-20.3672
G01 X-10.9896 Y-20.3783
G01 X-10.9928 Y-20.3876
G01 X-10.9954 Y-20.3996
G01 X-10.9989 Y-20.4308
G01 X-10.9995 Y-20.4415
G01 X-10.9995 Y-21.1115
G01 X-10.9992 Y-21.1186
G01 X-10.9981 Y-21.1281
G01 X-10.9961 Y-21.1374
G01 X-10.9758 Y-21.2067
G01 X-10.9734 Y-21.2138
G01 X-10.9683 Y-21.2251
G01 X-10.9619 Y-21.2357
G01 X-10.9542 Y-21.2454
G01 X-10.9472 Y-21.2524
G01 X-10.8887 Y-21.3030
G01 X-10.8784 Y-21.3100
G01 X-10.8674 Y-21.3157
G01 X-10.8558 Y-21.3200
G01 X-10.8437 Y-21.3229
G01 X-10.7721 Y-21.3332
G01 X-10.7647 Y-21.3340
G01 X-10.7547 Y-21.3342
G01 X-10.7424 Y-21.3330
G01 X-10.7303 Y-21.3303
G01 X-10.7209 Y-21.3271
G01 X-10.6483 Y-21.2940
G01 X-10.6419 Y-21.2903
G01 X-10.6357 Y-21.2862
G01 X-10.6262 Y-21.2784
G01 X-10.6171 Y-21.2699
G01 X-5.9618 Y-16.6144
G01 X-5.9558 Y-16.6071
G01 X-5.9492 Y-16.5972
G01 X-5.9146 Y-16.5338
G01 X-5.9103 Y-16.5249
G01 X-5.9062 Y-16.5134
G01 X-5.9040 Y-16.5038
G01 X-5.8998 Y-16.4675
G01 X-5.8995 Y-16.4595
G01 X-5.8995 Y-15.7716
G00 Z2.0000
G00 X-10.9316 Y-21.3708
G01 F25.00
G01 Z-0.1866
G01 F120.00
G01 X-10.9712 Y-21.3708
G01 X-10.9702 Y-21.3579
G01 X-10.9700 Y-21.3385
G01 X-10.9422 Y-21.3626
G01 X-10.9316 Y-21.3708
G00 Z2.0000
G00 X-13.0288 Y-21.3708
G01 F25.00
G01 Z-0.1866
G01 F120.00
G01 X-13.0720 Y-21.3708
G01 X-13.0300 Y-21.3393
G01 X-13.0298 Y-21.3579
G01 X-13.0288 Y-21.3708
G00 Z2.0000
G00 X-14.9017 Y-21.3784
G01 F25.00
G01 Z-0.1866
G01 F120.00
G01 X-13.8901 Y-22.3901
G01 X-13.8538 Y-22.4231
G01 X-13.8462 Y-22.4293
G01 X-13.8067 Y-22.4585
G01 X-13.7646 Y-22.4838
G01 X-13.7560 Y-22.4885
G01 X-13.7116 Y-22.5093
G01 X-13.6654 Y-22.5260
G01 X-13.6560 Y-22.5288
G01 X-13.6131 Y-22.5396
G01 X-13.6035 Y-22.5415
G01 X-13.5549 Y-22.5486
G01 X-13.5010 Y-22.5512
G01 X-10.4990 Y-22.5512
G01 X-10.4451 Y-22.5486
G01 X-10.3917 Y-22.5407
G01 X-10.3393 Y-22.5275
G01 X-10.2930 Y-22.5111
G01 X-10.2862 Y-22.5084
G01 X-10.2396 Y-22.4863
G01 X-10.1933 Y-22.4585
G01 X-10.1499 Y-22.4263
G01 X-10.1099 Y-22.3901
G01 X-4.9099 Y-17.1901
G01 X-4.8737 Y-17.1501
G01 X-4.8443 Y-17.1107
G01 X-4.8389 Y-17.1025
G01 X-4.8137 Y-17.0604
G01 X-4.7926 Y-17.0160
G01 X-4.7889 Y-17.0070
G01 X-4.7725 Y-16.9607
G01 X-4.7593 Y-16.9083
G01 X-4.7520 Y-16.8598
G01 X-4.7511 Y-16.8500
G01 X-4.7488 Y-16.8010
G01 X-4.7489 Y5.5239
G01 X-4.7514 Y5.5729
G01 X-4.7593 Y5.6263
G01 X-4.7725 Y5.6787
G01 X-4.7889 Y5.7250
G01 X-4.7926 Y5.7340
G01 X-4.8115 Y5.7740
G01 X-4.8162 Y5.7826
G01 X-4.8415 Y5.8247
G01 X-4.8737 Y5.8681
G01 X-4.9099 Y5.9081
G01 X-5.8500 Y6.8481
G01 X-5.8500 Y7.8700
G01 X-5.8503 Y7.8774
G01 X-5.8511 Y7.8847
G01 X-5.8524 Y7.8919
G01 X-5.8543 Y7.8990
G01 X-5.8567 Y7.9060
G01 X-5.8596 Y7.9128
G01 X-5.8630 Y7.9193
G01 X-5.8669 Y7.9256
G01 X-5.8712 Y7.9315
G01 X-5.8759 Y7.9372
G01 X-5.8810 Y7.9424
G01 X-5.8866 Y7.9473
G01 X-5.8924 Y7.9518
G01 X-5.8986 Y7.9558
G01 X-5.9050 Y7.9593
G01 X-5.9117 Y7.9624
G01 X-5.9210 Y7.9657
G01 X-5.9281 Y7.9676
G01 X-5.9353 Y7.9689
G01 X-5.9426 Y7.9697
G01 X-5.9500 Y7.9700
G01 X-7.6525 Y7.9700
G01 X-7.6622 Y7.9692
G01 X-7.6719 Y7.9676
G01 X-7.6790 Y7.9657
G01 X-7.6883 Y7.9624
G01 X-7.6971 Y7.9582
G01 X-7.7056 Y7.9531
G01 X-7.7134 Y7.9473
G01 X-7.7207 Y7.9407
G01 X-7.7273 Y7.9334
G01 X-7.7331 Y7.9256
G01 X-7.7370 Y7.9193
G01 X-7.7414 Y7.9105
G01 X-7.7450 Y7.9014
G01 X-7.7476 Y7.8919
G01 X-7.7492 Y7.8822
G01 X-7.7500 Y7.8725
G01 X-7.7500 Y6.1700
G01 X-7.7497 Y6.1626
G01 X-7.7485 Y6.1529
G01 X-7.7464 Y6.1433
G01 X-7.7433 Y6.1340
G01 X-7.7404 Y6.1272
G01 X-7.7358 Y6.1186
G01 X-7.7303 Y6.1104
G01 X-7.7241 Y6.1028
G01 X-7.7172 Y6.0959
G01 X-7.7096 Y6.0897
G01 X-7.7035 Y6.0855
G01 X-7.6950 Y6.0807
G01 X-7.6860 Y6.0767
G01 X-7.6767 Y6.0736
G01 X-7.6671 Y6.0715
G01 X-7.6598 Y6.0705
G01 X-7.6500 Y6.0700
G01 X-6.6281 Y6.0700
G01 X-5.8492 Y5.2911
G01 X-5.8492 Y-16.5731
G01 X-10.7269 Y-21.4508
G01 X-13.2731 Y-21.4508
G01 X-13.7298 Y-20.9941
G01 X-13.7010 Y-20.9456
G01 X-13.6633 Y-20.8658
G01 X-13.6324 Y-20.7804
G01 X-13.6302 Y-20.7734
G01 X-13.6083 Y-20.6853
G01 X-13.5952 Y-20.5980
G01 X-13.5942 Y-20.5882
G01 X-13.5900 Y-20.4975
G01 X-13.5946 Y-20.4069
G01 X-13.6074 Y-20.3195
G01 X-13.6093 Y-20.3099
G01 X-13.6309 Y-20.2242
G01 X-13.6605 Y-20.1410
G01 X-13.6643 Y-20.1320
G01 X-13.7022 Y-20.0522
G01 X-13.7501 Y-19.9722
G01 X-13.8026 Y-19.9012
G01 X-13.8088 Y-19.8936
G01 X-13.8682 Y-19.8282
G01 X-13.9336 Y-19.7688
G01 X-13.9412 Y-19.7626
G01 X-14.0122 Y-19.7101
G01 X-14.0922 Y-19.6622
G01 X-14.1765 Y-19.6223
G01 X-14.2596 Y-19.5924
G01 X-14.2690 Y-19.5896
G01 X-14.3547 Y-19.5683
G01 X-14.4420 Y-19.5552
G01 X-14.4518 Y-19.5542
G01 X-14.5375 Y-19.5500
G01 X-14.5449 Y-19.5501
G01 X-14.6331 Y-19.5546
G01 X-14.7205 Y-19.5674
G01 X-14.7301 Y-19.5693
G01 X-14.8110 Y-19.5896
G01 X-14.8204 Y-19.5924
G01 X-14.9035 Y-19.6223
G01 X-14.9878 Y-19.6622
G01 X-15.0678 Y-19.7101
G01 X-15.1427 Y-19.7656
G01 X-15.2118 Y-19.8282
G01 X-15.2744 Y-19.8973
G01 X-15.3299 Y-19.9722
G01 X-15.3754 Y-20.0479
G01 X-15.3800 Y-20.0566
G01 X-15.4157 Y-20.1320
G01 X-15.4195 Y-20.1410
G01 X-15.4491 Y-20.2242
G01 X-15.4717 Y-20.3147
G01 X-15.4854 Y-20.4069
G01 X-15.4899 Y-20.4951
G01 X-15.4899 Y-20.5049
G01 X-15.4858 Y-20.5882
G01 X-15.4848 Y-20.5980
G01 X-15.4717 Y-20.6853
G01 X-15.4491 Y-20.7758
G01 X-15.4177 Y-20.8635
G01 X-15.3778 Y-20.9478
G01 X-15.3299 Y-21.0278
G01 X-15.2744 Y-21.1027
G01 X-15.2118 Y-21.1718
G01 X-15.1464 Y-21.2312
G01 X-15.1388 Y-21.2374
G01 X-15.0718 Y-21.2871
G01 X-15.0636 Y-21.2925
G01 X-14.9878 Y-21.3378
G01 X-14.9017 Y-21.3784
G00 Z2.0000
G00 X-16.3169 Y-19.8482
G01 F25.00
G01 Z-0.1866
G01 F120.00
G01 X-16.2243 Y-19.9756
G01 X-16.1528 Y-20.1159
G01 X-16.1041 Y-20.2657
G01 X-16.0795 Y-20.4213
G01 X-16.0795 Y-20.5787
G01 X-16.1041 Y-20.7343
G01 X-16.1528 Y-20.8841
G01 X-16.2243 Y-21.0244
G01 X-16.3169 Y-21.1518
G01 X-16.4282 Y-21.2631
G01 X-16.5556 Y-21.3557
G01 X-16.6959 Y-21.4272
G01 X-16.8457 Y-21.4759
G01 X-17.0013 Y-21.5005
G01 X-17.1587 Y-21.5005
G01 X-17.3143 Y-21.4759
G01 X-17.4641 Y-21.4272
G01 X-17.6044 Y-21.3557
G01 X-17.7318 Y-21.2631
G01 X-17.8431 Y-21.1518
G01 X-17.9357 Y-21.0244
G01 X-18.0072 Y-20.8841
G01 X-18.0559 Y-20.7343
G01 X-18.0805 Y-20.5787
G01 X-18.0805 Y-20.4213
G01 X-18.0559 Y-20.2657
G01 X-18.0072 Y-20.1159
G01 X-17.9357 Y-19.9756
G01 X-17.8431 Y-19.8482
G01 X-17.7318 Y-19.7369
G01 X-17.6044 Y-19.6443
G01 X-17.4641 Y-19.5728
G01 X-17.3143 Y-19.5241
G01 X-17.1587 Y-19.4995
G01 X-17.0013 Y-19.4995
G01 X-16.8457 Y-19.5241
G01 X-16.6959 Y-19.5728
G01 X-16.5556 Y-19.6443
G01 X-16.4282 Y-19.7369
G01 X-16.3169 Y-19.8482
G00 Z2.0000
G00 X-17.0849 Y-21.4499
G01 F25.00
G01 Z-0.1866
G01 F120.00
G01 X-17.0751 Y-21.4499
G01 X-16.9869 Y-21.4454
G01 X-16.8947 Y-21.4317
G01 X-16.8042 Y-21.4091
G01 X-16.7165 Y-21.3777
G01 X-16.6322 Y-21.3378
G01 X-16.5522 Y-21.2899
G01 X-16.4773 Y-21.2344
G01 X-16.4082 Y-21.1718
G01 X-16.3456 Y-21.1027
G01 X-16.2901 Y-21.0278
G01 X-16.2422 Y-20.9478
G01 X-16.2023 Y-20.8635
G01 X-16.1709 Y-20.7758
G01 X-16.1483 Y-20.6853
G01 X-16.1346 Y-20.5931
G01 X-16.1300 Y-20.5000
G01 X-16.1346 Y-20.4069
G01 X-16.1483 Y-20.3147
G01 X-16.1709 Y-20.2242
G01 X-16.2023 Y-20.1365
G01 X-16.2422 Y-20.0522
G01 X-16.2901 Y-19.9722
G01 X-16.3456 Y-19.8973
G01 X-16.4082 Y-19.8282
G01 X-16.4773 Y-19.7656
G01 X-16.5522 Y-19.7101
G01 X-16.6322 Y-19.6622
G01 X-16.7165 Y-19.6223
G01 X-16.8042 Y-19.5909
G01 X-16.8947 Y-19.5683
G01 X-16.9869 Y-19.5546
G01 X-17.0800 Y-19.5500
G01 X-17.1731 Y-19.5546
G01 X-17.2653 Y-19.5683
G01 X-17.3558 Y-19.5909
G01 X-17.4435 Y-19.6223
G01 X-17.5278 Y-19.6622
G01 X-17.6078 Y-19.7101
G01 X-17.6827 Y-19.7656
G01 X-17.7518 Y-19.8282
G01 X-17.8144 Y-19.8973
G01 X-17.8699 Y-19.9722
G01 X-17.9178 Y-20.0522
G01 X-17.9577 Y-20.1365
G01 X-17.9891 Y-20.2242
G01 X-18.0117 Y-20.3147
G01 X-18.0254 Y-20.4069
G01 X-18.0300 Y-20.5000
G01 X-18.0254 Y-20.5931
G01 X-18.0117 Y-20.6853
G01 X-17.9891 Y-20.7758
G01 X-17.9577 Y-20.8635
G01 X-17.9178 Y-20.9478
G01 X-17.8699 Y-21.0278
G01 X-17.8144 Y-21.1027
G01 X-17.7518 Y-21.1718
G01 X-17.6827 Y-21.2344
G01 X-17.6078 Y-21.2899
G01 X-17.5278 Y-21.3378
G01 X-17.4435 Y-21.3777
G01 X-17.3558 Y-21.4091
G01 X-17.2653 Y-21.4317
G01 X-17.1731 Y-21.4454
G01 X-17.0849 Y-21.4499
G00 Z2.0000
G00 X-18.8569 Y-19.8482
G01 F25.00
G01 Z-0.1866
G01 F120.00
G01 X-18.7643 Y-19.9756
G01 X-18.6928 Y-20.1159
G01 X-18.6441 Y-20.2657
G01 X-18.6195 Y-20.4213
G01 X-18.6195 Y-20.5787
G01 X-18.6441 Y-20.7343
G01 X-18.6928 Y-20.8841
G01 X-18.7643 Y-21.0244
G01 X-18.8569 Y-21.1518
G01 X-18.9682 Y-21.2631
G01 X-19.0956 Y-21.3557
G01 X-19.2359 Y-21.4272
G01 X-19.3857 Y-21.4759
G01 X-19.5413 Y-21.5005
G01 X-19.6987 Y-21.5005
G01 X-19.8543 Y-21.4759
G01 X-20.0041 Y-21.4272
G01 X-20.1444 Y-21.3557
G01 X-20.2718 Y-21.2631
G01 X-20.3831 Y-21.1518
G01 X-20.4757 Y-21.0244
G01 X-20.5472 Y-20.8841
G01 X-20.5959 Y-20.7343
G01 X-20.6205 Y-20.5787
G01 X-20.6205 Y-20.4213
G01 X-20.5959 Y-20.2657
G01 X-20.5472 Y-20.1159
G01 X-20.4757 Y-19.9756
G01 X-20.3831 Y-19.8482
G01 X-20.2718 Y-19.7369
G01 X-20.1444 Y-19.6443
G01 X-20.0041 Y-19.5728
G01 X-19.8543 Y-19.5241
G01 X-19.6987 Y-19.4995
G01 X-19.5413 Y-19.4995
G01 X-19.3857 Y-19.5241
G01 X-19.2359 Y-19.5728
G01 X-19.0956 Y-19.6443
G01 X-18.9682 Y-19.7369
G01 X-18.8569 Y-19.8482
G00 Z2.0000
G00 X-19.6249 Y-21.4499
G01 F25.00
G01 Z-0.1866
G01 F120.00
G01 X-19.6151 Y-21.4499
G01 X-19.5269 Y-21.4454
G01 X-19.4347 Y-21.4317
G01 X-19.3442 Y-21.4091
G01 X-19.2565 Y-21.3777
G01 X-19.1722 Y-21.3378
G01 X-19.0922 Y-21.2899
G01 X-19.0173 Y-21.2344
G01 X-18.9482 Y-21.1718
G01 X-18.8856 Y-21.1027
G01 X-18.8301 Y-21.0278
G01 X-18.7822 Y-20.9478
G01 X-18.7423 Y-20.8635
G01 X-18.7109 Y-20.7758
G01 X-18.6883 Y-20.6853
G01 X-18.6746 Y-20.5931
G01 X-18.6700 Y-20.5000
G01 X-18.6746 Y-20.4069
G01 X-18.6883 Y-20.3147
G01 X-18.7109 Y-20.2242
G01 X-18.7423 Y-20.1365
G01 X-18.7822 Y-20.0522
G01 X-18.8301 Y-19.9722
G01 X-18.8856 Y-19.8973
G01 X-18.9482 Y-19.8282
G01 X-19.0173 Y-19.7656
G01 X-19.0922 Y-19.7101
G01 X-19.1722 Y-19.6622
G01 X-19.2565 Y-19.6223
G01 X-19.3442 Y-19.5909
G01 X-19.4347 Y-19.5683
G01 X-19.5269 Y-19.5546
G01 X-19.6200 Y-19.5500
G01 X-19.7131 Y-19.5546
G01 X-19.8053 Y-19.5683
G01 X-19.8958 Y-19.5909
G01 X-19.9835 Y-19.6223
G01 X-20.0678 Y-19.6622
G01 X-20.1478 Y-19.7101
G01 X-20.2227 Y-19.7656
G01 X-20.2918 Y-19.8282
G01 X-20.3544 Y-19.8973
G01 X-20.4099 Y-19.9722
G01 X-20.4578 Y-20.0522
G01 X-20.4977 Y-20.1365
G01 X-20.5291 Y-20.2242
G01 X-20.5517 Y-20.3147
G01 X-20.5654 Y-20.4069
G01 X-20.5700 Y-20.5000
G01 X-20.5654 Y-20.5931
G01 X-20.5517 Y-20.6853
G01 X-20.5291 Y-20.7758
G01 X-20.4977 Y-20.8635
G01 X-20.4578 Y-20.9478
G01 X-20.4099 Y-21.0278
G01 X-20.3544 Y-21.1027
G01 X-20.2918 Y-21.1718
G01 X-20.2227 Y-21.2344
G01 X-20.1478 Y-21.2899
G01 X-20.0678 Y-21.3378
G01 X-19.9835 Y-21.3777
G01 X-19.8958 Y-21.4091
G01 X-19.8053 Y-21.4317
G01 X-19.7131 Y-21.4454
G01 X-19.6249 Y-21.4499
G00 Z2.0000
G00 X-21.3969 Y-19.8482
G01 F25.00
G01 Z-0.1866
G01 F120.00
G01 X-21.3043 Y-19.9756
G01 X-21.2328 Y-20.1159
G01 X-21.1841 Y-20.2657
G01 X-21.1595 Y-20.4213
G01 X-21.1595 Y-20.5787
G01 X-21.1841 Y-20.7343
G01 X-21.2328 Y-20.8841
G01 X-21.3043 Y-21.0244
G01 X-21.3969 Y-21.1518
G01 X-21.5082 Y-21.2631
G01 X-21.6356 Y-21.3557
G01 X-21.7759 Y-21.4272
G01 X-21.9257 Y-21.4759
G01 X-22.0813 Y-21.5005
G01 X-22.2387 Y-21.5005
G01 X-22.3943 Y-21.4759
G01 X-22.5441 Y-21.4272
G01 X-22.6844 Y-21.3557
G01 X-22.8118 Y-21.2631
G01 X-22.9231 Y-21.1518
G01 X-23.0157 Y-21.0244
G01 X-23.0872 Y-20.8841
G01 X-23.1359 Y-20.7343
G01 X-23.1605 Y-20.5787
G01 X-23.1605 Y-20.4213
G01 X-23.1359 Y-20.2657
G01 X-23.0872 Y-20.1159
G01 X-23.0157 Y-19.9756
G01 X-22.9231 Y-19.8482
G01 X-22.8118 Y-19.7369
G01 X-22.6844 Y-19.6443
G01 X-22.5441 Y-19.5728
G01 X-22.3943 Y-19.5241
G01 X-22.2387 Y-19.4995
G01 X-22.0813 Y-19.4995
G01 X-21.9257 Y-19.5241
G01 X-21.7759 Y-19.5728
G01 X-21.6356 Y-19.6443
G01 X-21.5082 Y-19.7369
G01 X-21.3969 Y-19.8482
G00 Z2.0000
G00 X-22.1649 Y-21.4499
G01 F25.00
G01 Z-0.1866
G01 F120.00
G01 X-22.1551 Y-21.4499
G01 X-22.0669 Y-21.4454
G01 X-21.9747 Y-21.4317
G01 X-21.8842 Y-21.4091
G01 X-21.7965 Y-21.3777
G01 X-21.7122 Y-21.3378
G01 X-21.6322 Y-21.2899
G01 X-21.5573 Y-21.2344
G01 X-21.4882 Y-21.1718
G01 X-21.4256 Y-21.1027
G01 X-21.3701 Y-21.0278
G01 X-21.3222 Y-20.9478
G01 X-21.2823 Y-20.8635
G01 X-21.2509 Y-20.7758
G01 X-21.2283 Y-20.6853
G01 X-21.2146 Y-20.5931
G01 X-21.2100 Y-20.5000
G01 X-21.2146 Y-20.4069
G01 X-21.2283 Y-20.3147
G01 X-21.2509 Y-20.2242
G01 X-21.2823 Y-20.1365
G01 X-21.3222 Y-20.0522
G01 X-21.3701 Y-19.9722
G01 X-21.4256 Y-19.8973
G01 X-21.4882 Y-19.8282
G01 X-21.5573 Y-19.7656
G01 X-21.6322 Y-19.7101
G01 X-21.7122 Y-19.6622
G01 X-21.7965 Y-19.6223
G01 X-21.8842 Y-19.5909
G01 X-21.9747 Y-19.5683
G01 X-22.0669 Y-19.5546
G01 X-22.1600 Y-19.5500
G01 X-22.2531 Y-19.5546
G01 X-22.3453 Y-19.5683
G01 X-22.4358 Y-19.5909
G01 X-22.5235 Y-19.6223
G01 X-22.6078 Y-19.6622
G01 X-22.6878 Y-19.7101
G01 X-22.7627 Y-19.7656
G01 X-22.8318 Y-19.8282
G01 X-22.8944 Y-19.8973
G01 X-22.9499 Y-19.9722
G01 X-22.9978 Y-20.0522
G01 X-23.0377 Y-20.1365
G01 X-23.0691 Y-20.2242
G01 X-23.0917 Y-20.3147
G01 X-23.1054 Y-20.4069
G01 X-23.1100 Y-20.5000
G01 X-23.1054 Y-20.5931
G01 X-23.0917 Y-20.6853
G01 X-23.0691 Y-20.7758
G01 X-23.0377 Y-20.8635
G01 X-22.9978 Y-20.9478
G01 X-22.9499 Y-21.0278
G01 X-22.8944 Y-21.1027
G01 X-22.8318 Y-21.1718
G01 X-22.7627 Y-21.2344
G01 X-22.6878 Y-21.2899
G01 X-22.6078 Y-21.3378
G01 X-22.5235 Y-21.3777
G01 X-22.4358 Y-21.4091
G01 X-22.3453 Y-21.4317
G01 X-22.2531 Y-21.4454
G01 X-22.1649 Y-21.4499
G00 Z2.0000
G00 X-23.9369 Y-19.8482
G01 F25.00
G01 Z-0.1866
G01 F120.00
G01 X-23.8443 Y-19.9756
G01 X-23.7728 Y-20.1159
G01 X-23.7241 Y-20.2657
G01 X-23.6995 Y-20.4213
G01 X-23.6995 Y-20.5787
G01 X-23.7241 Y-20.7343
G01 X-23.7728 Y-20.8841
G01 X-23.8443 Y-21.0244
G01 X-23.9369 Y-21.1518
G01 X-24.0482 Y-21.2631
G01 X-24.1756 Y-21.3557
G01 X-24.3159 Y-21.4272
G01 X-24.4657 Y-21.4759
G01 X-24.6213 Y-21.5005
G01 X-24.7787 Y-21.5005
G01 X-24.9343 Y-21.4759
G01 X-25.0841 Y-21.4272
G01 X-25.2244 Y-21.3557
G01 X-25.3518 Y-21.2631
G01 X-25.4631 Y-21.1518
G01 X-25.5557 Y-21.0244
G01 X-25.6272 Y-20.8841
G01 X-25.6759 Y-20.7343
G01 X-25.7005 Y-20.5787
G01 X-25.7005 Y-20.4213
G01 X-25.6759 Y-20.2657
G01 X-25.6272 Y-20.1159
G01 X-25.5557 Y-19.9756
G01 X-25.4631 Y-19.8482
G01 X-25.3518 Y-19.7369
G01 X-25.2244 Y-19.6443
G01 X-25.0841 Y-19.5728
G01 X-24.9343 Y-19.5241
G01 X-24.7787 Y-19.4995
G01 X-24.6213 Y-19.4995
G01 X-24.4657 Y-19.5241
G01 X-24.3159 Y-19.5728
G01 X-24.1756 Y-19.6443
G01 X-24.0482 Y-19.7369
G01 X-23.9369 Y-19.8482
G00 Z2.0000
G00 X-24.7049 Y-21.4499
G01 F25.00
G01 Z-0.1866
G01 F120.00
G01 X-24.6951 Y-21.4499
G01 X-24.6069 Y-21.4454
G01 X-24.5147 Y-21.4317
G01 X-24.4242 Y-21.4091
G01 X-24.3365 Y-21.3777
G01 X-24.2522 Y-21.3378
G01 X-24.1722 Y-21.2899
G01 X-24.0973 Y-21.2344
G01 X-24.0282 Y-21.1718
G01 X-23.9656 Y-21.1027
G01 X-23.9101 Y-21.0278
G01 X-23.8622 Y-20.9478
G01 X-23.8223 Y-20.8635
G01 X-23.7909 Y-20.7758
G01 X-23.7683 Y-20.6853
G01 X-23.7546 Y-20.5931
G01 X-23.7500 Y-20.5000
G01 X-23.7546 Y-20.4069
G01 X-23.7683 Y-20.3147
G01 X-23.7909 Y-20.2242
G01 X-23.8223 Y-20.1365
G01 X-23.8622 Y-20.0522
G01 X-23.9101 Y-19.9722
G01 X-23.9656 Y-19.8973
G01 X-24.0282 Y-19.8282
G01 X-24.0973 Y-19.7656
G01 X-24.1722 Y-19.7101
G01 X-24.2522 Y-19.6622
G01 X-24.3365 Y-19.6223
G01 X-24.4242 Y-19.5909
G01 X-24.5147 Y-19.5683
G01 X-24.6069 Y-19.5546
G01 X-24.7000 Y-19.5500
G01 X-24.7931 Y-19.5546
G01 X-24.8853 Y-19.5683
G01 X-24.9758 Y-19.5909
G01 X-25.0635 Y-19.6223
G01 X-25.1478 Y-19.6622
G01 X-25.2278 Y-19.7101
G01 X-25.3027 Y-19.7656
G01 X-25.3718 Y-19.8282
G01 X-25.4344 Y-19.8973
G01 X-25.4899 Y-19.9722
G01 X-25.5378 Y-20.0522
G01 X-25.5777 Y-20.1365
G01 X-25.6091 Y-20.2242
G01 X-25.6317 Y-20.3147
G01 X-25.6454 Y-20.4069
G01 X-25.6500 Y-20.5000
G01 X-25.6454 Y-20.5931
G01 X-25.6317 Y-20.6853
G01 X-25.6091 Y-20.7758
G01 X-25.5777 Y-20.8635
G01 X-25.5378 Y-20.9478
G01 X-25.4899 Y-21.0278
G01 X-25.4344 Y-21.1027
G01 X-25.3718 Y-21.1718
G01 X-25.3027 Y-21.2344
G01 X-25.2278 Y-21.2899
G01 X-25.1478 Y-21.3378
G01 X-25.0635 Y-21.3777
G01 X-24.9758 Y-21.4091
G01 X-24.8853 Y-21.4317
G01 X-24.7931 Y-21.4454
G01 X-24.7049 Y-21.4499
G00 Z2.0000
G00 X-26.4769 Y-19.8482
G01 F25.00
G01 Z-0.1866
G01 F120.00
G01 X-26.3843 Y-19.9756
G01 X-26.3128 Y-20.1159
G01 X-26.2641 Y-20.2657
G01 X-26.2395 Y-20.4213
G01 X-26.2395 Y-20.5787
G01 X-26.2641 Y-20.7343
G01 X-26.3128 Y-20.8841
G01 X-26.3843 Y-21.0244
G01 X-26.4769 Y-21.1518
G01 X-26.5882 Y-21.2631
G01 X-26.7156 Y-21.3557
G01 X-26.8559 Y-21.4272
G01 X-27.0057 Y-21.4759
G01 X-27.1613 Y-21.5005
G01 X-27.3187 Y-21.5005
G01 X-27.4743 Y-21.4759
G01 X-27.6241 Y-21.4272
G01 X-27.7644 Y-21.3557
G01 X-27.8918 Y-21.2631
G01 X-28.0031 Y-21.1518
G01 X-28.0957 Y-21.0244
G01 X-28.1672 Y-20.8841
G01 X-28.2159 Y-20.7343
G01 X-28.2405 Y-20.5787
G01 X-28.2405 Y-20.4213
G01 X-28.2159 Y-20.2657
G01 X-28.1672 Y-20.1159
G01 X-28.0957 Y-19.9756
G01 X-28.0031 Y-19.8482
G01 X-27.8918 Y-19.7369
G01 X-27.7644 Y-19.6443
G01 X-27.6241 Y-19.5728
G01 X-27.4743 Y-19.5241
G01 X-27.3187 Y-19.4995
G01 X-27.1613 Y-19.4995
G01 X-27.0057 Y-19.5241
G01 X-26.8559 Y-19.5728
G01 X-26.7156 Y-19.6443
G01 X-26.5882 Y-19.7369
G01 X-26.4769 Y-19.8482
G00 Z2.0000
G00 X-27.2449 Y-21.4499
G01 F25.00
G01 Z-0.1866
G01 F120.00
G01 X-27.2351 Y-21.4499
G01 X-27.1469 Y-21.4454
G01 X-27.0547 Y-21.4317
G01 X-26.9642 Y-21.4091
G01 X-26.8765 Y-21.3777
G01 X-26.7922 Y-21.3378
G01 X-26.7122 Y-21.2899
G01 X-26.6373 Y-21.2344
G01 X-26.5682 Y-21.1718
G01 X-26.5056 Y-21.1027
G01 X-26.4501 Y-21.0278
G01 X-26.4022 Y-20.9478
G01 X-26.3623 Y-20.8635
G01 X-26.3309 Y-20.7758
G01 X-26.3083 Y-20.6853
G01 X-26.2946 Y-20.5931
G01 X-26.2900 Y-20.5000
G01 X-26.2946 Y-20.4069
G01 X-26.3083 Y-20.3147
G01 X-26.3309 Y-20.2242
G01 X-26.3623 Y-20.1365
G01 X-26.4022 Y-20.0522
G01 X-26.4501 Y-19.9722
G01 X-26.5056 Y-19.8973
G01 X-26.5682 Y-19.8282
G01 X-26.6373 Y-19.7656
G01 X-26.7122 Y-19.7101
G01 X-26.7922 Y-19.6622
G01 X-26.8765 Y-19.6223
G01 X-26.9642 Y-19.5909
G01 X-27.0547 Y-19.5683
G01 X-27.1469 Y-19.5546
G01 X-27.2400 Y-19.5500
G01 X-27.3331 Y-19.5546
G01 X-27.4253 Y-19.5683
G01 X-27.5158 Y-19.5909
G01 X-27.6035 Y-19.6223
G01 X-27.6878 Y-19.6622
G01 X-27.7678 Y-19.7101
G01 X-27.8427 Y-19.7656
G01 X-27.9118 Y-19.8282
G01 X-27.9744 Y-19.8973
G01 X-28.0299 Y-19.9722
G01 X-28.0778 Y-20.0522
G01 X-28.1177 Y-20.1365
G01 X-28.1491 Y-20.2242
G01 X-28.1717 Y-20.3147
G01 X-28.1854 Y-20.4069
G01 X-28.1900 Y-20.5000
G01 X-28.1854 Y-20.5931
G01 X-28.1717 Y-20.6853
G01 X-28.1491 Y-20.7758
G01 X-28.1177 Y-20.8635
G01 X-28.0778 Y-20.9478
G01 X-28.0299 Y-21.0278
G01 X-27.9744 Y-21.1027
G01 X-27.9118 Y-21.1718
G01 X-27.8427 Y-21.2344
G01 X-27.7678 Y-21.2899
G01 X-27.6878 Y-21.3378
G01 X-27.6035 Y-21.3777
G01 X-27.5158 Y-21.4091
G01 X-27.4253 Y-21.4317
G01 X-27.3331 Y-21.4454
G01 X-27.2449 Y-21.4499
G00 Z2.0000
G00 X-29.0169 Y-19.8482
G01 F25.00
G01 Z-0.1866
G01 F120.00
G01 X-28.9243 Y-19.9756
G01 X-28.8528 Y-20.1159
G01 X-28.8041 Y-20.2657
G01 X-28.7795 Y-20.4213
G01 X-28.7795 Y-20.5787
G01 X-28.8041 Y-20.7343
G01 X-28.8528 Y-20.8841
G01 X-28.9243 Y-21.0244
G01 X-29.0169 Y-21.1518
G01 X-29.1282 Y-21.2631
G01 X-29.2556 Y-21.3557
G01 X-29.3959 Y-21.4272
G01 X-29.5457 Y-21.4759
G01 X-29.7013 Y-21.5005
G01 X-29.8587 Y-21.5005
G01 X-30.0143 Y-21.4759
G01 X-30.1641 Y-21.4272
G01 X-30.3044 Y-21.3557
G01 X-30.4318 Y-21.2631
G01 X-30.5431 Y-21.1518
G01 X-30.6357 Y-21.0244
G01 X-30.7072 Y-20.8841
G01 X-30.7559 Y-20.7343
G01 X-30.7805 Y-20.5787
G01 X-30.7805 Y-20.4213
G01 X-30.7559 Y-20.2657
G01 X-30.7072 Y-20.1159
G01 X-30.6357 Y-19.9756
G01 X-30.5431 Y-19.8482
G01 X-30.4318 Y-19.7369
G01 X-30.3044 Y-19.6443
G01 X-30.1641 Y-19.5728
G01 X-30.0143 Y-19.5241
G01 X-29.8587 Y-19.4995
G01 X-29.7013 Y-19.4995
G01 X-29.5457 Y-19.5241
G01 X-29.3959 Y-19.5728
G01 X-29.2556 Y-19.6443
G01 X-29.1282 Y-19.7369
G01 X-29.0169 Y-19.8482
G00 Z2.0000
G00 X-29.7849 Y-21.4499
G01 F25.00
G01 Z-0.1866
G01 F120.00
G01 X-29.7751 Y-21.4499
G01 X-29.6869 Y-21.4454
G01 X-29.5947 Y-21.4317
G01 X-29.5042 Y-21.4091
G01 X-29.4165 Y-21.3777
G01 X-29.3322 Y-21.3378
G01 X-29.2522 Y-21.2899
G01 X-29.1773 Y-21.2344
G01 X-29.1082 Y-21.1718
G01 X-29.0456 Y-21.1027
G01 X-28.9901 Y-21.0278
G01 X-28.9422 Y-20.9478
G01 X-28.9023 Y-20.8635
G01 X-28.8709 Y-20.7758
G01 X-28.8483 Y-20.6853
G01 X-28.8346 Y-20.5931
G01 X-28.8300 Y-20.5000
G01 X-28.8346 Y-20.4069
G01 X-28.8483 Y-20.3147
G01 X-28.8709 Y-20.2242
G01 X-28.9023 Y-20.1365
G01 X-28.9422 Y-20.0522
G01 X-28.9901 Y-19.9722
G01 X-29.0456 Y-19.8973
G01 X-29.1082 Y-19.8282
G01 X-29.1773 Y-19.7656
G01 X-29.2522 Y-19.7101
G01 X-29.3322 Y-19.6622
G01 X-29.4165 Y-19.6223
G01 X-29.5042 Y-19.5909
G01 X-29.5947 Y-19.5683
G01 X-29.6869 Y-19.5546
G01 X-29.7800 Y-19.5500
G01 X-29.8731 Y-19.5546
G01 X-29.9653 Y-19.5683
G01 X-30.0558 Y-19.5909
G01 X-30.1435 Y-19.6223
G01 X-30.2278 Y-19.6622
G01 X-30.3078 Y-19.7101
G01 X-30.3827 Y-19.7656
G01 X-30.4518 Y-19.8282
G01 X-30.5144 Y-19.8973
G01 X-30.5699 Y-19.9722
G01 X-30.6178 Y-20.0522
G01 X-30.6577 Y-20.1365
G01 X-30.6891 Y-20.2242
G01 X-30.7117 Y-20.3147
G01 X-30.7254 Y-20.4069
G01 X-30.7300 Y-20.5000
G01 X-30.7254 Y-20.5931
G01 X-30.7117 Y-20.6853
G01 X-30.6891 Y-20.7758
G01 X-30.6577 Y-20.8635
G01 X-30.6178 Y-20.9478
G01 X-30.5699 Y-21.0278
G01 X-30.5144 Y-21.1027
G01 X-30.4518 Y-21.1718
G01 X-30.3827 Y-21.2344
G01 X-30.3078 Y-21.2899
G01 X-30.2278 Y-21.3378
G01 X-30.1435 Y-21.3777
G01 X-30.0558 Y-21.4091
G01 X-29.9653 Y-21.4317
G01 X-29.8731 Y-21.4454
G01 X-29.7849 Y-21.4499
G00 Z2.0000
G00 X-28.5794 Y-6.2101
G01 F25.00
G01 Z-0.1866
G01 F120.00
G01 X-28.8704 Y-6.5012
G01 X-28.8731 Y-6.4649
G01 X-28.8751 Y-6.4496
G01 X-28.8791 Y-6.4322
G01 X-28.8826 Y-6.4213
G01 X-28.8858 Y-6.4129
G01 X-28.8934 Y-6.3968
G01 X-28.9025 Y-6.3814
G01 X-28.9407 Y-6.3300
G01 X-28.9202 Y-6.3297
G01 X-28.9026 Y-6.3279
G01 X-28.8853 Y-6.3244
G01 X-28.8745 Y-6.3212
G01 X-28.8661 Y-6.3183
G01 X-28.8562 Y-6.3142
G01 X-28.8482 Y-6.3103
G01 X-28.8404 Y-6.3061
G01 X-28.8308 Y-6.3002
G01 X-28.8236 Y-6.2952
G01 X-28.8151 Y-6.2885
G01 X-28.8020 Y-6.2766
G01 X-28.7960 Y-6.2701
G01 X-28.7887 Y-6.2615
G01 X-28.7785 Y-6.2471
G01 X-28.7697 Y-6.2318
G01 X-28.7650 Y-6.2220
G01 X-28.7617 Y-6.2139
G01 X-28.7563 Y-6.1971
G01 X-28.7542 Y-6.1885
G01 X-28.7521 Y-6.1774
G01 X-28.7503 Y-6.1598
G01 X-28.7500 Y-6.1385
G01 X-28.7222 Y-6.1626
G01 X-28.7100 Y-6.1719
G01 X-28.6949 Y-6.1814
G01 X-28.6869 Y-6.1856
G01 X-28.6766 Y-6.1903
G01 X-28.6597 Y-6.1964
G01 X-28.6424 Y-6.2008
G01 X-28.5794 Y-6.2101
G00 Z2.0000
G00 X-28.0502 Y-5.7941
G01 F25.00
G01 Z-0.1866
G01 F120.00
G01 X-29.9059 Y-7.6498
G01 X-36.1721 Y-7.6498
G01 X-37.3498 Y-6.4721
G01 X-37.3498 Y4.2921
G01 X-35.4719 Y6.1700
G01 X-34.4500 Y6.1700
G01 X-34.4426 Y6.1703
G01 X-34.4329 Y6.1715
G01 X-34.4257 Y6.1730
G01 X-34.4186 Y6.1750
G01 X-34.4095 Y6.1786
G01 X-34.4029 Y6.1818
G01 X-34.3944 Y6.1869
G01 X-34.3866 Y6.1927
G01 X-34.3793 Y6.1993
G01 X-34.3727 Y6.2066
G01 X-34.3682 Y6.2124
G01 X-34.3642 Y6.2186
G01 X-34.3596 Y6.2272
G01 X-34.3558 Y6.2363
G01 X-34.3530 Y6.2457
G01 X-34.3511 Y6.2553
G01 X-34.3503 Y6.2626
G01 X-34.3500 Y6.2700
G01 X-34.3500 Y7.9725
G01 X-34.3508 Y7.9822
G01 X-34.3524 Y7.9919
G01 X-34.3550 Y8.0014
G01 X-34.3586 Y8.0105
G01 X-34.3630 Y8.0193
G01 X-34.3682 Y8.0276
G01 X-34.3743 Y8.0353
G01 X-34.3810 Y8.0424
G01 X-34.3885 Y8.0488
G01 X-34.3965 Y8.0545
G01 X-34.4050 Y8.0593
G01 X-34.4117 Y8.0624
G01 X-34.4210 Y8.0657
G01 X-34.4305 Y8.0681
G01 X-34.4402 Y8.0695
G01 X-34.4500 Y8.0700
G01 X-36.1500 Y8.0700
G01 X-36.1622 Y8.0692
G01 X-36.1695 Y8.0681
G01 X-36.1767 Y8.0664
G01 X-36.1883 Y8.0624
G01 X-36.1950 Y8.0593
G01 X-36.2014 Y8.0558
G01 X-36.2115 Y8.0488
G01 X-36.2207 Y8.0407
G01 X-36.2288 Y8.0315
G01 X-36.2358 Y8.0214
G01 X-36.2414 Y8.0105
G01 X-36.2457 Y7.9990
G01 X-36.2485 Y7.9871
G01 X-36.2499 Y7.9749
G01 X-36.2500 Y6.9481
G01 X-38.2925 Y4.9055
G01 X-38.3253 Y4.8691
G01 X-38.3547 Y4.8297
G01 X-38.3601 Y4.8215
G01 X-38.3828 Y4.7836
G01 X-38.3875 Y4.7750
G01 X-38.4083 Y4.7306
G01 X-38.4265 Y4.6797
G01 X-38.4397 Y4.6273
G01 X-38.4470 Y4.5788
G01 X-38.4479 Y4.5690
G01 X-38.4502 Y4.5200
G01 X-38.4502 Y-6.7000
G01 X-38.4479 Y-6.7490
G01 X-38.4470 Y-6.7588
G01 X-38.4397 Y-6.8073
G01 X-38.4278 Y-6.8550
G01 X-38.4250 Y-6.8644
G01 X-38.4083 Y-6.9106
G01 X-38.3875 Y-6.9550
G01 X-38.3828 Y-6.9636
G01 X-38.3575 Y-7.0057
G01 X-38.3283 Y-7.0452
G01 X-38.3221 Y-7.0528
G01 X-38.2891 Y-7.0891
G01 X-36.7873 Y-8.5908
G01 X-36.7491 Y-8.6253
G01 X-36.7097 Y-8.6547
G01 X-36.7015 Y-8.6601
G01 X-36.6594 Y-8.6853
G01 X-36.6106 Y-8.7083
G01 X-36.5644 Y-8.7250
G01 X-36.5550 Y-8.7278
G01 X-36.5073 Y-8.7397
G01 X-36.4539 Y-8.7476
G01 X-36.4000 Y-8.7502
G01 X-29.6780 Y-8.7502
G01 X-29.6290 Y-8.7479
G01 X-29.6216 Y-8.7473
G01 X-29.5707 Y-8.7397
G01 X-29.5230 Y-8.7278
G01 X-29.5136 Y-8.7250
G01 X-29.4720 Y-8.7101
G01 X-29.4630 Y-8.7064
G01 X-29.4186 Y-8.6853
G01 X-29.3723 Y-8.6575
G01 X-29.3289 Y-8.6253
G01 X-29.2925 Y-8.5925
G01 X-26.8783 Y-6.1784
G01 X-26.7966 Y-6.1400
G01 X-26.7879 Y-6.1354
G01 X-26.7122 Y-6.0899
G01 X-26.6412 Y-6.0374
G01 X-26.6336 Y-6.0312
G01 X-26.5682 Y-5.9718
G01 X-26.5088 Y-5.9064
G01 X-26.5041 Y-5.9008
G01 X-26.4501 Y-5.8278
G01 X-26.4046 Y-5.7521
G01 X-26.4000 Y-5.7434
G01 X-26.3623 Y-5.6635
G01 X-26.3309 Y-5.5758
G01 X-26.3093 Y-5.4901
G01 X-26.3074 Y-5.4805
G01 X-26.2952 Y-5.3980
G01 X-26.2942 Y-5.3882
G01 X-26.2900 Y-5.3000
G01 X-26.2946 Y-5.2069
G01 X-26.3083 Y-5.1147
G01 X-26.3296 Y-5.0290
G01 X-26.3324 Y-5.0196
G01 X-26.3605 Y-4.9410
G01 X-26.3643 Y-4.9320
G01 X-26.4022 Y-4.8522
G01 X-26.4488 Y-4.7743
G01 X-26.4529 Y-4.7682
G01 X-26.5056 Y-4.6973
G01 X-26.5682 Y-4.6282
G01 X-26.6373 Y-4.5656
G01 X-26.7122 Y-4.5101
G01 X-26.7922 Y-4.4622
G01 X-26.8765 Y-4.4223
G01 X-26.9642 Y-4.3909
G01 X-27.0547 Y-4.3683
G01 X-27.1469 Y-4.3546
G01 X-27.2400 Y-4.3500
G01 X-27.3331 Y-4.3546
G01 X-27.4253 Y-4.3683
G01 X-27.5158 Y-4.3909
G01 X-27.6035 Y-4.4223
G01 X-27.6878 Y-4.4622
G01 X-27.7657 Y-4.5088
G01 X-27.7718 Y-4.5129
G01 X-27.8427 Y-4.5656
G01 X-27.9118 Y-4.6282
G01 X-27.9744 Y-4.6973
G01 X-28.0299 Y-4.7722
G01 X-28.0778 Y-4.8522
G01 X-28.1177 Y-4.9365
G01 X-28.1491 Y-5.0242
G01 X-28.1712 Y-5.1123
G01 X-28.1726 Y-5.1195
G01 X-28.1854 Y-5.2069
G01 X-28.1900 Y-5.3000
G01 X-28.1854 Y-5.3931
G01 X-28.1722 Y-5.4829
G01 X-28.1707 Y-5.4901
G01 X-28.1491 Y-5.5758
G01 X-28.1186 Y-5.6613
G01 X-28.1157 Y-5.6680
G01 X-28.0790 Y-5.7456
G01 X-28.0502 Y-5.7941
G00 Z2.0000
G00 X-24.7049 Y-6.2499
G01 F25.00
G01 Z-0.1866
G01 F120.00
G01 X-24.6951 Y-6.2499
G01 X-24.6069 Y-6.2454
G01 X-24.5147 Y-6.2317
G01 X-24.4242 Y-6.2091
G01 X-24.3365 Y-6.1777
G01 X-24.2522 Y-6.1378
G01 X-24.1722 Y-6.0899
G01 X-24.0973 Y-6.0344
G01 X-24.0282 Y-5.9718
G01 X-23.9656 Y-5.9027
G01 X-23.9101 Y-5.8278
G01 X-23.8622 Y-5.7478
G01 X-23.8223 Y-5.6635
G01 X-23.7909 Y-5.5758
G01 X-23.7683 Y-5.4853
G01 X-23.7546 Y-5.3931
G01 X-23.7500 Y-5.3000
G01 X-23.7546 Y-5.2069
G01 X-23.7683 Y-5.1147
G01 X-23.7909 Y-5.0242
G01 X-23.8223 Y-4.9365
G01 X-23.8622 Y-4.8522
G01 X-23.9101 Y-4.7722
G01 X-23.9656 Y-4.6973
G01 X-24.0282 Y-4.6282
G01 X-24.0973 Y-4.5656
G01 X-24.1722 Y-4.5101
G01 X-24.2522 Y-4.4622
G01 X-24.3365 Y-4.4223
G01 X-24.4242 Y-4.3909
G01 X-24.5147 Y-4.3683
G01 X-24.6069 Y-4.3546
G01 X-24.7000 Y-4.3500
G01 X-24.7931 Y-4.3546
G01 X-24.8853 Y-4.3683
G01 X-24.9758 Y-4.3909
G01 X-25.0635 Y-4.4223
G01 X-25.1478 Y-4.4622
G01 X-25.2278 Y-4.5101
G01 X-25.3027 Y-4.5656
G01 X-25.3718 Y-4.6282
G01 X-25.4344 Y-4.6973
G01 X-25.4899 Y-4.7722
G01 X-25.5378 Y-4.8522
G01 X-25.5777 Y-4.9365
G01 X-25.6091 Y-5.0242
G01 X-25.6317 Y-5.1147
G01 X-25.6454 Y-5.2069
G01 X-25.6500 Y-5.3000
G01 X-25.6454 Y-5.3931
G01 X-25.6317 Y-5.4853
G01 X-25.6091 Y-5.5758
G01 X-25.5777 Y-5.6635
G01 X-25.5378 Y-5.7478
G01 X-25.4899 Y-5.8278
G01 X-25.4344 Y-5.9027
G01 X-25.3718 Y-5.9718
G01 X-25.3027 Y-6.0344
G01 X-25.2278 Y-6.0899
G01 X-25.1478 Y-6.1378
G01 X-25.0635 Y-6.1777
G01 X-24.9758 Y-6.2091
G01 X-24.8853 Y-6.2317
G01 X-24.7931 Y-6.2454
G01 X-24.7049 Y-6.2499
G00 Z2.0000
G00 X-23.9369 Y-4.6482
G01 F25.00
G01 Z-0.1866
G01 F120.00
G01 X-23.8443 Y-4.7756
G01 X-23.7728 Y-4.9159
G01 X-23.7241 Y-5.0657
G01 X-23.6995 Y-5.2213
G01 X-23.6995 Y-5.3787
G01 X-23.7241 Y-5.5343
G01 X-23.7728 Y-5.6841
G01 X-23.8443 Y-5.8244
G01 X-23.9369 Y-5.9518
G01 X-24.0482 Y-6.0631
G01 X-24.1756 Y-6.1557
G01 X-24.3159 Y-6.2272
G01 X-24.4657 Y-6.2759
G01 X-24.6213 Y-6.3005
G01 X-24.7787 Y-6.3005
G01 X-24.9343 Y-6.2759
G01 X-25.0841 Y-6.2272
G01 X-25.2244 Y-6.1557
G01 X-25.3518 Y-6.0631
G01 X-25.4631 Y-5.9518
G01 X-25.5557 Y-5.8244
G01 X-25.6272 Y-5.6841
G01 X-25.6759 Y-5.5343
G01 X-25.7005 Y-5.3787
G01 X-25.7005 Y-5.2213
G01 X-25.6759 Y-5.0657
G01 X-25.6272 Y-4.9159
G01 X-25.5557 Y-4.7756
G01 X-25.4631 Y-4.6482
G01 X-25.3518 Y-4.5369
G01 X-25.2244 Y-4.4443
G01 X-25.0841 Y-4.3728
G01 X-24.9343 Y-4.3241
G01 X-24.7787 Y-4.2995
G01 X-24.6213 Y-4.2995
G01 X-24.4657 Y-4.3241
G01 X-24.3159 Y-4.3728
G01 X-24.1756 Y-4.4443
G01 X-24.0482 Y-4.5369
G01 X-23.9369 Y-4.6482
G00 Z2.0000
G00 X-22.1649 Y-6.2499
G01 F25.00
G01 Z-0.1866
G01 F120.00
G01 X-22.1551 Y-6.2499
G01 X-22.0669 Y-6.2454
G01 X-21.9747 Y-6.2317
G01 X-21.8842 Y-6.2091
G01 X-21.7965 Y-6.1777
G01 X-21.7122 Y-6.1378
G01 X-21.6322 Y-6.0899
G01 X-21.5573 Y-6.0344
G01 X-21.4882 Y-5.9718
G01 X-21.4256 Y-5.9027
G01 X-21.3701 Y-5.8278
G01 X-21.3222 Y-5.7478
G01 X-21.2823 Y-5.6635
G01 X-21.2509 Y-5.5758
G01 X-21.2283 Y-5.4853
G01 X-21.2146 Y-5.3931
G01 X-21.2100 Y-5.3000
G01 X-21.2146 Y-5.2069
G01 X-21.2283 Y-5.1147
G01 X-21.2509 Y-5.0242
G01 X-21.2823 Y-4.9365
G01 X-21.3222 Y-4.8522
G01 X-21.3701 Y-4.7722
G01 X-21.4256 Y-4.6973
G01 X-21.4882 Y-4.6282
G01 X-21.5573 Y-4.5656
G01 X-21.6322 Y-4.5101
G01 X-21.7122 Y-4.4622
G01 X-21.7965 Y-4.4223
G01 X-21.8842 Y-4.3909
G01 X-21.9747 Y-4.3683
G01 X-22.0669 Y-4.3546
G01 X-22.1600 Y-4.3500
G01 X-22.2531 Y-4.3546
G01 X-22.3453 Y-4.3683
G01 X-22.4358 Y-4.3909
G01 X-22.5235 Y-4.4223
G01 X-22.6078 Y-4.4622
G01 X-22.6878 Y-4.5101
G01 X-22.7627 Y-4.5656
G01 X-22.8318 Y-4.6282
G01 X-22.8944 Y-4.6973
G01 X-22.9499 Y-4.7722
G01 X-22.9978 Y-4.8522
G01 X-23.0377 Y-4.9365
G01 X-23.0691 Y-5.0242
G01 X-23.0917 Y-5.1147
G01 X-23.1054 Y-5.2069
G01 X-23.1100 Y-5.3000
G01 X-23.1054 Y-5.3931
G01 X-23.0917 Y-5.4853
G01 X-23.0691 Y-5.5758
G01 X-23.0377 Y-5.6635
G01 X-22.9978 Y-5.7478
G01 X-22.9499 Y-5.8278
G01 X-22.8944 Y-5.9027
G01 X-22.8318 Y-5.9718
G01 X-22.7627 Y-6.0344
G01 X-22.6878 Y-6.0899
G01 X-22.6078 Y-6.1378
G01 X-22.5235 Y-6.1777
G01 X-22.4358 Y-6.2091
G01 X-22.3453 Y-6.2317
G01 X-22.2531 Y-6.2454
G01 X-22.1649 Y-6.2499
G00 Z2.0000
G00 X-21.3969 Y-4.6482
G01 F25.00
G01 Z-0.1866
G01 F120.00
G01 X-21.3043 Y-4.7756
G01 X-21.2328 Y-4.9159
G01 X-21.1841 Y-5.0657
G01 X-21.1595 Y-5.2213
G01 X-21.1595 Y-5.3787
G01 X-21.1841 Y-5.5343
G01 X-21.2328 Y-5.6841
G01 X-21.3043 Y-5.8244
G01 X-21.3969 Y-5.9518
G01 X-21.5082 Y-6.0631
G01 X-21.6356 Y-6.1557
G01 X-21.7759 Y-6.2272
G01 X-21.9257 Y-6.2759
G01 X-22.0813 Y-6.3005
G01 X-22.2387 Y-6.3005
G01 X-22.3943 Y-6.2759
G01 X-22.5441 Y-6.2272
G01 X-22.6844 Y-6.1557
G01 X-22.8118 Y-6.0631
G01 X-22.9231 Y-5.9518
G01 X-23.0157 Y-5.8244
G01 X-23.0872 Y-5.6841
G01 X-23.1359 Y-5.5343
G01 X-23.1605 Y-5.3787
G01 X-23.1605 Y-5.2213
G01 X-23.1359 Y-5.0657
G01 X-23.0872 Y-4.9159
G01 X-23.0157 Y-4.7756
G01 X-22.9231 Y-4.6482
G01 X-22.8118 Y-4.5369
G01 X-22.6844 Y-4.4443
G01 X-22.5441 Y-4.3728
G01 X-22.3943 Y-4.3241
G01 X-22.2387 Y-4.2995
G01 X-22.0813 Y-4.2995
G01 X-21.9257 Y-4.3241
G01 X-21.7759 Y-4.3728
G01 X-21.6356 Y-4.4443
G01 X-21.5082 Y-4.5369
G01 X-21.3969 Y-4.6482
G00 Z2.0000
G00 X-19.6249 Y-6.2499
G01 F25.00
G01 Z-0.1866
G01 F120.00
G01 X-19.6151 Y-6.2499
G01 X-19.5269 Y-6.2454
G01 X-19.4347 Y-6.2317
G01 X-19.3442 Y-6.2091
G01 X-19.2565 Y-6.1777
G01 X-19.1722 Y-6.1378
G01 X-19.0922 Y-6.0899
G01 X-19.0173 Y-6.0344
G01 X-18.9482 Y-5.9718
G01 X-18.8856 Y-5.9027
G01 X-18.8301 Y-5.8278
G01 X-18.7822 Y-5.7478
G01 X-18.7423 Y-5.6635
G01 X-18.7109 Y-5.5758
G01 X-18.6883 Y-5.4853
G01 X-18.6746 Y-5.3931
G01 X-18.6700 Y-5.3000
G01 X-18.6746 Y-5.2069
G01 X-18.6883 Y-5.1147
G01 X-18.7109 Y-5.0242
G01 X-18.7423 Y-4.9365
G01 X-18.7822 Y-4.8522
G01 X-18.8301 Y-4.7722
G01 X-18.8856 Y-4.6973
G01 X-18.9482 Y-4.6282
G01 X-19.0173 Y-4.5656
G01 X-19.0922 Y-4.5101
G01 X-19.1722 Y-4.4622
G01 X-19.2565 Y-4.4223
G01 X-19.3442 Y-4.3909
G01 X-19.4347 Y-4.3683
G01 X-19.5269 Y-4.3546
G01 X-19.6200 Y-4.3500
G01 X-19.7131 Y-4.3546
G01 X-19.8053 Y-4.3683
G01 X-19.8958 Y-4.3909
G01 X-19.9835 Y-4.4223
G01 X-20.0678 Y-4.4622
G01 X-20.1478 Y-4.5101
G01 X-20.2227 Y-4.5656
G01 X-20.2918 Y-4.6282
G01 X-20.3544 Y-4.6973
G01 X-20.4099 Y-4.7722
G01 X-20.4578 Y-4.8522
G01 X-20.4977 Y-4.9365
G01 X-20.5291 Y-5.0242
G01 X-20.5517 Y-5.1147
G01 X-20.5654 Y-5.2069
G01 X-20.5700 Y-5.3000
G01 X-20.5654 Y-5.3931
G01 X-20.5517 Y-5.4853
G01 X-20.5291 Y-5.5758
G01 X-20.4977 Y-5.6635
G01 X-20.4578 Y-5.7478
G01 X-20.4099 Y-5.8278
G01 X-20.3544 Y-5.9027
G01 X-20.2918 Y-5.9718
G01 X-20.2227 Y-6.0344
G01 X-20.1478 Y-6.0899
G01 X-20.0678 Y-6.1378
G01 X-19.9835 Y-6.1777
G01 X-19.8958 Y-6.2091
G01 X-19.8053 Y-6.2317
G01 X-19.7131 Y-6.2454
G01 X-19.6249 Y-6.2499
G00 Z2.0000
G00 X-18.8569 Y-4.6482
G01 F25.00
G01 Z-0.1866
G01 F120.00
G01 X-18.7643 Y-4.7756
G01 X-18.6928 Y-4.9159
G01 X-18.6441 Y-5.0657
G01 X-18.6195 Y-5.2213
G01 X-18.6195 Y-5.3787
G01 X-18.6441 Y-5.5343
G01 X-18.6928 Y-5.6841
G01 X-18.7643 Y-5.8244
G01 X-18.8569 Y-5.9518
G01 X-18.9682 Y-6.0631
G01 X-19.0956 Y-6.1557
G01 X-19.2359 Y-6.2272
G01 X-19.3857 Y-6.2759
G01 X-19.5413 Y-6.3005
G01 X-19.6987 Y-6.3005
G01 X-19.8543 Y-6.2759
G01 X-20.0041 Y-6.2272
G01 X-20.1444 Y-6.1557
G01 X-20.2718 Y-6.0631
G01 X-20.3831 Y-5.9518
G01 X-20.4757 Y-5.8244
G01 X-20.5472 Y-5.6841
G01 X-20.5959 Y-5.5343
G01 X-20.6205 Y-5.3787
G01 X-20.6205 Y-5.2213
G01 X-20.5959 Y-5.0657
G01 X-20.5472 Y-4.9159
G01 X-20.4757 Y-4.7756
G01 X-20.3831 Y-4.6482
G01 X-20.2718 Y-4.5369
G01 X-20.1444 Y-4.4443
G01 X-20.0041 Y-4.3728
G01 X-19.8543 Y-4.3241
G01 X-19.6987 Y-4.2995
G01 X-19.5413 Y-4.2995
G01 X-19.3857 Y-4.3241
G01 X-19.2359 Y-4.3728
G01 X-19.0956 Y-4.4443
G01 X-18.9682 Y-4.5369
G01 X-18.8569 Y-4.6482
G00 Z2.0000
G00 X-17.0849 Y-6.2499
G01 F25.00
G01 Z-0.1866
G01 F120.00
G01 X-17.0751 Y-6.2499
G01 X-16.9869 Y-6.2454
G01 X-16.8947 Y-6.2317
G01 X-16.8042 Y-6.2091
G01 X-16.7165 Y-6.1777
G01 X-16.6322 Y-6.1378
G01 X-16.5522 Y-6.0899
G01 X-16.4773 Y-6.0344
G01 X-16.4082 Y-5.9718
G01 X-16.3456 Y-5.9027
G01 X-16.2901 Y-5.8278
G01 X-16.2422 Y-5.7478
G01 X-16.2023 Y-5.6635
G01 X-16.1709 Y-5.5758
G01 X-16.1483 Y-5.4853
G01 X-16.1346 Y-5.3931
G01 X-16.1300 Y-5.3000
G01 X-16.1346 Y-5.2069
G01 X-16.1483 Y-5.1147
G01 X-16.1709 Y-5.0242
G01 X-16.2023 Y-4.9365
G01 X-16.2422 Y-4.8522
G01 X-16.2901 Y-4.7722
G01 X-16.3456 Y-4.6973
G01 X-16.4082 Y-4.6282
G01 X-16.4773 Y-4.5656
G01 X-16.5522 Y-4.5101
G01 X-16.6322 Y-4.4622
G01 X-16.7165 Y-4.4223
G01 X-16.8042 Y-4.3909
G01 X-16.8947 Y-4.3683
G01 X-16.9869 Y-4.3546
G01 X-17.0800 Y-4.3500
G01 X-17.1731 Y-4.3546
G01 X-17.2653 Y-4.3683
G01 X-17.3558 Y-4.3909
G01 X-17.4435 Y-4.4223
G01 X-17.5278 Y-4.4622
G01 X-17.6078 Y-4.5101
G01 X-17.6827 Y-4.5656
G01 X-17.7518 Y-4.6282
G01 X-17.8144 Y-4.6973
G01 X-17.8699 Y-4.7722
G01 X-17.9178 Y-4.8522
G01 X-17.9577 Y-4.9365
G01 X-17.9891 Y-5.0242
G01 X-18.0117 Y-5.1147
G01 X-18.0254 Y-5.2069
G01 X-18.0300 Y-5.3000
G01 X-18.0254 Y-5.3931
G01 X-18.0117 Y-5.4853
G01 X-17.9891 Y-5.5758
G01 X-17.9577 Y-5.6635
G01 X-17.9178 Y-5.7478
G01 X-17.8699 Y-5.8278
G01 X-17.8144 Y-5.9027
G01 X-17.7518 Y-5.9718
G01 X-17.6827 Y-6.0344
G01 X-17.6078 Y-6.0899
G01 X-17.5278 Y-6.1378
G01 X-17.4435 Y-6.1777
G01 X-17.3558 Y-6.2091
G01 X-17.2653 Y-6.2317
G01 X-17.1731 Y-6.2454
G01 X-17.0849 Y-6.2499
G00 Z2.0000
G00 X-16.3169 Y-4.6482
G01 F25.00
G01 Z-0.1866
G01 F120.00
G01 X-16.2243 Y-4.7756
G01 X-16.1528 Y-4.9159
G01 X-16.1041 Y-5.0657
G01 X-16.0795 Y-5.2213
G01 X-16.0795 Y-5.3787
G01 X-16.1041 Y-5.5343
G01 X-16.1528 Y-5.6841
G01 X-16.2243 Y-5.8244
G01 X-16.3169 Y-5.9518
G01 X-16.4282 Y-6.0631
G01 X-16.5556 Y-6.1557
G01 X-16.6959 Y-6.2272
G01 X-16.8457 Y-6.2759
G01 X-17.0013 Y-6.3005
G01 X-17.1587 Y-6.3005
G01 X-17.3143 Y-6.2759
G01 X-17.4641 Y-6.2272
G01 X-17.6044 Y-6.1557
G01 X-17.7318 Y-6.0631
G01 X-17.8431 Y-5.9518
G01 X-17.9357 Y-5.8244
G01 X-18.0072 Y-5.6841
G01 X-18.0559 Y-5.5343
G01 X-18.0805 Y-5.3787
G01 X-18.0805 Y-5.2213
G01 X-18.0559 Y-5.0657
G01 X-18.0072 Y-4.9159
G01 X-17.9357 Y-4.7756
G01 X-17.8431 Y-4.6482
G01 X-17.7318 Y-4.5369
G01 X-17.6044 Y-4.4443
G01 X-17.4641 Y-4.3728
G01 X-17.3143 Y-4.3241
G01 X-17.1587 Y-4.2995
G01 X-17.0013 Y-4.2995
G01 X-16.8457 Y-4.3241
G01 X-16.6959 Y-4.3728
G01 X-16.5556 Y-4.4443
G01 X-16.4282 Y-4.5369
G01 X-16.3169 Y-4.6482
G00 Z2.0000
G00 X-13.4596 Y3.1341
G01 F25.00
G01 Z-0.1866
G01 F120.00
G01 X-13.4596 Y3.3746
G01 X-13.2890 Y3.2040
G01 X-13.3251 Y3.2014
G01 X-13.3404 Y3.1993
G01 X-13.3578 Y3.1953
G01 X-13.3687 Y3.1919
G01 X-13.3771 Y3.1887
G01 X-13.3932 Y3.1811
G01 X-13.4086 Y3.1719
G01 X-13.4596 Y3.1341
G00 Z2.0000
G00 X-12.0440 Y10.6110
G01 F25.00
G01 Z-0.1866
G01 F120.00
G01 X-12.0414 Y10.5749
G01 X-12.0393 Y10.5596
G01 X-12.0353 Y10.5422
G01 X-12.0319 Y10.5313
G01 X-12.0287 Y10.5229
G01 X-12.0211 Y10.5068
G01 X-12.0119 Y10.4914
G01 X-11.9741 Y10.4404
G01 X-12.2146 Y10.4404
G01 X-12.0440 Y10.6110
G00 Z2.0000
G00 X-20.4500 Y18.2100
G01 F25.00
G01 Z-0.1866
G01 F120.00
G01 X-20.4402 Y18.2105
G01 X-20.4305 Y18.2119
G01 X-20.4210 Y18.2143
G01 X-20.4117 Y18.2176
G01 X-20.4029 Y18.2218
G01 X-20.3944 Y18.2269
G01 X-20.3866 Y18.2327
G01 X-20.3793 Y18.2393
G01 X-20.3727 Y18.2466
G01 X-20.3669 Y18.2544
G01 X-20.3618 Y18.2629
G01 X-20.3576 Y18.2717
G01 X-20.3543 Y18.2810
G01 X-20.3519 Y18.2905
G01 X-20.3505 Y18.3002
G01 X-20.3500 Y18.3100
G01 X-20.3501 Y20.0149
G01 X-20.3511 Y20.0247
G01 X-20.3530 Y20.0343
G01 X-20.3558 Y20.0437
G01 X-20.3586 Y20.0505
G01 X-20.3618 Y20.0571
G01 X-20.3669 Y20.0656
G01 X-20.3712 Y20.0715
G01 X-20.3776 Y20.0790
G01 X-20.3847 Y20.0857
G01 X-20.3924 Y20.0918
G01 X-20.4007 Y20.0970
G01 X-20.4072 Y20.1004
G01 X-20.4140 Y20.1033
G01 X-20.4233 Y20.1064
G01 X-20.4329 Y20.1085
G01 X-20.4402 Y20.1095
G01 X-20.4500 Y20.1100
G01 X-22.1500 Y20.1100
G01 X-22.1598 Y20.1095
G01 X-22.1719 Y20.1076
G01 X-22.1790 Y20.1057
G01 X-22.1860 Y20.1033
G01 X-22.1928 Y20.1004
G01 X-22.1993 Y20.0970
G01 X-22.2056 Y20.0931
G01 X-22.2115 Y20.0888
G01 X-22.2207 Y20.0807
G01 X-22.2257 Y20.0753
G01 X-22.2303 Y20.0696
G01 X-22.2345 Y20.0635
G01 X-22.2382 Y20.0571
G01 X-22.2414 Y20.0505
G01 X-22.2442 Y20.0437
G01 X-22.2464 Y20.0367
G01 X-22.2481 Y20.0295
G01 X-22.2495 Y20.0198
G01 X-22.2500 Y20.0100
G01 X-22.2500 Y19.7102
G01 X-29.9994 Y19.7102
G01 X-30.0115 Y19.7298
G01 X-30.0656 Y19.8027
G01 X-30.1249 Y19.8682
G01 X-30.1318 Y19.8751
G01 X-30.1973 Y19.9344
G01 X-30.2682 Y19.9871
G01 X-30.2764 Y19.9925
G01 X-30.3544 Y20.0390
G01 X-30.4365 Y20.0777
G01 X-30.5196 Y20.1076
G01 X-30.5290 Y20.1104
G01 X-30.6147 Y20.1317
G01 X-30.7020 Y20.1448
G01 X-30.7118 Y20.1458
G01 X-30.8000 Y20.1500
G01 X-30.8907 Y20.1456
G01 X-30.8980 Y20.1448
G01 X-30.9853 Y20.1317
G01 X-31.0710 Y20.1104
G01 X-31.0804 Y20.1076
G01 X-31.1590 Y20.0795
G01 X-31.1680 Y20.0757
G01 X-31.2478 Y20.0378
G01 X-31.3278 Y19.9899
G01 X-31.4027 Y19.9344
G01 X-31.4718 Y19.8718
G01 X-31.5344 Y19.8027
G01 X-31.5871 Y19.7318
G01 X-31.5925 Y19.7236
G01 X-31.6354 Y19.6521
G01 X-31.6400 Y19.6434
G01 X-31.6777 Y19.5635
G01 X-31.7091 Y19.4758
G01 X-31.7317 Y19.3853
G01 X-31.7454 Y19.2931
G01 X-31.7500 Y19.2000
G01 X-31.7454 Y19.1069
G01 X-31.7317 Y19.0147
G01 X-31.7091 Y18.9242
G01 X-31.6777 Y18.8365
G01 X-31.6378 Y18.7522
G01 X-31.5899 Y18.6722
G01 X-31.5344 Y18.5973
G01 X-31.4718 Y18.5282
G01 X-31.4027 Y18.4656
G01 X-31.3278 Y18.4101
G01 X-31.2478 Y18.3622
G01 X-31.1635 Y18.3223
G01 X-31.0758 Y18.2909
G01 X-30.9853 Y18.2683
G01 X-30.8931 Y18.2546
G01 X-30.8000 Y18.2500
G01 X-30.7118 Y18.2542
G01 X-30.7020 Y18.2552
G01 X-30.6147 Y18.2683
G01 X-30.5290 Y18.2896
G01 X-30.5196 Y18.2924
G01 X-30.4365 Y18.3223
G01 X-30.3566 Y18.3600
G01 X-30.3479 Y18.3646
G01 X-30.2722 Y18.4101
G01 X-30.2012 Y18.4626
G01 X-30.1936 Y18.4688
G01 X-30.1282 Y18.5282
G01 X-30.0672 Y18.5954
G01 X-30.0563 Y18.6098
G01 X-22.2500 Y18.6098
G01 X-22.2500 Y18.3100
G01 X-22.2495 Y18.3002
G01 X-22.2481 Y18.2905
G01 X-22.2464 Y18.2833
G01 X-22.2442 Y18.2763
G01 X-22.2414 Y18.2695
G01 X-22.2382 Y18.2629
G01 X-22.2345 Y18.2565
G01 X-22.2303 Y18.2504
G01 X-22.2257 Y18.2447
G01 X-22.2207 Y18.2393
G01 X-22.2153 Y18.2343
G01 X-22.2096 Y18.2297
G01 X-22.2035 Y18.2255
G01 X-22.1971 Y18.2218
G01 X-22.1905 Y18.2186
G01 X-22.1837 Y18.2158
G01 X-22.1719 Y18.2124
G01 X-22.1622 Y18.2108
G01 X-22.1500 Y18.2100
G01 X-20.4500 Y18.2100
G00 Z2.0000
G00 X-20.5266 Y21.1498
G01 F25.00
G01 Z-0.1866
G01 F120.00
G01 X-8.3734 Y21.1498
G01 X-8.3344 Y21.0973
G01 X-8.2751 Y21.0318
G01 X-8.2682 Y21.0249
G01 X-8.2046 Y20.9672
G01 X-8.1988 Y20.9626
G01 X-8.1278 Y20.9101
G01 X-8.0521 Y20.8646
G01 X-8.0456 Y20.8610
G01 X-7.9680 Y20.8243
G01 X-7.9590 Y20.8205
G01 X-7.8758 Y20.7909
G01 X-7.7901 Y20.7693
G01 X-7.7805 Y20.7674
G01 X-7.6931 Y20.7546
G01 X-7.6049 Y20.7501
G01 X-7.5951 Y20.7501
G01 X-7.5069 Y20.7546
G01 X-7.4147 Y20.7683
G01 X-7.3242 Y20.7909
G01 X-7.2365 Y20.8223
G01 X-7.1522 Y20.8622
G01 X-7.0722 Y20.9101
G01 X-6.9973 Y20.9656
G01 X-6.9282 Y21.0282
G01 X-6.8656 Y21.0973
G01 X-6.8101 Y21.1722
G01 X-6.7622 Y21.2522
G01 X-6.7223 Y21.3365
G01 X-6.6909 Y21.4242
G01 X-6.6683 Y21.5147
G01 X-6.6546 Y21.6069
G01 X-6.6501 Y21.6951
G01 X-6.6501 Y21.7049
G01 X-6.6546 Y21.7931
G01 X-6.6683 Y21.8853
G01 X-6.6909 Y21.9758
G01 X-6.7223 Y22.0635
G01 X-6.7622 Y22.1478
G01 X-6.8101 Y22.2278
G01 X-6.8656 Y22.3027
G01 X-6.9282 Y22.3718
G01 X-6.9973 Y22.4344
G01 X-7.0722 Y22.4899
G01 X-7.1522 Y22.5378
G01 X-7.2365 Y22.5777
G01 X-7.3242 Y22.6091
G01 X-7.4147 Y22.6317
G01 X-7.5069 Y22.6454
G01 X-7.5975 Y22.6500
G01 X-7.6049 Y22.6499
G01 X-7.6931 Y22.6454
G01 X-7.7805 Y22.6326
G01 X-7.7901 Y22.6307
G01 X-7.8758 Y22.6091
G01 X-7.9590 Y22.5795
G01 X-7.9680 Y22.5757
G01 X-8.0456 Y22.5390
G01 X-8.0521 Y22.5354
G01 X-8.1278 Y22.4899
G01 X-8.1988 Y22.4374
G01 X-8.2046 Y22.4328
G01 X-8.2682 Y22.3751
G01 X-8.2751 Y22.3682
G01 X-8.3344 Y22.3027
G01 X-8.3734 Y22.2502
G01 X-20.5266 Y22.2502
G01 X-20.5656 Y22.3027
G01 X-20.6249 Y22.3682
G01 X-20.6318 Y22.3751
G01 X-20.6954 Y22.4328
G01 X-20.7012 Y22.4374
G01 X-20.7722 Y22.4899
G01 X-20.8479 Y22.5354
G01 X-20.8544 Y22.5390
G01 X-20.9320 Y22.5757
G01 X-20.9410 Y22.5795
G01 X-21.0242 Y22.6091
G01 X-21.1099 Y22.6307
G01 X-21.1195 Y22.6326
G01 X-21.2069 Y22.6454
G01 X-21.2951 Y22.6499
G01 X-21.3025 Y22.6500
G01 X-21.3882 Y22.6458
G01 X-21.3980 Y22.6448
G01 X-21.4853 Y22.6317
G01 X-21.5710 Y22.6104
G01 X-21.5804 Y22.6076
G01 X-21.6635 Y22.5777
G01 X-21.7478 Y22.5378
G01 X-21.8278 Y22.4899
G01 X-21.8988 Y22.4374
G01 X-21.9064 Y22.4312
G01 X-21.9718 Y22.3718
G01 X-22.0312 Y22.3064
G01 X-22.0374 Y22.2988
G01 X-22.0885 Y22.2298
G01 X-22.0925 Y22.2236
G01 X-22.1378 Y22.1478
G01 X-22.1777 Y22.0635
G01 X-22.2091 Y21.9758
G01 X-22.2317 Y21.8853
G01 X-22.2454 Y21.7931
G01 X-22.2500 Y21.7000
G01 X-22.2454 Y21.6069
G01 X-22.2317 Y21.5147
G01 X-22.2091 Y21.4242
G01 X-22.1777 Y21.3365
G01 X-22.1378 Y21.2522
G01 X-22.0899 Y21.1722
G01 X-22.0344 Y21.0973
G01 X-21.9718 Y21.0282
G01 X-21.9027 Y20.9656
G01 X-21.8298 Y20.9115
G01 X-21.8236 Y20.9075
G01 X-21.7478 Y20.8622
G01 X-21.6635 Y20.8223
G01 X-21.5758 Y20.7909
G01 X-21.4853 Y20.7683
G01 X-21.3931 Y20.7546
G01 X-21.3000 Y20.7500
G01 X-21.2069 Y20.7546
G01 X-21.1171 Y20.7678
G01 X-21.1099 Y20.7693
G01 X-21.0242 Y20.7909
G01 X-20.9365 Y20.8223
G01 X-20.8522 Y20.8622
G01 X-20.7743 Y20.9088
G01 X-20.7682 Y20.9129
G01 X-20.6973 Y20.9656
G01 X-20.6300 Y21.0265
G01 X-20.6249 Y21.0318
G01 X-20.5656 Y21.0973
G01 X-20.5266 Y21.1498
G00 Z2.0000
G00 X-30.0368 Y19.8517
G01 F25.00
G01 Z-0.1866
G01 F120.00
G01 X-30.0284 Y19.8419
G01 X-30.0197 Y19.8339
G01 X-29.9605 Y19.7883
G01 X-29.9543 Y19.7841
G01 X-29.9479 Y19.7804
G01 X-29.9412 Y19.7772
G01 X-29.9342 Y19.7745
G01 X-29.9223 Y19.7712
G01 X-29.8726 Y19.7618
G01 X-29.8587 Y19.7605
G01 X-22.5221 Y19.7605
G01 X-22.5103 Y19.7615
G01 X-22.4986 Y19.7639
G01 X-22.4293 Y19.7842
G01 X-22.4222 Y19.7866
G01 X-22.4131 Y19.7906
G01 X-22.4024 Y19.7967
G01 X-22.3924 Y19.8042
G01 X-22.3835 Y19.8128
G01 X-22.3361 Y19.8675
G01 X-22.3314 Y19.8733
G01 X-22.3272 Y19.8795
G01 X-22.3234 Y19.8860
G01 X-22.3202 Y19.8928
G01 X-22.3174 Y19.8997
G01 X-22.3140 Y19.9117
G01 X-22.3015 Y19.9703
G01 X-22.3005 Y19.9821
G01 X-22.3005 Y20.0248
G01 X-22.2918 Y20.0687
G01 X-22.2585 Y20.1185
G01 X-22.2087 Y20.1518
G01 X-22.1648 Y20.1605
G01 X-20.4352 Y20.1605
G01 X-20.3913 Y20.1518
G01 X-20.3415 Y20.1185
G01 X-20.3082 Y20.0687
G01 X-20.2995 Y20.0248
G01 X-20.2995 Y18.2952
G01 X-20.3082 Y18.2513
G01 X-20.3415 Y18.2015
G01 X-20.3913 Y18.1682
G01 X-20.4352 Y18.1595
G01 X-22.1648 Y18.1595
G01 X-22.2087 Y18.1682
G01 X-22.2585 Y18.2015
G01 X-22.2918 Y18.2513
G01 X-22.3005 Y18.2952
G01 X-22.3006 Y18.3403
G01 X-22.3015 Y18.3497
G01 X-22.3033 Y18.3591
G01 X-22.3242 Y18.4307
G01 X-22.3266 Y18.4378
G01 X-22.3306 Y18.4469
G01 X-22.3354 Y18.4556
G01 X-22.3396 Y18.4617
G01 X-22.3458 Y18.4694
G01 X-22.3547 Y18.4781
G01 X-22.4094 Y18.5255
G01 X-22.4174 Y18.5314
G01 X-22.4282 Y18.5377
G01 X-22.4397 Y18.5426
G01 X-22.4493 Y18.5454
G01 X-22.5056 Y18.5577
G01 X-22.5126 Y18.5588
G01 X-22.5221 Y18.5595
G01 X-29.9328 Y18.5595
G01 X-29.9399 Y18.5592
G01 X-29.9470 Y18.5585
G01 X-29.9541 Y18.5572
G01 X-29.9610 Y18.5554
G01 X-30.0304 Y18.5350
G01 X-30.0395 Y18.5316
G01 X-30.0505 Y18.5260
G01 X-30.0607 Y18.5192
G01 X-30.0873 Y18.4976
G01 X-30.1482 Y18.4369
G01 X-30.2756 Y18.3443
G01 X-30.4159 Y18.2728
G01 X-30.5657 Y18.2241
G01 X-30.7213 Y18.1995
G01 X-30.8787 Y18.1995
G01 X-31.0343 Y18.2241
G01 X-31.1841 Y18.2728
G01 X-31.3244 Y18.3443
G01 X-31.4518 Y18.4369
G01 X-31.5631 Y18.5482
G01 X-31.6557 Y18.6756
G01 X-31.7272 Y18.8159
G01 X-31.7759 Y18.9657
G01 X-31.8005 Y19.1213
G01 X-31.8005 Y19.2787
G01 X-31.7759 Y19.4343
G01 X-31.7272 Y19.5841
G01 X-31.6557 Y19.7244
G01 X-31.5631 Y19.8518
G01 X-31.4518 Y19.9631
G01 X-31.3244 Y20.0557
G01 X-31.1841 Y20.1272
G01 X-31.0343 Y20.1759
G01 X-30.8787 Y20.2005
G01 X-30.7213 Y20.2005
G01 X-30.5657 Y20.1759
G01 X-30.4159 Y20.1272
G01 X-30.2756 Y20.0557
G01 X-30.1482 Y19.9631
G01 X-30.0368 Y19.8517
G00 Z2.0000
G00 X-38.4774 Y4.6952
G01 F25.00
G01 Z-0.1866
G01 F120.00
G01 X-38.4322 Y4.8044
G01 X-38.3664 Y4.9028
G01 X-36.3661 Y6.9031
G01 X-36.3582 Y6.9120
G01 X-36.3527 Y6.9198
G01 X-36.3156 Y6.9872
G01 X-36.3104 Y6.9983
G01 X-36.3072 Y7.0076
G01 X-36.3050 Y7.0172
G01 X-36.3008 Y7.0535
G01 X-36.3005 Y7.0615
G01 X-36.3005 Y7.9848
G01 X-36.2918 Y8.0287
G01 X-36.2585 Y8.0785
G01 X-36.2087 Y8.1118
G01 X-36.1648 Y8.1205
G01 X-34.4352 Y8.1205
G01 X-34.3913 Y8.1118
G01 X-34.3415 Y8.0785
G01 X-34.3082 Y8.0287
G01 X-34.2995 Y7.9848
G01 X-34.2995 Y6.2552
G01 X-34.3082 Y6.2113
G01 X-34.3415 Y6.1615
G01 X-34.3913 Y6.1282
G01 X-34.4352 Y6.1195
G01 X-35.3609 Y6.1195
G01 X-35.3727 Y6.1185
G01 X-35.3844 Y6.1161
G01 X-35.4537 Y6.0958
G01 X-35.4607 Y6.0934
G01 X-35.4675 Y6.0906
G01 X-35.4740 Y6.0873
G01 X-35.4803 Y6.0835
G01 X-35.4863 Y6.0792
G01 X-35.5089 Y6.0610
G01 X-35.5169 Y6.0539
G01 X-37.2356 Y4.3352
G01 X-37.2432 Y4.3261
G01 X-37.2498 Y4.3162
G01 X-37.2844 Y4.2528
G01 X-37.2877 Y4.2462
G01 X-37.2905 Y4.2394
G01 X-37.2928 Y4.2324
G01 X-37.2946 Y4.2252
G01 X-37.2958 Y4.2180
G01 X-37.2989 Y4.1892
G01 X-37.2995 Y4.1785
G01 X-37.2995 Y-6.3585
G01 X-37.2988 Y-6.3704
G01 X-37.2967 Y-6.3821
G01 X-37.2758 Y-6.4537
G01 X-37.2734 Y-6.4607
G01 X-37.2706 Y-6.4675
G01 X-37.2673 Y-6.4740
G01 X-37.2635 Y-6.4803
G01 X-37.2592 Y-6.4863
G01 X-37.2410 Y-6.5089
G01 X-37.2339 Y-6.5169
G01 X-36.2152 Y-7.5356
G01 X-36.2061 Y-7.5432
G01 X-36.1962 Y-7.5498
G01 X-36.1306 Y-7.5856
G01 X-36.1239 Y-7.5887
G01 X-36.1171 Y-7.5913
G01 X-36.1076 Y-7.5940
G01 X-36.1004 Y-7.5954
G01 X-36.0692 Y-7.5989
G01 X-36.0585 Y-7.5995
G01 X-30.0195 Y-7.5995
G01 X-30.0100 Y-7.5990
G01 X-30.0006 Y-7.5977
G01 X-29.9913 Y-7.5954
G01 X-29.9243 Y-7.5758
G01 X-29.9173 Y-7.5734
G01 X-29.9105 Y-7.5706
G01 X-29.9018 Y-7.5660
G01 X-29.8936 Y-7.5607
G01 X-29.8691 Y-7.5410
G01 X-29.8630 Y-7.5358
G01 X-29.0101 Y-6.6829
G01 X-29.0022 Y-6.6740
G01 X-28.9980 Y-6.6682
G01 X-28.9942 Y-6.6622
G01 X-28.9584 Y-6.5966
G01 X-28.9543 Y-6.5875
G01 X-28.9505 Y-6.5757
G01 X-28.9482 Y-6.5636
G01 X-28.9475 Y-6.5561
G01 X-28.9474 Y-6.5487
G01 X-28.9528 Y-6.4716
G01 X-28.9548 Y-6.4593
G01 X-28.9582 Y-6.4474
G01 X-28.9631 Y-6.4360
G01 X-28.9680 Y-6.4274
G01 X-28.9723 Y-6.4212
G01 X-29.0157 Y-6.3633
G01 X-29.0239 Y-6.3541
G01 X-29.0333 Y-6.3459
G01 X-29.0436 Y-6.3390
G01 X-29.0547 Y-6.3334
G01 X-29.1271 Y-6.3063
G01 X-29.1341 Y-6.3041
G01 X-29.1438 Y-6.3021
G01 X-29.1536 Y-6.3010
G01 X-29.1649 Y-6.3006
G01 X-30.6448 Y-6.3005
G01 X-30.6887 Y-6.2918
G01 X-30.7385 Y-6.2585
G01 X-30.7718 Y-6.2087
G01 X-30.7805 Y-6.1648
G01 X-30.7806 Y-6.1197
G01 X-30.7815 Y-6.1103
G01 X-30.7833 Y-6.1009
G01 X-30.8058 Y-6.0246
G01 X-30.8085 Y-6.0176
G01 X-30.8117 Y-6.0109
G01 X-30.8167 Y-6.0024
G01 X-30.8211 Y-5.9963
G01 X-30.8258 Y-5.9906
G01 X-30.8328 Y-5.9835
G01 X-30.8875 Y-5.9361
G01 X-30.8954 Y-5.9300
G01 X-30.9060 Y-5.9234
G01 X-30.9174 Y-5.9183
G01 X-30.9293 Y-5.9146
G01 X-30.9856 Y-5.9023
G01 X-30.9974 Y-5.9008
G01 X-31.0045 Y-5.9005
G01 X-34.8391 Y-5.9005
G01 X-34.9205 Y-5.8844
G01 X-34.9519 Y-5.8810
G01 X-34.9593 Y-5.8805
G01 X-36.0648 Y-5.8805
G01 X-36.1087 Y-5.8718
G01 X-36.1585 Y-5.8385
G01 X-36.1918 Y-5.7887
G01 X-36.2005 Y-5.7448
G01 X-36.2005 Y-4.0152
G01 X-36.1918 Y-3.9713
G01 X-36.1585 Y-3.9215
G01 X-36.1087 Y-3.8882
G01 X-36.0648 Y-3.8795
G01 X-34.3352 Y-3.8795
G01 X-34.2913 Y-3.8882
G01 X-34.2415 Y-3.9215
G01 X-34.2082 Y-3.9713
G01 X-34.1995 Y-4.0152
G01 X-34.1994 Y-4.4803
G01 X-34.1985 Y-4.4897
G01 X-34.1961 Y-4.5014
G01 X-34.1758 Y-4.5707
G01 X-34.1734 Y-4.5778
G01 X-34.1694 Y-4.5869
G01 X-34.1646 Y-4.5956
G01 X-34.1589 Y-4.6037
G01 X-34.1507 Y-4.6130
G01 X-34.1453 Y-4.6181
G01 X-34.0925 Y-4.6639
G01 X-34.0867 Y-4.6686
G01 X-34.0805 Y-4.6728
G01 X-34.0740 Y-4.6766
G01 X-34.0672 Y-4.6798
G01 X-34.0603 Y-4.6826
G01 X-34.0531 Y-4.6848
G01 X-33.9944 Y-4.6977
G01 X-33.9874 Y-4.6988
G01 X-33.9803 Y-4.6994
G01 X-31.0045 Y-4.6995
G01 X-30.9974 Y-4.6992
G01 X-30.9879 Y-4.6981
G01 X-30.9786 Y-4.6961
G01 X-30.9093 Y-4.6758
G01 X-30.8999 Y-4.6725
G01 X-30.8887 Y-4.6671
G01 X-30.8803 Y-4.6619
G01 X-30.8706 Y-4.6542
G01 X-30.8619 Y-4.6453
G01 X-30.8161 Y-4.5925
G01 X-30.8114 Y-4.5867
G01 X-30.8072 Y-4.5805
G01 X-30.8034 Y-4.5740
G01 X-30.8002 Y-4.5672
G01 X-30.7974 Y-4.5603
G01 X-30.7940 Y-4.5483
G01 X-30.7815 Y-4.4897
G01 X-30.7805 Y-4.4779
G01 X-30.7805 Y-4.4352
G01 X-30.7718 Y-4.3913
G01 X-30.7385 Y-4.3415
G01 X-30.6887 Y-4.3082
G01 X-30.6448 Y-4.2995
G01 X-28.9152 Y-4.2995
G01 X-28.8713 Y-4.3082
G01 X-28.8215 Y-4.3415
G01 X-28.7882 Y-4.3913
G01 X-28.7795 Y-4.4352
G01 X-28.7795 Y-5.9115
G01 X-28.7792 Y-5.9186
G01 X-28.7781 Y-5.9281
G01 X-28.7754 Y-5.9397
G01 X-28.7558 Y-6.0067
G01 X-28.7525 Y-6.0161
G01 X-28.7483 Y-6.0251
G01 X-28.7419 Y-6.0357
G01 X-28.7342 Y-6.0454
G01 X-28.7253 Y-6.0541
G01 X-28.6687 Y-6.1030
G01 X-28.6584 Y-6.1100
G01 X-28.6474 Y-6.1157
G01 X-28.6358 Y-6.1200
G01 X-28.6237 Y-6.1229
G01 X-28.5521 Y-6.1332
G01 X-28.5422 Y-6.1341
G01 X-28.5323 Y-6.1341
G01 X-28.5224 Y-6.1330
G01 X-28.5103 Y-6.1303
G01 X-28.5009 Y-6.1271
G01 X-28.4283 Y-6.0940
G01 X-28.4177 Y-6.0876
G01 X-28.4080 Y-6.0800
G01 X-28.3971 Y-6.0699
G01 X-28.2212 Y-5.8936
G01 X-28.2153 Y-5.8861
G01 X-28.2101 Y-5.8781
G01 X-28.1755 Y-5.8147
G01 X-28.1702 Y-5.8034
G01 X-28.1677 Y-5.7963
G01 X-28.1652 Y-5.7866
G01 X-28.1640 Y-5.7792
G01 X-28.1633 Y-5.7693
G01 X-28.1634 Y-5.7618
G01 X-28.1666 Y-5.6971
G01 X-28.1679 Y-5.6852
G01 X-28.1694 Y-5.6781
G01 X-28.1714 Y-5.6712
G01 X-28.2159 Y-5.5343
G01 X-28.2405 Y-5.3787
G01 X-28.2405 Y-5.2213
G01 X-28.2159 Y-5.0657
G01 X-28.1672 Y-4.9159
G01 X-28.0957 Y-4.7756
G01 X-28.0031 Y-4.6482
G01 X-27.8918 Y-4.5369
G01 X-27.7644 Y-4.4443
G01 X-27.6241 Y-4.3728
G01 X-27.4743 Y-4.3241
G01 X-27.3187 Y-4.2995
G01 X-27.1613 Y-4.2995
G01 X-27.0057 Y-4.3241
G01 X-26.8559 Y-4.3728
G01 X-26.7156 Y-4.4443
G01 X-26.5882 Y-4.5369
G01 X-26.4769 Y-4.6482
G01 X-26.3843 Y-4.7756
G01 X-26.3128 Y-4.9159
G01 X-26.2641 Y-5.0657
G01 X-26.2395 Y-5.2213
G01 X-26.2395 Y-5.3787
G01 X-26.2606 Y-5.5121
G01 X-26.2641 Y-5.5343
G01 X-26.3128 Y-5.6841
G01 X-26.3843 Y-5.8244
G01 X-26.4769 Y-5.9518
G01 X-26.5882 Y-6.0631
G01 X-26.7156 Y-6.1557
G01 X-26.8290 Y-6.2136
G01 X-26.8378 Y-6.2193
G01 X-26.8691 Y-6.2421
G01 X-26.8753 Y-6.2470
G01 X-26.8811 Y-6.2523
G01 X-29.2952 Y-8.6664
G01 X-29.3936 Y-8.7322
G01 X-29.5028 Y-8.7774
G01 X-29.6189 Y-8.8005
G01 X-36.4591 Y-8.8005
G01 X-36.5752 Y-8.7774
G01 X-36.6844 Y-8.7322
G01 X-36.7828 Y-8.6664
G01 X-38.3664 Y-7.0828
G01 X-38.4322 Y-6.9844
G01 X-38.4774 Y-6.8752
G01 X-38.5005 Y-6.7591
G01 X-38.5005 Y4.5791
G01 X-38.4774 Y4.6952
G00 Z2.0000
G00 X-34.5962 Y-0.5334
G01 F25.00
G01 Z-0.1866
G01 F120.00
G01 X-34.5282 Y-0.4718
G01 X-34.4666 Y-0.4038
G01 X-27.9022 Y6.1606
G01 X-27.7629 Y6.2537
G01 X-27.6081 Y6.3178
G01 X-27.4438 Y6.3505
G01 X-15.4145 Y6.3505
G01 X-15.4074 Y6.3508
G01 X-15.3979 Y6.3519
G01 X-15.3863 Y6.3546
G01 X-15.3193 Y6.3742
G01 X-15.3099 Y6.3775
G01 X-15.3009 Y6.3817
G01 X-15.2903 Y6.3881
G01 X-15.2824 Y6.3942
G01 X-15.2752 Y6.4010
G01 X-15.2245 Y6.4594
G01 X-15.2186 Y6.4674
G01 X-15.2123 Y6.4782
G01 X-15.2083 Y6.4874
G01 X-15.2046 Y6.4993
G01 X-15.1928 Y6.5532
G01 X-15.1910 Y6.5650
G01 X-15.1905 Y6.5745
G01 X-15.1905 Y8.4855
G01 X-15.1912 Y8.4974
G01 X-15.1923 Y8.5044
G01 X-15.1946 Y8.5137
G01 X-15.2142 Y8.5807
G01 X-15.2175 Y8.5901
G01 X-15.2217 Y8.5991
G01 X-15.2267 Y8.6076
G01 X-15.2342 Y8.6176
G01 X-15.2410 Y8.6248
G01 X-15.2994 Y8.6755
G01 X-15.3074 Y8.6814
G01 X-15.3182 Y8.6877
G01 X-15.3297 Y8.6926
G01 X-15.3417 Y8.6960
G01 X-15.3956 Y8.7077
G01 X-15.4050 Y8.7090
G01 X-15.4145 Y8.7095
G01 X-34.9522 Y8.7095
G01 X-34.9652 Y8.7086
G01 X-35.0113 Y8.7012
G01 X-35.0214 Y8.6985
G01 X-35.0657 Y8.6841
G01 X-35.2213 Y8.6595
G01 X-35.3787 Y8.6595
G01 X-35.5343 Y8.6841
G01 X-35.6841 Y8.7328
G01 X-35.8244 Y8.8043
G01 X-35.9518 Y8.8969
G01 X-36.0631 Y9.0082
G01 X-36.1557 Y9.1356
G01 X-36.2272 Y9.2759
G01 X-36.2759 Y9.4257
G01 X-36.3005 Y9.5813
G01 X-36.3005 Y9.7387
G01 X-36.2759 Y9.8943
G01 X-36.2272 Y10.0441
G01 X-36.1557 Y10.1844
G01 X-36.0631 Y10.3118
G01 X-35.9518 Y10.4231
G01 X-35.8244 Y10.5157
G01 X-35.6841 Y10.5872
G01 X-35.5343 Y10.6359
G01 X-35.3787 Y10.6605
G01 X-35.2213 Y10.6605
G01 X-35.0657 Y10.6359
G01 X-34.9159 Y10.5872
G01 X-34.7756 Y10.5157
G01 X-34.6878 Y10.4519
G01 X-34.6797 Y10.4469
G01 X-34.6712 Y10.4426
G01 X-34.5987 Y10.4165
G01 X-34.5918 Y10.4143
G01 X-34.5824 Y10.4122
G01 X-34.5752 Y10.4112
G01 X-34.5580 Y10.4105
G01 X-14.7851 Y10.4105
G01 X-14.7732 Y10.4112
G01 X-14.7615 Y10.4133
G01 X-14.6899 Y10.4342
G01 X-14.6829 Y10.4366
G01 X-14.6717 Y10.4416
G01 X-14.6612 Y10.4479
G01 X-14.6346 Y10.4690
G01 X-14.6267 Y10.4761
G01 X-5.9761 Y19.1267
G01 X-5.9697 Y19.1337
G01 X-5.9654 Y19.1394
G01 X-5.9591 Y19.1495
G01 X-5.9256 Y19.2108
G01 X-5.9204 Y19.2219
G01 X-5.9172 Y19.2312
G01 X-5.9146 Y19.2432
G01 X-5.9111 Y19.2744
G01 X-5.9105 Y19.2824
G01 X-5.9105 Y20.5520
G01 X-5.9115 Y20.5638
G01 X-5.9139 Y20.5755
G01 X-5.9350 Y20.6472
G01 X-5.9375 Y20.6541
G01 X-5.9416 Y20.6630
G01 X-5.9452 Y20.6694
G01 X-5.9493 Y20.6755
G01 X-5.9539 Y20.6813
G01 X-5.9588 Y20.6867
G01 X-5.9980 Y20.7263
G01 X-6.0059 Y20.7329
G01 X-6.0185 Y20.7415
G01 X-6.0518 Y20.7913
G01 X-6.0605 Y20.8352
G01 X-6.0605 Y22.5648
G01 X-6.0518 Y22.6087
G01 X-6.0185 Y22.6585
G01 X-5.9687 Y22.6918
G01 X-5.9248 Y22.7005
G01 X-4.1952 Y22.7005
G01 X-4.1513 Y22.6918
G01 X-4.1015 Y22.6585
G01 X-4.0682 Y22.6087
G01 X-4.0595 Y22.5648
G01 X-4.0595 Y20.8352
G01 X-4.0682 Y20.7913
G01 X-4.1015 Y20.7415
G01 X-4.1119 Y20.7345
G01 X-4.1176 Y20.7302
G01 X-4.1230 Y20.7255
G01 X-4.1280 Y20.7204
G01 X-4.1775 Y20.6613
G01 X-4.1818 Y20.6554
G01 X-4.1870 Y20.6470
G01 X-4.1922 Y20.6359
G01 X-4.1960 Y20.6243
G01 X-4.2074 Y20.5700
G01 X-4.2090 Y20.5598
G01 X-4.2095 Y20.5496
G01 X-4.2095 Y18.7562
G01 X-4.2422 Y18.5919
G01 X-4.3063 Y18.4371
G01 X-4.3994 Y18.2978
G01 X-11.9043 Y10.7929
G01 X-11.9122 Y10.7840
G01 X-11.9190 Y10.7742
G01 X-11.9560 Y10.7066
G01 X-11.9601 Y10.6975
G01 X-11.9626 Y10.6905
G01 X-11.9645 Y10.6833
G01 X-11.9663 Y10.6736
G01 X-11.9671 Y10.6637
G01 X-11.9670 Y10.6562
G01 X-11.9619 Y10.5840
G01 X-11.9602 Y10.5717
G01 X-11.9570 Y10.5597
G01 X-11.9524 Y10.5482
G01 X-11.9490 Y10.5416
G01 X-11.9450 Y10.5353
G01 X-11.8972 Y10.4714
G01 X-11.8887 Y10.4624
G01 X-11.8792 Y10.4544
G01 X-11.8687 Y10.4478
G01 X-11.8575 Y10.4424
G01 X-11.7897 Y10.4171
G01 X-11.7827 Y10.4148
G01 X-11.7755 Y10.4130
G01 X-11.7682 Y10.4117
G01 X-11.7608 Y10.4110
G01 X-11.7495 Y10.4106
G01 X-7.3860 Y10.4105
G01 X-7.3766 Y10.4112
G01 X-7.3673 Y10.4127
G01 X-7.3087 Y10.4268
G01 X-7.2975 Y10.4302
G01 X-7.2867 Y10.4349
G01 X-7.1841 Y10.4872
G01 X-7.0343 Y10.5359
G01 X-6.8787 Y10.5605
G01 X-6.7213 Y10.5605
G01 X-6.5657 Y10.5359
G01 X-6.4159 Y10.4872
G01 X-6.2756 Y10.4157
G01 X-6.1482 Y10.3231
G01 X-6.0369 Y10.2118
G01 X-5.9443 Y10.0844
G01 X-5.8728 Y9.9441
G01 X-5.8241 Y9.7943
G01 X-5.7995 Y9.6387
G01 X-5.7995 Y9.4813
G01 X-5.8241 Y9.3257
G01 X-5.8728 Y9.1759
G01 X-5.9443 Y9.0356
G01 X-6.0369 Y8.9082
G01 X-6.1482 Y8.7969
G01 X-6.2756 Y8.7043
G01 X-6.4159 Y8.6328
G01 X-6.5657 Y8.5841
G01 X-6.7213 Y8.5595
G01 X-6.8787 Y8.5595
G01 X-7.0343 Y8.5841
G01 X-7.1841 Y8.6328
G01 X-7.2867 Y8.6851
G01 X-7.2975 Y8.6898
G01 X-7.3087 Y8.6932
G01 X-7.3673 Y8.7073
G01 X-7.3766 Y8.7088
G01 X-7.3860 Y8.7095
G01 X-13.2655 Y8.7095
G01 X-13.2774 Y8.7088
G01 X-13.2891 Y8.7067
G01 X-13.3654 Y8.6842
G01 X-13.3746 Y8.6805
G01 X-13.3834 Y8.6759
G01 X-13.3937 Y8.6689
G01 X-13.4012 Y8.6625
G01 X-13.4081 Y8.6553
G01 X-13.4555 Y8.6006
G01 X-13.4614 Y8.5926
G01 X-13.4666 Y8.5840
G01 X-13.4708 Y8.5749
G01 X-13.4748 Y8.5631
G01 X-13.4885 Y8.4997
G01 X-13.4892 Y8.4926
G01 X-13.4895 Y8.4855
G01 X-13.4895 Y5.9427
G01 X-13.4885 Y5.9308
G01 X-13.4861 Y5.9192
G01 X-13.4650 Y5.8475
G01 X-13.4616 Y5.8383
G01 X-13.4584 Y5.8317
G01 X-13.4535 Y5.8232
G01 X-13.4492 Y5.8172
G01 X-13.4293 Y5.7926
G01 X-13.4239 Y5.7867
G01 X-7.5334 Y-0.1038
G01 X-7.4718 Y-0.1718
G01 X-7.4038 Y-0.2334
G01 X-6.6130 Y-1.0242
G01 X-6.6058 Y-1.0304
G01 X-6.5982 Y-1.0359
G01 X-6.5468 Y-1.0674
G01 X-6.5364 Y-1.0729
G01 X-6.5255 Y-1.0772
G01 X-6.4159 Y-1.1128
G01 X-6.2756 Y-1.1843
G01 X-6.2512 Y-1.2019
G01 X-6.2451 Y-1.2056
G01 X-6.2388 Y-1.2088
G01 X-6.2300 Y-1.2124
G01 X-6.1642 Y-1.2359
G01 X-6.1523 Y-1.2394
G01 X-6.1425 Y-1.2410
G01 X-6.1326 Y-1.2417
G01 X-6.1251 Y-1.2416
G01 X-6.1152 Y-1.2406
G01 X-6.1079 Y-1.2391
G01 X-6.0399 Y-1.2233
G01 X-6.0303 Y-1.2206
G01 X-6.0188 Y-1.2159
G01 X-6.0080 Y-1.2098
G01 X-5.9981 Y-1.2024
G01 X-5.9908 Y-1.1956
G01 X-5.9405 Y-1.1438
G01 X-5.9329 Y-1.1345
G01 X-5.9264 Y-1.1244
G01 X-5.9212 Y-1.1135
G01 X-5.9174 Y-1.1022
G01 X-5.9019 Y-1.0396
G01 X-5.9006 Y-1.0325
G01 X-5.8996 Y-1.0228
G01 X-5.8995 Y0.1999
G01 X-5.8902 Y0.2266
G01 X-5.8693 Y0.3099
G01 X-5.8678 Y0.3171
G01 X-5.8546 Y0.4069
G01 X-5.8500 Y0.5000
G01 X-5.8546 Y0.5931
G01 X-5.8678 Y0.6829
G01 X-5.8693 Y0.6901
G01 X-5.8902 Y0.7734
G01 X-5.8995 Y0.8001
G01 X-5.8995 Y5.1775
G01 X-5.8998 Y5.1846
G01 X-5.9009 Y5.1941
G01 X-5.9036 Y5.2057
G01 X-5.9232 Y5.2727
G01 X-5.9274 Y5.2842
G01 X-5.9317 Y5.2930
G01 X-5.9383 Y5.3034
G01 X-5.9580 Y5.3279
G01 X-5.9632 Y5.3340
G01 X-6.5848 Y5.9556
G01 X-6.5939 Y5.9632
G01 X-6.6038 Y5.9698
G01 X-6.6716 Y6.0067
G01 X-6.6829 Y6.0113
G01 X-6.6900 Y6.0134
G01 X-6.6972 Y6.0150
G01 X-6.7308 Y6.0189
G01 X-6.7415 Y6.0195
G01 X-7.6648 Y6.0195
G01 X-7.7087 Y6.0282
G01 X-7.7585 Y6.0615
G01 X-7.7918 Y6.1113
G01 X-7.8005 Y6.1552
G01 X-7.8005 Y7.8848
G01 X-7.7918 Y7.9287
G01 X-7.7585 Y7.9785
G01 X-7.7087 Y8.0118
G01 X-7.6648 Y8.0205
G01 X-5.9352 Y8.0205
G01 X-5.8913 Y8.0118
G01 X-5.8415 Y7.9785
G01 X-5.8082 Y7.9287
G01 X-5.7995 Y7.8848
G01 X-5.7995 Y6.9591
G01 X-5.7985 Y6.9473
G01 X-5.7961 Y6.9356
G01 X-5.7758 Y6.8663
G01 X-5.7734 Y6.8593
G01 X-5.7706 Y6.8525
G01 X-5.7660 Y6.8438
G01 X-5.7607 Y6.8356
G01 X-5.7410 Y6.8111
G01 X-5.7339 Y6.8031
G01 X-4.8326 Y5.9018
G01 X-4.7668 Y5.8034
G01 X-4.7216 Y5.6942
G01 X-4.6985 Y5.5781
G01 X-4.6985 Y-16.8601
G01 X-4.7216 Y-16.9762
G01 X-4.7668 Y-17.0854
G01 X-4.8326 Y-17.1838
G01 X-10.1162 Y-22.4674
G01 X-10.2146 Y-22.5332
G01 X-10.3238 Y-22.5784
G01 X-10.4399 Y-22.6015
G01 X-13.5601 Y-22.6015
G01 X-13.6762 Y-22.5784
G01 X-13.7854 Y-22.5332
G01 X-13.8838 Y-22.4674
G01 X-14.9008 Y-21.4505
G01 X-14.9109 Y-21.4421
G01 X-14.9422 Y-21.4193
G01 X-14.9510 Y-21.4136
G01 X-15.0644 Y-21.3557
G01 X-15.1918 Y-21.2631
G01 X-15.3031 Y-21.1518
G01 X-15.3957 Y-21.0244
G01 X-15.4672 Y-20.8841
G01 X-15.5159 Y-20.7343
G01 X-15.5405 Y-20.5787
G01 X-15.5405 Y-20.4213
G01 X-15.5159 Y-20.2657
G01 X-15.4672 Y-20.1159
G01 X-15.3957 Y-19.9756
G01 X-15.3031 Y-19.8482
G01 X-15.1918 Y-19.7369
G01 X-15.0644 Y-19.6443
G01 X-14.9241 Y-19.5728
G01 X-14.7743 Y-19.5241
G01 X-14.6187 Y-19.4995
G01 X-14.4613 Y-19.4995
G01 X-14.3057 Y-19.5241
G01 X-14.1559 Y-19.5728
G01 X-14.0156 Y-19.6443
G01 X-13.8882 Y-19.7369
G01 X-13.7769 Y-19.8482
G01 X-13.6843 Y-19.9756
G01 X-13.6128 Y-20.1159
G01 X-13.5641 Y-20.2657
G01 X-13.5395 Y-20.4213
G01 X-13.5395 Y-20.5787
G01 X-13.5641 Y-20.7343
G01 X-13.6093 Y-20.8735
G01 X-13.6120 Y-20.8850
G01 X-13.6134 Y-20.8968
G01 X-13.6155 Y-20.9716
G01 X-13.6148 Y-20.9840
G01 X-13.6125 Y-20.9963
G01 X-13.6096 Y-21.0059
G01 X-13.6046 Y-21.0173
G01 X-13.5688 Y-21.0799
G01 X-13.5619 Y-21.0898
G01 X-13.5540 Y-21.0988
G01 X-13.3794 Y-21.2732
G01 X-13.3702 Y-21.2806
G01 X-13.3622 Y-21.2858
G01 X-13.2966 Y-21.3216
G01 X-13.2852 Y-21.3266
G01 X-13.2733 Y-21.3301
G01 X-13.2611 Y-21.3321
G01 X-13.2537 Y-21.3326
G01 X-13.2462 Y-21.3325
G01 X-13.1740 Y-21.3274
G01 X-13.1642 Y-21.3262
G01 X-13.1545 Y-21.3240
G01 X-13.1451 Y-21.3209
G01 X-13.1360 Y-21.3169
G01 X-13.1274 Y-21.3120
G01 X-13.1212 Y-21.3077
G01 X-13.0614 Y-21.2628
G01 X-13.0524 Y-21.2543
G01 X-13.0475 Y-21.2487
G01 X-13.0430 Y-21.2427
G01 X-13.0378 Y-21.2343
G01 X-13.0324 Y-21.2231
G01 X-13.0071 Y-21.1553
G01 X-13.0035 Y-21.1435
G01 X-13.0021 Y-21.1362
G01 X-13.0012 Y-21.1288
G01 X-13.0005 Y-21.1115
G01 X-13.0005 Y-19.6352
G01 X-12.9918 Y-19.5913
G01 X-12.9585 Y-19.5415
G01 X-12.9087 Y-19.5082
G01 X-12.8648 Y-19.4995
G01 X-11.9415 Y-19.4995
G01 X-11.9320 Y-19.4990
G01 X-11.9226 Y-19.4977
G01 X-11.9156 Y-19.4961
G01 X-11.8463 Y-19.4758
G01 X-11.8370 Y-19.4725
G01 X-11.8281 Y-19.4684
G01 X-11.8176 Y-19.4621
G01 X-11.7911 Y-19.4410
G01 X-11.7831 Y-19.4339
G01 X-7.4661 Y-15.1169
G01 X-7.4612 Y-15.1116
G01 X-7.4568 Y-15.1061
G01 X-7.4527 Y-15.1002
G01 X-7.4491 Y-15.0941
G01 X-7.4144 Y-15.0306
G01 X-7.4095 Y-15.0194
G01 X-7.4066 Y-15.0100
G01 X-7.4046 Y-15.0004
G01 X-7.4011 Y-14.9692
G01 X-7.4005 Y-14.9585
G01 X-7.4005 Y-5.8021
G01 X-7.4015 Y-5.7903
G01 X-7.4039 Y-5.7786
G01 X-7.4242 Y-5.7093
G01 X-7.4266 Y-5.7022
G01 X-7.4317 Y-5.6909
G01 X-7.4381 Y-5.6803
G01 X-7.4442 Y-5.6724
G01 X-7.4528 Y-5.6635
G01 X-7.5075 Y-5.6161
G01 X-7.5133 Y-5.6114
G01 X-7.5195 Y-5.6072
G01 X-7.5260 Y-5.6034
G01 X-7.5328 Y-5.6002
G01 X-7.5397 Y-5.5974
G01 X-7.5517 Y-5.5940
G01 X-7.6103 Y-5.5815
G01 X-7.6221 Y-5.5805
G01 X-7.6648 Y-5.5805
G01 X-7.7087 Y-5.5718
G01 X-7.7585 Y-5.5385
G01 X-7.7918 Y-5.4887
G01 X-7.8005 Y-5.4448
G01 X-7.8005 Y-3.7152
G01 X-7.7918 Y-3.6713
G01 X-7.7585 Y-3.6215
G01 X-7.7087 Y-3.5882
G01 X-7.6648 Y-3.5795
G01 X-6.1211 Y-3.5795
G01 X-6.1093 Y-3.5785
G01 X-6.0976 Y-3.5761
G01 X-6.0283 Y-3.5558
G01 X-6.0166 Y-3.5515
G01 X-6.0077 Y-3.5471
G01 X-5.9993 Y-3.5419
G01 X-5.9934 Y-3.5374
G01 X-5.9860 Y-3.5307
G01 X-5.9809 Y-3.5253
G01 X-5.9351 Y-3.4725
G01 X-5.9304 Y-3.4667
G01 X-5.9262 Y-3.4605
G01 X-5.9224 Y-3.4540
G01 X-5.9192 Y-3.4472
G01 X-5.9164 Y-3.4403
G01 X-5.9142 Y-3.4331
G01 X-5.9018 Y-3.3768
G01 X-5.9000 Y-3.3650
G01 X-5.8995 Y-3.3555
G01 X-5.8995 Y-3.0621
G01 X-5.9002 Y-3.0502
G01 X-5.9018 Y-3.0408
G01 X-5.9036 Y-3.0339
G01 X-5.9232 Y-2.9668
G01 X-5.9265 Y-2.9575
G01 X-5.9319 Y-2.9463
G01 X-5.9371 Y-2.9379
G01 X-5.9448 Y-2.9281
G01 X-5.9518 Y-2.9211
G01 X-6.0103 Y-2.8705
G01 X-6.0164 Y-2.8662
G01 X-6.0227 Y-2.8623
G01 X-6.0339 Y-2.8568
G01 X-6.0456 Y-2.8528
G01 X-6.0553 Y-2.8507
G01 X-6.1269 Y-2.8403
G01 X-6.1389 Y-2.8393
G01 X-6.1461 Y-2.8394
G01 X-6.1533 Y-2.8401
G01 X-6.1651 Y-2.8422
G01 X-6.1765 Y-2.8458
G01 X-6.2406 Y-2.8721
G01 X-6.2470 Y-2.8755
G01 X-6.2532 Y-2.8794
G01 X-6.2756 Y-2.8957
G01 X-6.4159 Y-2.9672
G01 X-6.5657 Y-3.0159
G01 X-6.7213 Y-3.0405
G01 X-6.8787 Y-3.0405
G01 X-7.0343 Y-3.0159
G01 X-7.1841 Y-2.9672
G01 X-7.3244 Y-2.8957
G01 X-7.4518 Y-2.8031
G01 X-7.5631 Y-2.6918
G01 X-7.6557 Y-2.5644
G01 X-7.7272 Y-2.4241
G01 X-7.7628 Y-2.3145
G01 X-7.7681 Y-2.3014
G01 X-7.7726 Y-2.2932
G01 X-7.8041 Y-2.2418
G01 X-7.8096 Y-2.2342
G01 X-7.8174 Y-2.2254
G01 X-13.1088 Y3.0660
G01 X-13.1179 Y3.0737
G01 X-13.1278 Y3.0802
G01 X-13.1934 Y3.1160
G01 X-13.2002 Y3.1192
G01 X-13.2071 Y3.1218
G01 X-13.2143 Y3.1240
G01 X-13.2215 Y3.1255
G01 X-13.2339 Y3.1270
G01 X-13.2438 Y3.1270
G01 X-13.3184 Y3.1216
G01 X-13.3258 Y3.1207
G01 X-13.3355 Y3.1185
G01 X-13.3426 Y3.1162
G01 X-13.3518 Y3.1124
G01 X-13.3584 Y3.1090
G01 X-13.3668 Y3.1036
G01 X-13.4267 Y3.0588
G01 X-13.4323 Y3.0540
G01 X-13.4376 Y3.0487
G01 X-13.4425 Y3.0431
G01 X-13.4470 Y3.0371
G01 X-13.4522 Y3.0287
G01 X-13.4576 Y3.0175
G01 X-13.4837 Y2.9474
G01 X-13.4859 Y2.9403
G01 X-13.4879 Y2.9306
G01 X-13.4890 Y2.9208
G01 X-13.4894 Y2.9095
G01 X-13.4895 Y-2.5149
G01 X-13.4892 Y-2.5221
G01 X-13.4885 Y-2.5292
G01 X-13.4872 Y-2.5362
G01 X-13.4854 Y-2.5431
G01 X-13.4650 Y-2.6125
G01 X-13.4606 Y-2.6239
G01 X-13.4560 Y-2.6326
G01 X-13.4507 Y-2.6408
G01 X-13.4310 Y-2.6654
G01 X-13.4258 Y-2.6714
G01 X-11.8130 Y-4.2842
G01 X-11.8058 Y-4.2904
G01 X-11.7982 Y-4.2959
G01 X-11.7468 Y-4.3274
G01 X-11.7364 Y-4.3329
G01 X-11.7255 Y-4.3372
G01 X-11.6159 Y-4.3728
G01 X-11.4756 Y-4.4443
G01 X-11.3482 Y-4.5369
G01 X-11.2369 Y-4.6482
G01 X-11.1443 Y-4.7756
G01 X-11.0728 Y-4.9159
G01 X-11.0241 Y-5.0657
G01 X-10.9995 Y-5.2213
G01 X-10.9995 Y-5.3787
G01 X-11.0241 Y-5.5343
G01 X-11.0728 Y-5.6841
G01 X-11.1443 Y-5.8244
G01 X-11.2369 Y-5.9518
G01 X-11.3482 Y-6.0631
G01 X-11.4756 Y-6.1557
G01 X-11.6159 Y-6.2272
G01 X-11.7657 Y-6.2759
G01 X-11.9213 Y-6.3005
G01 X-12.0787 Y-6.3005
G01 X-12.2343 Y-6.2759
G01 X-12.3841 Y-6.2272
G01 X-12.5244 Y-6.1557
G01 X-12.6518 Y-6.0631
G01 X-12.7631 Y-5.9518
G01 X-12.8557 Y-5.8244
G01 X-12.9272 Y-5.6841
G01 X-12.9628 Y-5.5745
G01 X-12.9671 Y-5.5636
G01 X-12.9726 Y-5.5532
G01 X-13.0029 Y-5.5038
G01 X-13.0082 Y-5.4960
G01 X-13.0126 Y-5.4905
G01 X-13.8066 Y-4.6962
G01 X-13.8682 Y-4.6282
G01 X-13.9362 Y-4.5666
G01 X-15.0006 Y-3.5022
G01 X-15.0937 Y-3.3629
G01 X-15.1578 Y-3.2081
G01 X-15.1905 Y-3.0438
G01 X-15.1905 Y4.4279
G01 X-15.1915 Y4.4397
G01 X-15.1939 Y4.4514
G01 X-15.2158 Y4.5254
G01 X-15.2195 Y4.5346
G01 X-15.2254 Y4.5456
G01 X-15.2326 Y4.5556
G01 X-15.2393 Y4.5630
G01 X-15.2447 Y4.5681
G01 X-15.2994 Y4.6155
G01 X-15.3095 Y4.6228
G01 X-15.3182 Y4.6277
G01 X-15.3297 Y4.6326
G01 X-15.3393 Y4.6354
G01 X-15.3956 Y4.6477
G01 X-15.4074 Y4.6492
G01 X-15.4145 Y4.6495
G01 X-26.9149 Y4.6495
G01 X-26.9268 Y4.6488
G01 X-26.9339 Y4.6477
G01 X-26.9408 Y4.6461
G01 X-27.0101 Y4.6258
G01 X-27.0171 Y4.6234
G01 X-27.0239 Y4.6206
G01 X-27.0326 Y4.6160
G01 X-27.0408 Y4.6107
G01 X-27.0654 Y4.5910
G01 X-27.0733 Y4.5839
G01 X-34.1826 Y-2.5254
G01 X-34.1889 Y-2.5323
G01 X-34.1959 Y-2.5418
G01 X-34.2274 Y-2.5932
G01 X-34.2319 Y-2.6014
G01 X-34.2372 Y-2.6145
G01 X-34.2728 Y-2.7241
G01 X-34.3443 Y-2.8644
G01 X-34.4369 Y-2.9918
G01 X-34.5482 Y-3.1031
G01 X-34.6756 Y-3.1957
G01 X-34.8159 Y-3.2672
G01 X-34.9657 Y-3.3159
G01 X-35.1213 Y-3.3405
G01 X-35.2787 Y-3.3405
G01 X-35.4343 Y-3.3159
G01 X-35.5841 Y-3.2672
G01 X-35.7244 Y-3.1957
G01 X-35.8518 Y-3.1031
G01 X-35.9631 Y-2.9918
G01 X-36.0557 Y-2.8644
G01 X-36.1272 Y-2.7241
G01 X-36.1759 Y-2.5743
G01 X-36.2005 Y-2.4187
G01 X-36.2005 Y-2.2613
G01 X-36.1759 Y-2.1057
G01 X-36.1272 Y-1.9559
G01 X-36.0557 Y-1.8156
G01 X-35.9631 Y-1.6882
G01 X-35.8518 Y-1.5769
G01 X-35.7244 Y-1.4843
G01 X-35.5841 Y-1.4128
G01 X-35.4745 Y-1.3772
G01 X-35.4636 Y-1.3729
G01 X-35.4532 Y-1.3674
G01 X-35.4038 Y-1.3371
G01 X-35.3923 Y-1.3289
G01 X-35.3854 Y-1.3226
G01 X-34.5962 Y-0.5334
G00 Z2.0000
G00 X-35.4049 Y-1.4130
G01 F25.00
G01 Z-0.1866
G01 F120.00
G01 X-35.4758 Y-1.4309
G01 X-35.5635 Y-1.4623
G01 X-35.6478 Y-1.5022
G01 X-35.7278 Y-1.5501
G01 X-35.8027 Y-1.6056
G01 X-35.8718 Y-1.6682
G01 X-35.9344 Y-1.7373
G01 X-35.9899 Y-1.8122
G01 X-36.0378 Y-1.8922
G01 X-36.0777 Y-1.9765
G01 X-36.1091 Y-2.0642
G01 X-36.1317 Y-2.1547
G01 X-36.1454 Y-2.2469
G01 X-36.1500 Y-2.3400
G01 X-36.1454 Y-2.4331
G01 X-36.1317 Y-2.5253
G01 X-36.1091 Y-2.6158
G01 X-36.0777 Y-2.7035
G01 X-36.0378 Y-2.7878
G01 X-35.9899 Y-2.8678
G01 X-35.9344 Y-2.9427
G01 X-35.8718 Y-3.0118
G01 X-35.8027 Y-3.0744
G01 X-35.7278 Y-3.1299
G01 X-35.6478 Y-3.1778
G01 X-35.5635 Y-3.2177
G01 X-35.4758 Y-3.2491
G01 X-35.3853 Y-3.2717
G01 X-35.2931 Y-3.2854
G01 X-35.2000 Y-3.2900
G01 X-35.1069 Y-3.2854
G01 X-35.0147 Y-3.2717
G01 X-34.9242 Y-3.2491
G01 X-34.8410 Y-3.2195
G01 X-34.8320 Y-3.2157
G01 X-34.7522 Y-3.1778
G01 X-34.6722 Y-3.1299
G01 X-34.6012 Y-3.0774
G01 X-34.5936 Y-3.0712
G01 X-34.5282 Y-3.0118
G01 X-34.4656 Y-2.9427
G01 X-34.4129 Y-2.8718
G01 X-34.4075 Y-2.8636
G01 X-34.3622 Y-2.7878
G01 X-34.3243 Y-2.7080
G01 X-34.3205 Y-2.6990
G01 X-34.2909 Y-2.6158
G01 X-34.2730 Y-2.5449
G01 X-27.0285 Y4.6996
G01 X-15.1404 Y4.6996
G01 X-15.1404 Y-2.9600
G01 X-15.1365 Y-3.0384
G01 X-15.1258 Y-3.1113
G01 X-15.1245 Y-3.1185
G01 X-15.1072 Y-3.1876
G01 X-15.1043 Y-3.1970
G01 X-15.0794 Y-3.2663
G01 X-15.0481 Y-3.3329
G01 X-15.0434 Y-3.3416
G01 X-15.0055 Y-3.4047
G01 X-14.9617 Y-3.4639
G01 X-14.9571 Y-3.4696
G01 X-14.9059 Y-3.5259
G01 X-12.9270 Y-5.5049
G01 X-12.9091 Y-5.5758
G01 X-12.8777 Y-5.6635
G01 X-12.8378 Y-5.7478
G01 X-12.7925 Y-5.8236
G01 X-12.7871 Y-5.8318
G01 X-12.7374 Y-5.8988
G01 X-12.7312 Y-5.9064
G01 X-12.6718 Y-5.9718
G01 X-12.6027 Y-6.0344
G01 X-12.5318 Y-6.0871
G01 X-12.5236 Y-6.0925
G01 X-12.4478 Y-6.1378
G01 X-12.3635 Y-6.1777
G01 X-12.2758 Y-6.2091
G01 X-12.1901 Y-6.2307
G01 X-12.1805 Y-6.2326
G01 X-12.0931 Y-6.2454
G01 X-12.0000 Y-6.2500
G01 X-11.9118 Y-6.2458
G01 X-11.9020 Y-6.2448
G01 X-11.8147 Y-6.2317
G01 X-11.7242 Y-6.2091
G01 X-11.6410 Y-6.1795
G01 X-11.6320 Y-6.1757
G01 X-11.5522 Y-6.1378
G01 X-11.4764 Y-6.0925
G01 X-11.4682 Y-6.0871
G01 X-11.3973 Y-6.0344
G01 X-11.3282 Y-5.9718
G01 X-11.2688 Y-5.9064
G01 X-11.2626 Y-5.8988
G01 X-11.2101 Y-5.8278
G01 X-11.1622 Y-5.7478
G01 X-11.1243 Y-5.6680
G01 X-11.1205 Y-5.6590
G01 X-11.0909 Y-5.5758
G01 X-11.0683 Y-5.4853
G01 X-11.0552 Y-5.3980
G01 X-11.0542 Y-5.3882
G01 X-11.0500 Y-5.3000
G01 X-11.0546 Y-5.2069
G01 X-11.0683 Y-5.1147
G01 X-11.0896 Y-5.0290
G01 X-11.0924 Y-5.0196
G01 X-11.1205 Y-4.9410
G01 X-11.1243 Y-4.9320
G01 X-11.1622 Y-4.8522
G01 X-11.2101 Y-4.7722
G01 X-11.2656 Y-4.6973
G01 X-11.3265 Y-4.6300
G01 X-11.3936 Y-4.5688
G01 X-11.4012 Y-4.5626
G01 X-11.4722 Y-4.5101
G01 X-11.5522 Y-4.4622
G01 X-11.6320 Y-4.4243
G01 X-11.6410 Y-4.4205
G01 X-11.7242 Y-4.3909
G01 X-11.7951 Y-4.3730
G01 X-13.5396 Y-2.6285
G01 X-13.5396 Y3.5678
G01 X-7.7270 Y-2.2449
G01 X-7.7091 Y-2.3158
G01 X-7.6777 Y-2.4035
G01 X-7.6378 Y-2.4878
G01 X-7.5925 Y-2.5636
G01 X-7.5871 Y-2.5718
G01 X-7.5374 Y-2.6388
G01 X-7.5312 Y-2.6464
G01 X-7.4718 Y-2.7118
G01 X-7.4046 Y-2.7728
G01 X-7.3988 Y-2.7774
G01 X-7.3278 Y-2.8299
G01 X-7.2521 Y-2.8754
G01 X-7.2434 Y-2.8800
G01 X-7.1680 Y-2.9157
G01 X-7.1590 Y-2.9195
G01 X-7.0758 Y-2.9491
G01 X-6.9853 Y-2.9717
G01 X-6.8931 Y-2.9854
G01 X-6.8000 Y-2.9900
G01 X-6.7069 Y-2.9854
G01 X-6.6195 Y-2.9726
G01 X-6.6099 Y-2.9707
G01 X-6.5290 Y-2.9504
G01 X-6.5196 Y-2.9476
G01 X-6.4365 Y-2.9177
G01 X-6.3522 Y-2.8778
G01 X-6.2722 Y-2.8299
G01 X-6.1992 Y-2.7759
G01 X-6.1936 Y-2.7712
G01 X-6.1282 Y-2.7118
G01 X-6.0656 Y-2.6427
G01 X-6.0101 Y-2.5678
G01 X-5.9622 Y-2.4878
G01 X-5.9223 Y-2.4035
G01 X-5.8909 Y-2.3158
G01 X-5.8683 Y-2.2253
G01 X-5.8546 Y-2.1331
G01 X-5.8500 Y-2.0400
G01 X-5.8546 Y-1.9469
G01 X-5.8683 Y-1.8547
G01 X-5.8909 Y-1.7642
G01 X-5.9223 Y-1.6765
G01 X-5.9622 Y-1.5922
G01 X-6.0101 Y-1.5122
G01 X-6.0626 Y-1.4412
G01 X-6.0672 Y-1.4354
G01 X-6.1282 Y-1.3682
G01 X-6.1936 Y-1.3088
G01 X-6.2012 Y-1.3026
G01 X-6.2682 Y-1.2529
G01 X-6.2764 Y-1.2475
G01 X-6.3522 Y-1.2022
G01 X-6.4365 Y-1.1623
G01 X-6.5242 Y-1.1309
G01 X-6.5951 Y-1.1130
G01 X-13.5396 Y5.8315
G01 X-13.5396 Y8.7596
G01 X-7.3106 Y8.7596
G01 X-7.2478 Y8.7222
G01 X-7.1680 Y8.6843
G01 X-7.1590 Y8.6805
G01 X-7.0758 Y8.6509
G01 X-6.9853 Y8.6283
G01 X-6.8980 Y8.6152
G01 X-6.8882 Y8.6142
G01 X-6.7975 Y8.6100
G01 X-6.7118 Y8.6142
G01 X-6.7020 Y8.6152
G01 X-6.6147 Y8.6283
G01 X-6.5290 Y8.6496
G01 X-6.5196 Y8.6524
G01 X-6.4365 Y8.6823
G01 X-6.3522 Y8.7222
G01 X-6.2722 Y8.7701
G01 X-6.2012 Y8.8226
G01 X-6.1936 Y8.8288
G01 X-6.1282 Y8.8882
G01 X-6.0688 Y8.9536
G01 X-6.0626 Y8.9612
G01 X-6.0101 Y9.0322
G01 X-5.9622 Y9.1122
G01 X-5.9243 Y9.1920
G01 X-5.9205 Y9.2010
G01 X-5.8909 Y9.2842
G01 X-5.8693 Y9.3699
G01 X-5.8674 Y9.3795
G01 X-5.8546 Y9.4669
G01 X-5.8501 Y9.5551
G01 X-5.8501 Y9.5649
G01 X-5.8546 Y9.6531
G01 X-5.8674 Y9.7405
G01 X-5.8693 Y9.7501
G01 X-5.8909 Y9.8358
G01 X-5.9223 Y9.9235
G01 X-5.9600 Y10.0034
G01 X-5.9646 Y10.0121
G01 X-6.0101 Y10.0878
G01 X-6.0626 Y10.1588
G01 X-6.0688 Y10.1664
G01 X-6.1282 Y10.2318
G01 X-6.1973 Y10.2944
G01 X-6.2722 Y10.3499
G01 X-6.3479 Y10.3954
G01 X-6.3566 Y10.4000
G01 X-6.4365 Y10.4377
G01 X-6.5196 Y10.4676
G01 X-6.5290 Y10.4704
G01 X-6.6147 Y10.4917
G01 X-6.7069 Y10.5054
G01 X-6.8000 Y10.5100
G01 X-6.8931 Y10.5054
G01 X-6.9853 Y10.4917
G01 X-7.0758 Y10.4691
G01 X-7.1635 Y10.4377
G01 X-7.2478 Y10.3978
G01 X-7.3106 Y10.3604
G01 X-12.4078 Y10.3604
G01 X-4.4941 Y18.2741
G01 X-4.4413 Y18.3323
G01 X-4.3945 Y18.3953
G01 X-4.3566 Y18.4584
G01 X-4.3519 Y18.4671
G01 X-4.3206 Y18.5337
G01 X-4.2957 Y18.6030
G01 X-4.2928 Y18.6124
G01 X-4.2750 Y18.6839
G01 X-4.2641 Y18.7567
G01 X-4.2631 Y18.7664
G01 X-4.2596 Y18.8400
G01 X-4.2596 Y20.7500
G01 X-4.2075 Y20.7500
G01 X-4.1953 Y20.7511
G01 X-4.1857 Y20.7530
G01 X-4.1740 Y20.7567
G01 X-4.1650 Y20.7607
G01 X-4.1565 Y20.7655
G01 X-4.1485 Y20.7712
G01 X-4.1393 Y20.7793
G01 X-4.1312 Y20.7885
G01 X-4.1242 Y20.7986
G01 X-4.1186 Y20.8095
G01 X-4.1150 Y20.8186
G01 X-4.1119 Y20.8305
G01 X-4.1103 Y20.8426
G01 X-4.1100 Y20.8500
G01 X-4.1100 Y22.5500
G01 X-4.1103 Y22.5574
G01 X-4.1111 Y22.5647
G01 X-4.1124 Y22.5719
G01 X-4.1150 Y22.5814
G01 X-4.1176 Y22.5883
G01 X-4.1218 Y22.5971
G01 X-4.1255 Y22.6035
G01 X-4.1312 Y22.6115
G01 X-4.1393 Y22.6207
G01 X-4.1466 Y22.6273
G01 X-4.1544 Y22.6331
G01 X-4.1650 Y22.6393
G01 X-4.1763 Y22.6442
G01 X-4.1881 Y22.6476
G01 X-4.1978 Y22.6492
G01 X-4.2100 Y22.6500
G01 X-5.9125 Y22.6500
G01 X-5.9247 Y22.6489
G01 X-5.9343 Y22.6470
G01 X-5.9437 Y22.6442
G01 X-5.9528 Y22.6404
G01 X-5.9614 Y22.6358
G01 X-5.9696 Y22.6303
G01 X-5.9772 Y22.6241
G01 X-5.9857 Y22.6153
G01 X-5.9918 Y22.6076
G01 X-5.9958 Y22.6014
G01 X-5.9993 Y22.5950
G01 X-6.0033 Y22.5860
G01 X-6.0057 Y22.5790
G01 X-6.0081 Y22.5695
G01 X-6.0092 Y22.5622
G01 X-6.0100 Y22.5525
G01 X-6.0100 Y20.8475
G01 X-6.0089 Y20.8353
G01 X-6.0064 Y20.8233
G01 X-6.0024 Y20.8117
G01 X-5.9982 Y20.8029
G01 X-5.9918 Y20.7924
G01 X-5.9841 Y20.7828
G01 X-5.9753 Y20.7743
G01 X-5.9656 Y20.7669
G01 X-5.9550 Y20.7607
G01 X-5.9460 Y20.7567
G01 X-5.9343 Y20.7530
G01 X-5.9247 Y20.7511
G01 X-5.9125 Y20.7500
G01 X-5.8604 Y20.7500
G01 X-5.8604 Y19.1715
G01 X-14.6715 Y10.3604
G01 X-34.6596 Y10.3604
G01 X-34.6992 Y10.3959
G01 X-34.7682 Y10.4471
G01 X-34.7743 Y10.4512
G01 X-34.8522 Y10.4978
G01 X-34.9320 Y10.5357
G01 X-34.9387 Y10.5386
G01 X-35.0242 Y10.5691
G01 X-35.1147 Y10.5917
G01 X-35.2069 Y10.6054
G01 X-35.3000 Y10.6100
G01 X-35.3931 Y10.6054
G01 X-35.4805 Y10.5926
G01 X-35.4901 Y10.5907
G01 X-35.5710 Y10.5704
G01 X-35.5804 Y10.5676
G01 X-35.6635 Y10.5377
G01 X-35.7478 Y10.4978
G01 X-35.8278 Y10.4499
G01 X-35.9008 Y10.3959
G01 X-35.9682 Y10.3351
G01 X-35.9751 Y10.3282
G01 X-36.0344 Y10.2627
G01 X-36.0899 Y10.1878
G01 X-36.1354 Y10.1121
G01 X-36.1400 Y10.1034
G01 X-36.1777 Y10.0235
G01 X-36.2091 Y9.9358
G01 X-36.2317 Y9.8453
G01 X-36.2448 Y9.7580
G01 X-36.2458 Y9.7482
G01 X-36.2500 Y9.6600
G01 X-36.2454 Y9.5669
G01 X-36.2326 Y9.4795
G01 X-36.2307 Y9.4699
G01 X-36.2091 Y9.3842
G01 X-36.1795 Y9.3010
G01 X-36.1757 Y9.2920
G01 X-36.1378 Y9.2122
G01 X-36.0899 Y9.1322
G01 X-36.0344 Y9.0573
G01 X-35.9751 Y8.9918
G01 X-35.9682 Y8.9849
G01 X-35.9027 Y8.9256
G01 X-35.8278 Y8.8701
G01 X-35.7521 Y8.8246
G01 X-35.7434 Y8.8200
G01 X-35.6635 Y8.7823
G01 X-35.5758 Y8.7509
G01 X-35.4901 Y8.7293
G01 X-35.4805 Y8.7274
G01 X-35.3907 Y8.7144
G01 X-35.3000 Y8.7100
G01 X-35.2118 Y8.7142
G01 X-35.2044 Y8.7148
G01 X-35.1195 Y8.7274
G01 X-35.1123 Y8.7288
G01 X-35.0266 Y8.7502
G01 X-34.9994 Y8.7596
G01 X-15.1404 Y8.7596
G01 X-15.1404 Y6.3004
G01 X-27.3600 Y6.3004
G01 X-27.4384 Y6.2965
G01 X-27.5113 Y6.2858
G01 X-27.5209 Y6.2839
G01 X-27.5923 Y6.2659
G01 X-27.6617 Y6.2412
G01 X-27.6708 Y6.2374
G01 X-27.7351 Y6.2070
G01 X-27.8005 Y6.1681
G01 X-27.8087 Y6.1626
G01 X-27.8677 Y6.1187
G01 X-27.9259 Y6.0659
G01 X-35.4049 Y-1.4130
G00 Z2.0000
G00 X-34.9264 Y-5.8300
G01 F25.00
G01 Z-0.1866
G01 F120.00
G01 X-34.8873 Y-5.8397
G01 X-34.8388 Y-5.8470
G01 X-34.8290 Y-5.8479
G01 X-34.7800 Y-5.8502
G01 X-30.7300 Y-5.8502
G01 X-30.7300 Y-6.1500
G01 X-30.7295 Y-6.1598
G01 X-30.7281 Y-6.1695
G01 X-30.7264 Y-6.1767
G01 X-30.7242 Y-6.1837
G01 X-30.7214 Y-6.1905
G01 X-30.7182 Y-6.1971
G01 X-30.7145 Y-6.2035
G01 X-30.7103 Y-6.2096
G01 X-30.7057 Y-6.2153
G01 X-30.7007 Y-6.2207
G01 X-30.6953 Y-6.2257
G01 X-30.6896 Y-6.2303
G01 X-30.6835 Y-6.2345
G01 X-30.6771 Y-6.2382
G01 X-30.6705 Y-6.2414
G01 X-30.6637 Y-6.2442
G01 X-30.6519 Y-6.2476
G01 X-30.6422 Y-6.2492
G01 X-30.6300 Y-6.2500
G01 X-28.9300 Y-6.2500
G01 X-28.9202 Y-6.2495
G01 X-28.9081 Y-6.2476
G01 X-28.9010 Y-6.2457
G01 X-28.8940 Y-6.2433
G01 X-28.8872 Y-6.2404
G01 X-28.8786 Y-6.2358
G01 X-28.8724 Y-6.2318
G01 X-28.8666 Y-6.2273
G01 X-28.8593 Y-6.2207
G01 X-28.8543 Y-6.2153
G01 X-28.8482 Y-6.2076
G01 X-28.8442 Y-6.2014
G01 X-28.8407 Y-6.1950
G01 X-28.8367 Y-6.1860
G01 X-28.8343 Y-6.1790
G01 X-28.8324 Y-6.1719
G01 X-28.8308 Y-6.1622
G01 X-28.8301 Y-6.1549
G01 X-28.8300 Y-4.4500
G01 X-28.8305 Y-4.4402
G01 X-28.8324 Y-4.4281
G01 X-28.8343 Y-4.4210
G01 X-28.8376 Y-4.4117
G01 X-28.8418 Y-4.4029
G01 X-28.8455 Y-4.3965
G01 X-28.8512 Y-4.3885
G01 X-28.8559 Y-4.3828
G01 X-28.8610 Y-4.3776
G01 X-28.8666 Y-4.3727
G01 X-28.8724 Y-4.3682
G01 X-28.8786 Y-4.3642
G01 X-28.8850 Y-4.3607
G01 X-28.8940 Y-4.3567
G01 X-28.9010 Y-4.3543
G01 X-28.9081 Y-4.3524
G01 X-28.9153 Y-4.3511
G01 X-28.9251 Y-4.3501
G01 X-30.6300 Y-4.3500
G01 X-30.6374 Y-4.3503
G01 X-30.6471 Y-4.3515
G01 X-30.6543 Y-4.3530
G01 X-30.6614 Y-4.3550
G01 X-30.6683 Y-4.3576
G01 X-30.6750 Y-4.3607
G01 X-30.6814 Y-4.3642
G01 X-30.6876 Y-4.3682
G01 X-30.6953 Y-4.3743
G01 X-30.7007 Y-4.3793
G01 X-30.7057 Y-4.3847
G01 X-30.7103 Y-4.3904
G01 X-30.7145 Y-4.3965
G01 X-30.7182 Y-4.4029
G01 X-30.7214 Y-4.4095
G01 X-30.7242 Y-4.4163
G01 X-30.7264 Y-4.4233
G01 X-30.7281 Y-4.4305
G01 X-30.7295 Y-4.4402
G01 X-30.7300 Y-4.4500
G01 X-30.7300 Y-4.7498
G01 X-34.2500 Y-4.7498
G01 X-34.2500 Y-4.0300
G01 X-34.2503 Y-4.0226
G01 X-34.2511 Y-4.0153
G01 X-34.2524 Y-4.0081
G01 X-34.2558 Y-3.9963
G01 X-34.2586 Y-3.9895
G01 X-34.2618 Y-3.9829
G01 X-34.2682 Y-3.9724
G01 X-34.2727 Y-3.9666
G01 X-34.2776 Y-3.9610
G01 X-34.2866 Y-3.9527
G01 X-34.2965 Y-3.9455
G01 X-34.3029 Y-3.9418
G01 X-34.3095 Y-3.9386
G01 X-34.3186 Y-3.9350
G01 X-34.3281 Y-3.9324
G01 X-34.3378 Y-3.9308
G01 X-34.3500 Y-3.9300
G01 X-36.0500 Y-3.9300
G01 X-36.0574 Y-3.9303
G01 X-36.0647 Y-3.9311
G01 X-36.0767 Y-3.9336
G01 X-36.0837 Y-3.9358
G01 X-36.0905 Y-3.9386
G01 X-36.0971 Y-3.9418
G01 X-36.1035 Y-3.9455
G01 X-36.1134 Y-3.9527
G01 X-36.1224 Y-3.9610
G01 X-36.1303 Y-3.9704
G01 X-36.1370 Y-3.9807
G01 X-36.1424 Y-3.9917
G01 X-36.1464 Y-4.0033
G01 X-36.1489 Y-4.0153
G01 X-36.1500 Y-4.0275
G01 X-36.1500 Y-5.7300
G01 X-36.1497 Y-5.7374
G01 X-36.1489 Y-5.7447
G01 X-36.1476 Y-5.7519
G01 X-36.1457 Y-5.7590
G01 X-36.1433 Y-5.7660
G01 X-36.1404 Y-5.7728
G01 X-36.1345 Y-5.7835
G01 X-36.1273 Y-5.7934
G01 X-36.1190 Y-5.8024
G01 X-36.1115 Y-5.8088
G01 X-36.1014 Y-5.8158
G01 X-36.0905 Y-5.8214
G01 X-36.0790 Y-5.8257
G01 X-36.0671 Y-5.8285
G01 X-36.0549 Y-5.8299
G01 X-34.9264 Y-5.8300
G00 Z2.0000
G00 X-6.8369 Y22.3518
G01 F25.00
G01 Z-0.1866
G01 F120.00
G01 X-6.7443 Y22.2244
G01 X-6.6728 Y22.0841
G01 X-6.6241 Y21.9343
G01 X-6.5995 Y21.7787
G01 X-6.5995 Y21.6213
G01 X-6.6241 Y21.4657
G01 X-6.6728 Y21.3159
G01 X-6.7443 Y21.1756
G01 X-6.8369 Y21.0482
G01 X-6.9482 Y20.9369
G01 X-7.0756 Y20.8443
G01 X-7.2159 Y20.7728
G01 X-7.3657 Y20.7241
G01 X-7.5213 Y20.6995
G01 X-7.6787 Y20.6995
G01 X-7.8343 Y20.7241
G01 X-7.9841 Y20.7728
G01 X-8.1244 Y20.8443
G01 X-8.2518 Y20.9369
G01 X-8.3505 Y21.0356
G01 X-8.3577 Y21.0418
G01 X-8.3655 Y21.0473
G01 X-8.4329 Y21.0844
G01 X-8.4395 Y21.0877
G01 X-8.4463 Y21.0905
G01 X-8.4557 Y21.0934
G01 X-8.4653 Y21.0954
G01 X-8.4965 Y21.0989
G01 X-8.5045 Y21.0995
G01 X-20.3928 Y21.0995
G01 X-20.3999 Y21.0992
G01 X-20.4070 Y21.0985
G01 X-20.4141 Y21.0972
G01 X-20.4210 Y21.0954
G01 X-20.4927 Y21.0743
G01 X-20.5018 Y21.0706
G01 X-20.5126 Y21.0648
G01 X-20.5226 Y21.0577
G01 X-20.5493 Y21.0358
G01 X-20.6482 Y20.9369
G01 X-20.7756 Y20.8443
G01 X-20.9159 Y20.7728
G01 X-21.0657 Y20.7241
G01 X-21.2213 Y20.6995
G01 X-21.3787 Y20.6995
G01 X-21.5343 Y20.7241
G01 X-21.6841 Y20.7728
G01 X-21.8244 Y20.8443
G01 X-21.9518 Y20.9369
G01 X-22.0631 Y21.0482
G01 X-22.1557 Y21.1756
G01 X-22.2272 Y21.3159
G01 X-22.2759 Y21.4657
G01 X-22.3005 Y21.6213
G01 X-22.3005 Y21.7787
G01 X-22.2759 Y21.9343
G01 X-22.2272 Y22.0841
G01 X-22.1557 Y22.2244
G01 X-22.0631 Y22.3518
G01 X-21.9518 Y22.4631
G01 X-21.8244 Y22.5557
G01 X-21.6841 Y22.6272
G01 X-21.5343 Y22.6759
G01 X-21.3787 Y22.7005
G01 X-21.2213 Y22.7005
G01 X-21.0657 Y22.6759
G01 X-20.9159 Y22.6272
G01 X-20.7756 Y22.5557
G01 X-20.6482 Y22.4631
G01 X-20.5495 Y22.3644
G01 X-20.5423 Y22.3582
G01 X-20.5345 Y22.3527
G01 X-20.4671 Y22.3156
G01 X-20.4605 Y22.3123
G01 X-20.4537 Y22.3095
G01 X-20.4443 Y22.3066
G01 X-20.4347 Y22.3046
G01 X-20.4035 Y22.3011
G01 X-20.3955 Y22.3005
G01 X-8.5048 Y22.3005
G01 X-8.4930 Y22.3015
G01 X-8.4813 Y22.3039
G01 X-8.4120 Y22.3242
G01 X-8.4050 Y22.3266
G01 X-8.3982 Y22.3294
G01 X-8.3874 Y22.3352
G01 X-8.3774 Y22.3423
G01 X-8.3507 Y22.3642
G01 X-8.2518 Y22.4631
G01 X-8.1244 Y22.5557
G01 X-7.9841 Y22.6272
G01 X-7.8343 Y22.6759
G01 X-7.6787 Y22.7005
G01 X-7.5213 Y22.7005
G01 X-7.3657 Y22.6759
G01 X-7.2159 Y22.6272
G01 X-7.0756 Y22.5557
G01 X-6.9482 Y22.4631
G01 X-6.8369 Y22.3518
G00 Z2.0000
M05
G00 Z2.0000
G00 Z2.50
G00 X0.0 Y0.0


