(G-CODE GENERATED BY FLATCAM v8.994 - www.flatcam.org - Version Date: 2020/11/7)

(Name: M¾dulo Cabeza-B_Cu.gbr_ncc_cnc)
(Type: G-code from Geometry)
(Units: MM)

(Created on Thursday, 30 October 2025 at 10:12)

(This preprocessor is the default preprocessor used by FlatCAM.)
(It is made to work with MACH3 compatible motion controllers.)

(TOOL DIAMETER: 0.2 mm)
(Feedrate_XY: 120.0 mm/min)
(Feedrate_Z: 25.0 mm/min)
(Feedrate rapids 1500.0 mm/min)

(Z_Cut: -0.1866 mm)
(Z_Move: 2.0 mm)
(Z Start: None mm)
(Z End: 2.5 mm)
(X,Y End: 0.0000, 0.0000 mm)
(Steps per circle: 64)
(Preprocessor Geometry: default)

(X range:    5.4495 ...   35.8905  mm)
(Y range:  -29.5505 ...   -1.6005  mm)

(Spindle Speed: 10000.0 RPM)
G21
G90
G94

G01 F120.00

M5
G00 Z15.0000
G00 X0.0000 Y0.0000
T1
M6    
(MSG, Change to Tool Dia = 0.2000)
M0
G00 Z15.0000

M03 S10000.0
G01 F120.00
G00 X7.8980 Y-1.6005
G01 F25.00
G01 Z-0.1866
G01 F120.00
G01 X27.2020 Y-1.6005
G01 X27.1978 Y-1.6304
G01 X27.1971 Y-1.6428
G01 X27.1974 Y-1.6502
G01 X27.1983 Y-1.6576
G01 X27.1997 Y-1.6649
G01 X27.2017 Y-1.6721
G01 X27.2061 Y-1.6837
G01 X27.2373 Y-1.7517
G01 X27.2423 Y-1.7602
G01 X27.2465 Y-1.7663
G01 X27.2512 Y-1.7720
G01 X27.2589 Y-1.7803
G01 X29.1624 Y-3.6839
G01 X29.1676 Y-3.6888
G01 X29.1732 Y-3.6932
G01 X29.1831 Y-3.6998
G01 X29.2487 Y-3.7356
G01 X29.2576 Y-3.7396
G01 X29.2669 Y-3.7428
G01 X29.2741 Y-3.7446
G01 X29.2813 Y-3.7458
G01 X29.3128 Y-3.7492
G01 X29.3208 Y-3.7495
G01 X31.2255 Y-3.7495
G01 X31.2326 Y-3.7492
G01 X31.2421 Y-3.7481
G01 X31.2537 Y-3.7454
G01 X31.3231 Y-3.7250
G01 X31.3346 Y-3.7205
G01 X31.3456 Y-3.7146
G01 X31.3556 Y-3.7074
G01 X31.3648 Y-3.6990
G01 X31.4139 Y-3.6425
G01 X31.4186 Y-3.6367
G01 X31.4228 Y-3.6305
G01 X31.4277 Y-3.6218
G01 X31.4308 Y-3.6149
G01 X31.4334 Y-3.6079
G01 X31.4360 Y-3.5983
G01 X31.4481 Y-3.5421
G01 X31.4490 Y-3.5350
G01 X31.4495 Y-3.5279
G01 X31.4495 Y-3.4401
G01 X31.4553 Y-3.4108
G01 X31.4775 Y-3.3775
G01 X31.5108 Y-3.3553
G01 X31.5401 Y-3.3495
G01 X33.2599 Y-3.3495
G01 X33.2892 Y-3.3553
G01 X33.3225 Y-3.3775
G01 X33.3447 Y-3.4108
G01 X33.3505 Y-3.4401
G01 X33.3505 Y-5.1599
G01 X33.3447 Y-5.1892
G01 X33.3225 Y-5.2225
G01 X33.2892 Y-5.2447
G01 X33.2599 Y-5.2505
G01 X32.3160 Y-5.2506
G01 X32.3042 Y-5.2519
G01 X32.2949 Y-5.2539
G01 X32.2232 Y-5.2750
G01 X32.2163 Y-5.2775
G01 X32.2096 Y-5.2805
G01 X32.2031 Y-5.2840
G01 X32.1969 Y-5.2879
G01 X32.1704 Y-5.3090
G01 X32.1624 Y-5.3161
G01 X30.3144 Y-7.1641
G01 X30.3068 Y-7.1732
G01 X30.3002 Y-7.1831
G01 X30.2656 Y-7.2465
G01 X30.2604 Y-7.2576
G01 X30.2566 Y-7.2693
G01 X30.2546 Y-7.2789
G01 X30.2511 Y-7.3101
G01 X30.2505 Y-7.3208
G01 X30.2505 Y-21.5792
G01 X30.2512 Y-21.5911
G01 X30.2523 Y-21.5981
G01 X30.2546 Y-21.6074
G01 X30.2742 Y-21.6744
G01 X30.2784 Y-21.6859
G01 X30.2827 Y-21.6947
G01 X30.2893 Y-21.7051
G01 X30.3090 Y-21.7296
G01 X30.3142 Y-21.7357
G01 X32.8276 Y-24.2491
G01 X32.8878 Y-24.3392
G01 X32.9293 Y-24.4394
G01 X32.9505 Y-24.5458
G01 X32.9505 Y-27.7135
G01 X32.9510 Y-27.7230
G01 X32.9523 Y-27.7324
G01 X32.9539 Y-27.7394
G01 X32.9750 Y-27.8111
G01 X32.9775 Y-27.8180
G01 X32.9805 Y-27.8247
G01 X32.9840 Y-27.8312
G01 X32.9879 Y-27.8374
G01 X33.0090 Y-27.8639
G01 X33.0142 Y-27.8700
G01 X33.1383 Y-27.9941
G01 X33.2423 Y-28.1498
G01 X33.3140 Y-28.3227
G01 X33.3505 Y-28.5064
G01 X33.3505 Y-28.6936
G01 X33.3140 Y-28.8772
G01 X33.2423 Y-29.0502
G01 X33.1383 Y-29.2059
G01 X33.0059 Y-29.3383
G01 X32.8502 Y-29.4423
G01 X32.6773 Y-29.5140
G01 X32.4936 Y-29.5505
G01 X32.3064 Y-29.5505
G01 X32.1227 Y-29.5140
G01 X31.9498 Y-29.4423
G01 X31.7941 Y-29.3383
G01 X31.6617 Y-29.2059
G01 X31.5577 Y-29.0502
G01 X31.4860 Y-28.8773
G01 X31.4495 Y-28.6936
G01 X31.4495 Y-28.5064
G01 X31.4860 Y-28.3227
G01 X31.5577 Y-28.1498
G01 X31.6617 Y-27.9941
G01 X31.7839 Y-27.8719
G01 X31.7903 Y-27.8649
G01 X31.7960 Y-27.8572
G01 X31.8009 Y-27.8491
G01 X31.8344 Y-27.7878
G01 X31.8396 Y-27.7767
G01 X31.8434 Y-27.7650
G01 X31.8454 Y-27.7554
G01 X31.8494 Y-27.7189
G01 X31.8495 Y-24.9208
G01 X31.8488 Y-24.9089
G01 X31.8467 Y-24.8972
G01 X31.8243 Y-24.8209
G01 X31.8216 Y-24.8141
G01 X31.8184 Y-24.8074
G01 X31.8121 Y-24.7969
G01 X31.7910 Y-24.7704
G01 X31.7839 Y-24.7624
G01 X29.2724 Y-22.2509
G01 X29.2122 Y-22.1608
G01 X29.1707 Y-22.0606
G01 X29.1495 Y-21.9542
G01 X29.1495 Y-6.9458
G01 X29.1707 Y-6.8394
G01 X29.2122 Y-6.7392
G01 X29.2724 Y-6.6491
G01 X30.6886 Y-5.2329
G01 X30.6934 Y-5.2277
G01 X30.6979 Y-5.2221
G01 X30.7020 Y-5.2162
G01 X30.7056 Y-5.2101
G01 X30.7391 Y-5.1488
G01 X30.7434 Y-5.1398
G01 X30.7476 Y-5.1281
G01 X30.7502 Y-5.1160
G01 X30.7513 Y-5.1037
G01 X30.7511 Y-5.0937
G01 X30.7456 Y-5.0191
G01 X30.7434 Y-5.0069
G01 X30.7396 Y-4.9951
G01 X30.7344 Y-4.9838
G01 X30.7279 Y-4.9732
G01 X30.6846 Y-4.9153
G01 X30.6782 Y-4.9077
G01 X30.6712 Y-4.9007
G01 X30.6614 Y-4.8930
G01 X30.6530 Y-4.8878
G01 X30.6418 Y-4.8824
G01 X30.5740 Y-4.8571
G01 X30.5669 Y-4.8548
G01 X30.5598 Y-4.8530
G01 X30.5525 Y-4.8517
G01 X30.5451 Y-4.8510
G01 X30.5338 Y-4.8506
G01 X28.9458 Y-4.8505
G01 X28.8394 Y-4.8293
G01 X28.7392 Y-4.7878
G01 X28.6491 Y-4.7276
G01 X26.7359 Y-2.8144
G01 X26.7268 Y-2.8068
G01 X26.7169 Y-2.8002
G01 X26.6535 Y-2.7656
G01 X26.6446 Y-2.7613
G01 X26.6331 Y-2.7572
G01 X26.6235 Y-2.7550
G01 X26.5899 Y-2.7511
G01 X26.5792 Y-2.7505
G01 X8.5208 Y-2.7505
G01 X8.5137 Y-2.7508
G01 X8.5066 Y-2.7515
G01 X8.4949 Y-2.7539
G01 X8.4256 Y-2.7742
G01 X8.4186 Y-2.7766
G01 X8.4118 Y-2.7794
G01 X8.4031 Y-2.7840
G01 X8.3949 Y-2.7893
G01 X8.3704 Y-2.8090
G01 X8.3624 Y-2.8161
G01 X7.0144 Y-4.1641
G01 X7.0068 Y-4.1732
G01 X7.0002 Y-4.1831
G01 X6.9656 Y-4.2465
G01 X6.9623 Y-4.2531
G01 X6.9595 Y-4.2599
G01 X6.9572 Y-4.2669
G01 X6.9554 Y-4.2741
G01 X6.9542 Y-4.2813
G01 X6.9511 Y-4.3101
G01 X6.9505 Y-4.3208
G01 X6.9505 Y-6.3255
G01 X6.9510 Y-6.3350
G01 X6.9519 Y-6.3421
G01 X6.9539 Y-6.3514
G01 X6.9742 Y-6.4207
G01 X6.9785 Y-6.4324
G01 X6.9841 Y-6.4434
G01 X6.9881 Y-6.4497
G01 X6.9926 Y-6.4556
G01 X7.0010 Y-6.4648
G01 X7.0614 Y-6.5170
G01 X7.0695 Y-6.5228
G01 X7.0760 Y-6.5266
G01 X7.0851 Y-6.5308
G01 X7.0921 Y-6.5334
G01 X7.1017 Y-6.5360
G01 X7.1579 Y-6.5481
G01 X7.1650 Y-6.5490
G01 X7.1721 Y-6.5495
G01 X7.2599 Y-6.5495
G01 X7.2892 Y-6.5553
G01 X7.3225 Y-6.5775
G01 X7.3447 Y-6.6108
G01 X7.3505 Y-6.6401
G01 X7.3505 Y-8.3599
G01 X7.3447 Y-8.3892
G01 X7.3225 Y-8.4225
G01 X7.2892 Y-8.4447
G01 X7.2599 Y-8.4505
G01 X5.5401 Y-8.4505
G01 X5.5108 Y-8.4447
G01 X5.4775 Y-8.4225
G01 X5.4553 Y-8.3892
G01 X5.4495 Y-8.3599
G01 X5.4495 Y-6.6401
G01 X5.4553 Y-6.6108
G01 X5.4775 Y-6.5775
G01 X5.5108 Y-6.5553
G01 X5.5401 Y-6.5495
G01 X5.6279 Y-6.5495
G01 X5.6374 Y-6.5488
G01 X5.6444 Y-6.5477
G01 X5.6537 Y-6.5454
G01 X5.7254 Y-6.5242
G01 X5.7324 Y-6.5215
G01 X5.7391 Y-6.5183
G01 X5.7456 Y-6.5146
G01 X5.7517 Y-6.5104
G01 X5.7612 Y-6.5025
G01 X5.7681 Y-6.4953
G01 X5.8155 Y-6.4406
G01 X5.8200 Y-6.4346
G01 X5.8254 Y-6.4262
G01 X5.8308 Y-6.4149
G01 X5.8348 Y-6.4031
G01 X5.8485 Y-6.3397
G01 X5.8492 Y-6.3326
G01 X5.8495 Y-6.3255
G01 X5.8495 Y-3.9458
G01 X5.8707 Y-3.8394
G01 X5.9122 Y-3.7392
G01 X5.9724 Y-3.6491
G01 X7.8419 Y-1.7794
G01 X7.8493 Y-1.7702
G01 X7.8556 Y-1.7601
G01 X7.8903 Y-1.6966
G01 X7.8944 Y-1.6875
G01 X7.8969 Y-1.6805
G01 X7.8988 Y-1.6733
G01 X7.9002 Y-1.6660
G01 X7.9011 Y-1.6586
G01 X7.9014 Y-1.6512
G01 X7.8980 Y-1.6005
G00 Z2.0000
G00 X6.9005 Y-9.2319
G01 F25.00
G01 Z-0.1866
G01 F120.00
G01 X7.0056 Y-9.3021
G01 X7.1379 Y-9.4344
G01 X7.2085 Y-9.5400
G01 X7.2067 Y-9.5400
G01 X7.1885 Y-9.5102
G01 X7.1359 Y-9.4392
G01 X7.1312 Y-9.4336
G01 X7.0718 Y-9.3682
G01 X7.0064 Y-9.3088
G01 X7.0008 Y-9.3041
G01 X6.9298 Y-9.2515
G01 X6.9005 Y-9.2336
G01 X6.9005 Y-9.2319
G00 Z2.0000
G00 X5.5933 Y-9.5400
G01 F25.00
G01 Z-0.1866
G01 F120.00
G01 X5.5915 Y-9.5400
G01 X5.6621 Y-9.4344
G01 X5.7944 Y-9.3021
G01 X5.9000 Y-9.2315
G01 X5.9000 Y-9.2333
G01 X5.8702 Y-9.2515
G01 X5.7992 Y-9.3041
G01 X5.7936 Y-9.3088
G01 X5.7282 Y-9.3682
G01 X5.6688 Y-9.4336
G01 X5.6641 Y-9.4392
G01 X5.6115 Y-9.5102
G01 X5.5933 Y-9.5400
G00 Z2.0000
G00 X5.5915 Y-10.5400
G01 F25.00
G01 Z-0.1866
G01 F120.00
G01 X5.5933 Y-10.5400
G01 X5.6115 Y-10.5698
G01 X5.6641 Y-10.6408
G01 X5.6688 Y-10.6464
G01 X5.7265 Y-10.7100
G01 X5.7318 Y-10.7151
G01 X5.7973 Y-10.7744
G01 X5.8722 Y-10.8299
G01 X5.7944 Y-10.7779
G01 X5.6621 Y-10.6456
G01 X5.5915 Y-10.5400
G00 Z2.0000
G00 X5.8722 Y-10.8299
G01 F25.00
G01 Z-0.1866
G01 F120.00
G01 X5.9000 Y-10.8467
G01 X5.9000 Y-10.8485
G01 X5.8722 Y-10.8299
G00 Z2.0000
G00 X6.9000 Y-10.8467
G01 F25.00
G01 Z-0.1866
G01 F120.00
G01 X6.9298 Y-10.8285
G01 X7.0008 Y-10.7759
G01 X7.0064 Y-10.7712
G01 X7.0718 Y-10.7118
G01 X7.1312 Y-10.6464
G01 X7.1359 Y-10.6408
G01 X7.1885 Y-10.5698
G01 X7.2067 Y-10.5400
G01 X7.2085 Y-10.5400
G01 X7.1379 Y-10.6456
G01 X7.0056 Y-10.7779
G01 X6.9000 Y-10.8485
G01 X6.9000 Y-10.8467
G00 Z2.0000
G00 X6.3951 Y-13.5299
G01 F25.00
G01 Z-0.1866
G01 F120.00
G01 X6.3069 Y-13.5254
G01 X6.2147 Y-13.5117
G01 X6.1242 Y-13.4891
G01 X6.0365 Y-13.4577
G01 X5.9522 Y-13.4178
G01 X5.8722 Y-13.3699
G01 X5.7973 Y-13.3144
G01 X5.7318 Y-13.2551
G01 X5.7249 Y-13.2482
G01 X5.6656 Y-13.1827
G01 X5.6101 Y-13.1078
G01 X5.5622 Y-13.0278
G01 X5.5243 Y-12.9480
G01 X5.5205 Y-12.9390
G01 X5.4909 Y-12.8558
G01 X5.4693 Y-12.7701
G01 X5.4674 Y-12.7605
G01 X5.4552 Y-12.6780
G01 X5.4542 Y-12.6682
G01 X5.4500 Y-12.5800
G01 X5.4542 Y-12.4918
G01 X5.4552 Y-12.4820
G01 X5.4683 Y-12.3947
G01 X5.4896 Y-12.3090
G01 X5.4924 Y-12.2996
G01 X5.5223 Y-12.2165
G01 X5.5600 Y-12.1366
G01 X5.5646 Y-12.1279
G01 X5.6101 Y-12.0522
G01 X5.6626 Y-11.9812
G01 X5.6688 Y-11.9736
G01 X5.7282 Y-11.9082
G01 X5.7936 Y-11.8488
G01 X5.8012 Y-11.8426
G01 X5.8722 Y-11.7901
G01 X5.9522 Y-11.7422
G01 X6.0320 Y-11.7043
G01 X6.0410 Y-11.7005
G01 X6.1242 Y-11.6709
G01 X6.2099 Y-11.6493
G01 X6.2195 Y-11.6474
G01 X6.3069 Y-11.6346
G01 X6.4000 Y-11.6300
G01 X6.4882 Y-11.6342
G01 X6.4980 Y-11.6352
G01 X6.5853 Y-11.6483
G01 X6.6710 Y-11.6696
G01 X6.6804 Y-11.6724
G01 X6.7635 Y-11.7023
G01 X6.8478 Y-11.7422
G01 X6.9278 Y-11.7901
G01 X7.0027 Y-11.8456
G01 X7.0718 Y-11.9082
G01 X7.1312 Y-11.9736
G01 X7.1374 Y-11.9812
G01 X7.1871 Y-12.0482
G01 X7.1925 Y-12.0564
G01 X7.2378 Y-12.1322
G01 X7.2777 Y-12.2165
G01 X7.3091 Y-12.3042
G01 X7.3317 Y-12.3947
G01 X7.3454 Y-12.4869
G01 X7.3499 Y-12.5751
G01 X7.3499 Y-12.5849
G01 X7.3458 Y-12.6682
G01 X7.3448 Y-12.6780
G01 X7.3317 Y-12.7653
G01 X7.3091 Y-12.8558
G01 X7.2777 Y-12.9435
G01 X7.2378 Y-13.0278
G01 X7.1899 Y-13.1078
G01 X7.1374 Y-13.1788
G01 X7.1312 Y-13.1864
G01 X7.0751 Y-13.2482
G01 X7.0682 Y-13.2551
G01 X7.0027 Y-13.3144
G01 X6.9278 Y-13.3699
G01 X6.8478 Y-13.4178
G01 X6.7680 Y-13.4557
G01 X6.7590 Y-13.4595
G01 X6.6804 Y-13.4876
G01 X6.6710 Y-13.4904
G01 X6.5853 Y-13.5117
G01 X6.4931 Y-13.5254
G01 X6.4025 Y-13.5300
G01 X6.3064 Y-13.5305
G01 X6.4936 Y-13.5305
G01 X6.6773 Y-13.4940
G01 X6.8502 Y-13.4223
G01 X7.0059 Y-13.3183
G01 X7.1383 Y-13.1859
G01 X7.2423 Y-13.0302
G01 X7.3140 Y-12.8572
G01 X7.3505 Y-12.6736
G01 X7.3505 Y-12.4864
G01 X7.3140 Y-12.3027
G01 X7.2423 Y-12.1298
G01 X7.1383 Y-11.9741
G01 X7.0059 Y-11.8417
G01 X6.8502 Y-11.7377
G01 X6.6772 Y-11.6660
G01 X6.4936 Y-11.6295
G01 X6.3064 Y-11.6295
G01 X6.1227 Y-11.6660
G01 X5.9498 Y-11.7377
G01 X5.7941 Y-11.8417
G01 X5.6617 Y-11.9741
G01 X5.5577 Y-12.1298
G01 X5.4860 Y-12.3027
G01 X5.4495 Y-12.4864
G01 X5.4495 Y-12.6736
G01 X5.4860 Y-12.8573
G01 X5.5577 Y-13.0302
G01 X5.6617 Y-13.1859
G01 X5.7941 Y-13.3183
G01 X5.9498 Y-13.4223
G01 X6.1227 Y-13.4940
G01 X6.3064 Y-13.5305
G00 Z2.0000
G00 X6.3951 Y-16.0699
G01 F25.00
G01 Z-0.1866
G01 F120.00
G01 X6.3069 Y-16.0654
G01 X6.2147 Y-16.0517
G01 X6.1242 Y-16.0291
G01 X6.0365 Y-15.9977
G01 X5.9522 Y-15.9578
G01 X5.8722 Y-15.9099
G01 X5.7973 Y-15.8544
G01 X5.7318 Y-15.7951
G01 X5.7249 Y-15.7882
G01 X5.6656 Y-15.7227
G01 X5.6101 Y-15.6478
G01 X5.5622 Y-15.5678
G01 X5.5243 Y-15.4880
G01 X5.5205 Y-15.4790
G01 X5.4909 Y-15.3958
G01 X5.4693 Y-15.3101
G01 X5.4674 Y-15.3005
G01 X5.4552 Y-15.2180
G01 X5.4542 Y-15.2082
G01 X5.4500 Y-15.1200
G01 X5.4542 Y-15.0318
G01 X5.4552 Y-15.0220
G01 X5.4683 Y-14.9347
G01 X5.4896 Y-14.8490
G01 X5.4924 Y-14.8396
G01 X5.5223 Y-14.7565
G01 X5.5600 Y-14.6766
G01 X5.5646 Y-14.6679
G01 X5.6101 Y-14.5922
G01 X5.6626 Y-14.5212
G01 X5.6688 Y-14.5136
G01 X5.7282 Y-14.4482
G01 X5.7936 Y-14.3888
G01 X5.8012 Y-14.3826
G01 X5.8722 Y-14.3301
G01 X5.9522 Y-14.2822
G01 X6.0320 Y-14.2443
G01 X6.0410 Y-14.2405
G01 X6.1242 Y-14.2109
G01 X6.2099 Y-14.1893
G01 X6.2195 Y-14.1874
G01 X6.3069 Y-14.1746
G01 X6.4000 Y-14.1700
G01 X6.4882 Y-14.1742
G01 X6.4980 Y-14.1752
G01 X6.5853 Y-14.1883
G01 X6.6710 Y-14.2096
G01 X6.6804 Y-14.2124
G01 X6.7635 Y-14.2423
G01 X6.8478 Y-14.2822
G01 X6.9278 Y-14.3301
G01 X7.0027 Y-14.3856
G01 X7.0718 Y-14.4482
G01 X7.1312 Y-14.5136
G01 X7.1374 Y-14.5212
G01 X7.1871 Y-14.5882
G01 X7.1925 Y-14.5964
G01 X7.2378 Y-14.6722
G01 X7.2777 Y-14.7565
G01 X7.3091 Y-14.8442
G01 X7.3317 Y-14.9347
G01 X7.3454 Y-15.0269
G01 X7.3499 Y-15.1151
G01 X7.3499 Y-15.1249
G01 X7.3458 Y-15.2082
G01 X7.3448 Y-15.2180
G01 X7.3317 Y-15.3053
G01 X7.3091 Y-15.3958
G01 X7.2777 Y-15.4835
G01 X7.2400 Y-15.5634
G01 X7.2354 Y-15.5721
G01 X7.1925 Y-15.6436
G01 X7.1871 Y-15.6518
G01 X7.1344 Y-15.7227
G01 X7.0718 Y-15.7918
G01 X7.0027 Y-15.8544
G01 X6.9278 Y-15.9099
G01 X6.8478 Y-15.9578
G01 X6.7680 Y-15.9957
G01 X6.7590 Y-15.9995
G01 X6.6804 Y-16.0276
G01 X6.6710 Y-16.0304
G01 X6.5853 Y-16.0517
G01 X6.4931 Y-16.0654
G01 X6.4025 Y-16.0700
G01 X6.3064 Y-16.0705
G01 X6.4936 Y-16.0705
G01 X6.6773 Y-16.0340
G01 X6.8502 Y-15.9623
G01 X7.0059 Y-15.8583
G01 X7.1383 Y-15.7259
G01 X7.2423 Y-15.5702
G01 X7.3140 Y-15.3972
G01 X7.3505 Y-15.2136
G01 X7.3505 Y-15.0264
G01 X7.3140 Y-14.8427
G01 X7.2423 Y-14.6698
G01 X7.1383 Y-14.5141
G01 X7.0059 Y-14.3817
G01 X6.8502 Y-14.2777
G01 X6.6772 Y-14.2060
G01 X6.4936 Y-14.1695
G01 X6.3064 Y-14.1695
G01 X6.1227 Y-14.2060
G01 X5.9498 Y-14.2777
G01 X5.7941 Y-14.3817
G01 X5.6617 Y-14.5141
G01 X5.5577 Y-14.6698
G01 X5.4860 Y-14.8427
G01 X5.4495 Y-15.0264
G01 X5.4495 Y-15.2136
G01 X5.4860 Y-15.3973
G01 X5.5577 Y-15.5702
G01 X5.6617 Y-15.7259
G01 X5.7941 Y-15.8583
G01 X5.9498 Y-15.9623
G01 X6.1227 Y-16.0340
G01 X6.3064 Y-16.0705
G00 Z2.0000
G00 X6.3951 Y-18.6099
G01 F25.00
G01 Z-0.1866
G01 F120.00
G01 X6.3069 Y-18.6054
G01 X6.2147 Y-18.5917
G01 X6.1242 Y-18.5691
G01 X6.0365 Y-18.5377
G01 X5.9522 Y-18.4978
G01 X5.8722 Y-18.4499
G01 X5.7973 Y-18.3944
G01 X5.7318 Y-18.3351
G01 X5.7249 Y-18.3282
G01 X5.6656 Y-18.2627
G01 X5.6101 Y-18.1878
G01 X5.5622 Y-18.1078
G01 X5.5243 Y-18.0280
G01 X5.5205 Y-18.0190
G01 X5.4909 Y-17.9358
G01 X5.4693 Y-17.8501
G01 X5.4674 Y-17.8405
G01 X5.4552 Y-17.7580
G01 X5.4542 Y-17.7482
G01 X5.4500 Y-17.6600
G01 X5.4542 Y-17.5718
G01 X5.4552 Y-17.5620
G01 X5.4683 Y-17.4747
G01 X5.4896 Y-17.3890
G01 X5.4924 Y-17.3796
G01 X5.5223 Y-17.2965
G01 X5.5600 Y-17.2166
G01 X5.5646 Y-17.2079
G01 X5.6101 Y-17.1322
G01 X5.6626 Y-17.0612
G01 X5.6688 Y-17.0536
G01 X5.7282 Y-16.9882
G01 X5.7936 Y-16.9288
G01 X5.8012 Y-16.9226
G01 X5.8722 Y-16.8701
G01 X5.9522 Y-16.8222
G01 X6.0320 Y-16.7843
G01 X6.0410 Y-16.7805
G01 X6.1242 Y-16.7509
G01 X6.2099 Y-16.7293
G01 X6.2195 Y-16.7274
G01 X6.3069 Y-16.7146
G01 X6.4000 Y-16.7100
G01 X6.4882 Y-16.7142
G01 X6.4980 Y-16.7152
G01 X6.5853 Y-16.7283
G01 X6.6710 Y-16.7496
G01 X6.6804 Y-16.7524
G01 X6.7635 Y-16.7823
G01 X6.8478 Y-16.8222
G01 X6.9278 Y-16.8701
G01 X7.0027 Y-16.9256
G01 X7.0718 Y-16.9882
G01 X7.1312 Y-17.0536
G01 X7.1374 Y-17.0612
G01 X7.1871 Y-17.1282
G01 X7.1925 Y-17.1364
G01 X7.2378 Y-17.2122
G01 X7.2777 Y-17.2965
G01 X7.3091 Y-17.3842
G01 X7.3317 Y-17.4747
G01 X7.3454 Y-17.5669
G01 X7.3499 Y-17.6551
G01 X7.3499 Y-17.6649
G01 X7.3458 Y-17.7482
G01 X7.3448 Y-17.7580
G01 X7.3317 Y-17.8453
G01 X7.3091 Y-17.9358
G01 X7.2777 Y-18.0235
G01 X7.2400 Y-18.1034
G01 X7.2354 Y-18.1121
G01 X7.1925 Y-18.1836
G01 X7.1871 Y-18.1918
G01 X7.1344 Y-18.2627
G01 X7.0718 Y-18.3318
G01 X7.0027 Y-18.3944
G01 X6.9278 Y-18.4499
G01 X6.8478 Y-18.4978
G01 X6.7680 Y-18.5357
G01 X6.7590 Y-18.5395
G01 X6.6804 Y-18.5676
G01 X6.6710 Y-18.5704
G01 X6.5853 Y-18.5917
G01 X6.4931 Y-18.6054
G01 X6.4025 Y-18.6100
G01 X6.3064 Y-18.6105
G01 X6.4936 Y-18.6105
G01 X6.6773 Y-18.5740
G01 X6.8502 Y-18.5023
G01 X7.0059 Y-18.3983
G01 X7.1383 Y-18.2659
G01 X7.2423 Y-18.1102
G01 X7.3140 Y-17.9372
G01 X7.3505 Y-17.7536
G01 X7.3505 Y-17.5664
G01 X7.3140 Y-17.3827
G01 X7.2423 Y-17.2098
G01 X7.1383 Y-17.0541
G01 X7.0059 Y-16.9217
G01 X6.8502 Y-16.8177
G01 X6.6772 Y-16.7460
G01 X6.4936 Y-16.7095
G01 X6.3064 Y-16.7095
G01 X6.1227 Y-16.7460
G01 X5.9498 Y-16.8177
G01 X5.7941 Y-16.9217
G01 X5.6617 Y-17.0541
G01 X5.5577 Y-17.2098
G01 X5.4860 Y-17.3827
G01 X5.4495 Y-17.5664
G01 X5.4495 Y-17.7536
G01 X5.4860 Y-17.9373
G01 X5.5577 Y-18.1102
G01 X5.6617 Y-18.2659
G01 X5.7941 Y-18.3983
G01 X5.9498 Y-18.5023
G01 X6.1227 Y-18.5740
G01 X6.3064 Y-18.6105
G00 Z2.0000
G00 X6.3951 Y-21.1499
G01 F25.00
G01 Z-0.1866
G01 F120.00
G01 X6.3069 Y-21.1454
G01 X6.2147 Y-21.1317
G01 X6.1242 Y-21.1091
G01 X6.0365 Y-21.0777
G01 X5.9522 Y-21.0378
G01 X5.8722 Y-20.9899
G01 X5.7973 Y-20.9344
G01 X5.7318 Y-20.8751
G01 X5.7249 Y-20.8682
G01 X5.6656 Y-20.8027
G01 X5.6101 Y-20.7278
G01 X5.5622 Y-20.6478
G01 X5.5243 Y-20.5680
G01 X5.5205 Y-20.5590
G01 X5.4909 Y-20.4758
G01 X5.4693 Y-20.3901
G01 X5.4674 Y-20.3805
G01 X5.4552 Y-20.2980
G01 X5.4542 Y-20.2882
G01 X5.4500 Y-20.2000
G01 X5.4542 Y-20.1118
G01 X5.4552 Y-20.1020
G01 X5.4683 Y-20.0147
G01 X5.4896 Y-19.9290
G01 X5.4924 Y-19.9196
G01 X5.5223 Y-19.8365
G01 X5.5600 Y-19.7566
G01 X5.5646 Y-19.7479
G01 X5.6101 Y-19.6722
G01 X5.6626 Y-19.6012
G01 X5.6688 Y-19.5936
G01 X5.7282 Y-19.5282
G01 X5.7936 Y-19.4688
G01 X5.8012 Y-19.4626
G01 X5.8722 Y-19.4101
G01 X5.9522 Y-19.3622
G01 X6.0320 Y-19.3243
G01 X6.0410 Y-19.3205
G01 X6.1242 Y-19.2909
G01 X6.2099 Y-19.2693
G01 X6.2195 Y-19.2674
G01 X6.3069 Y-19.2546
G01 X6.4000 Y-19.2500
G01 X6.4882 Y-19.2542
G01 X6.4980 Y-19.2552
G01 X6.5853 Y-19.2683
G01 X6.6710 Y-19.2896
G01 X6.6804 Y-19.2924
G01 X6.7635 Y-19.3223
G01 X6.8478 Y-19.3622
G01 X6.9278 Y-19.4101
G01 X7.0027 Y-19.4656
G01 X7.0718 Y-19.5282
G01 X7.1312 Y-19.5936
G01 X7.1374 Y-19.6012
G01 X7.1871 Y-19.6682
G01 X7.1925 Y-19.6764
G01 X7.2378 Y-19.7522
G01 X7.2777 Y-19.8365
G01 X7.3091 Y-19.9242
G01 X7.3317 Y-20.0147
G01 X7.3454 Y-20.1069
G01 X7.3499 Y-20.1951
G01 X7.3499 Y-20.2049
G01 X7.3458 Y-20.2882
G01 X7.3448 Y-20.2980
G01 X7.3317 Y-20.3853
G01 X7.3091 Y-20.4758
G01 X7.2777 Y-20.5635
G01 X7.2378 Y-20.6478
G01 X7.1899 Y-20.7278
G01 X7.1374 Y-20.7988
G01 X7.1312 Y-20.8064
G01 X7.0751 Y-20.8682
G01 X7.0682 Y-20.8751
G01 X7.0027 Y-20.9344
G01 X6.9278 Y-20.9899
G01 X6.8478 Y-21.0378
G01 X6.7680 Y-21.0757
G01 X6.7590 Y-21.0795
G01 X6.6804 Y-21.1076
G01 X6.6710 Y-21.1104
G01 X6.5853 Y-21.1317
G01 X6.4931 Y-21.1454
G01 X6.4025 Y-21.1500
G01 X6.3064 Y-21.1505
G01 X6.4936 Y-21.1505
G01 X6.6773 Y-21.1140
G01 X6.8502 Y-21.0423
G01 X7.0059 Y-20.9383
G01 X7.1383 Y-20.8059
G01 X7.2423 Y-20.6502
G01 X7.3140 Y-20.4772
G01 X7.3505 Y-20.2936
G01 X7.3505 Y-20.1064
G01 X7.3140 Y-19.9227
G01 X7.2423 Y-19.7498
G01 X7.1383 Y-19.5941
G01 X7.0059 Y-19.4617
G01 X6.8502 Y-19.3577
G01 X6.6772 Y-19.2860
G01 X6.4936 Y-19.2495
G01 X6.3064 Y-19.2495
G01 X6.1227 Y-19.2860
G01 X5.9498 Y-19.3577
G01 X5.7941 Y-19.4617
G01 X5.6617 Y-19.5941
G01 X5.5577 Y-19.7498
G01 X5.4860 Y-19.9227
G01 X5.4495 Y-20.1064
G01 X5.4495 Y-20.2936
G01 X5.4860 Y-20.4773
G01 X5.5577 Y-20.6502
G01 X5.6617 Y-20.8059
G01 X5.7941 Y-20.9383
G01 X5.9498 Y-21.0423
G01 X6.1227 Y-21.1140
G01 X6.3064 Y-21.1505
G00 Z2.0000
G00 X6.3951 Y-23.6899
G01 F25.00
G01 Z-0.1866
G01 F120.00
G01 X6.3069 Y-23.6854
G01 X6.2147 Y-23.6717
G01 X6.1242 Y-23.6491
G01 X6.0365 Y-23.6177
G01 X5.9522 Y-23.5778
G01 X5.8722 Y-23.5299
G01 X5.7973 Y-23.4744
G01 X5.7318 Y-23.4151
G01 X5.7249 Y-23.4082
G01 X5.6656 Y-23.3427
G01 X5.6101 Y-23.2678
G01 X5.5622 Y-23.1878
G01 X5.5243 Y-23.1080
G01 X5.5205 Y-23.0990
G01 X5.4909 Y-23.0158
G01 X5.4693 Y-22.9301
G01 X5.4674 Y-22.9205
G01 X5.4552 Y-22.8380
G01 X5.4542 Y-22.8282
G01 X5.4500 Y-22.7400
G01 X5.4542 Y-22.6518
G01 X5.4552 Y-22.6420
G01 X5.4683 Y-22.5547
G01 X5.4896 Y-22.4690
G01 X5.4924 Y-22.4596
G01 X5.5223 Y-22.3765
G01 X5.5600 Y-22.2966
G01 X5.5646 Y-22.2879
G01 X5.6101 Y-22.2122
G01 X5.6626 Y-22.1412
G01 X5.6688 Y-22.1336
G01 X5.7282 Y-22.0682
G01 X5.7936 Y-22.0088
G01 X5.8012 Y-22.0026
G01 X5.8722 Y-21.9501
G01 X5.9522 Y-21.9022
G01 X6.0320 Y-21.8643
G01 X6.0410 Y-21.8605
G01 X6.1242 Y-21.8309
G01 X6.2099 Y-21.8093
G01 X6.2195 Y-21.8074
G01 X6.3069 Y-21.7946
G01 X6.4000 Y-21.7900
G01 X6.4931 Y-21.7946
G01 X6.5805 Y-21.8074
G01 X6.5901 Y-21.8093
G01 X6.6758 Y-21.8309
G01 X6.7590 Y-21.8605
G01 X6.7680 Y-21.8643
G01 X6.8478 Y-21.9022
G01 X6.9278 Y-21.9501
G01 X6.9988 Y-22.0026
G01 X7.0064 Y-22.0088
G01 X7.0682 Y-22.0649
G01 X7.0751 Y-22.0718
G01 X7.1344 Y-22.1373
G01 X7.1899 Y-22.2122
G01 X7.2378 Y-22.2922
G01 X7.2777 Y-22.3765
G01 X7.3091 Y-22.4642
G01 X7.3317 Y-22.5547
G01 X7.3454 Y-22.6469
G01 X7.3499 Y-22.7351
G01 X7.3499 Y-22.7449
G01 X7.3458 Y-22.8282
G01 X7.3448 Y-22.8380
G01 X7.3317 Y-22.9253
G01 X7.3091 Y-23.0158
G01 X7.2777 Y-23.1035
G01 X7.2400 Y-23.1834
G01 X7.2354 Y-23.1921
G01 X7.1925 Y-23.2636
G01 X7.1871 Y-23.2718
G01 X7.1344 Y-23.3427
G01 X7.0718 Y-23.4118
G01 X7.0027 Y-23.4744
G01 X6.9278 Y-23.5299
G01 X6.8478 Y-23.5778
G01 X6.7680 Y-23.6157
G01 X6.7590 Y-23.6195
G01 X6.6804 Y-23.6476
G01 X6.6710 Y-23.6504
G01 X6.5853 Y-23.6717
G01 X6.4931 Y-23.6854
G01 X6.4025 Y-23.6900
G01 X6.3064 Y-23.6905
G01 X6.4936 Y-23.6905
G01 X6.6773 Y-23.6540
G01 X6.8502 Y-23.5823
G01 X7.0059 Y-23.4783
G01 X7.1383 Y-23.3459
G01 X7.2423 Y-23.1902
G01 X7.3140 Y-23.0172
G01 X7.3505 Y-22.8336
G01 X7.3505 Y-22.6464
G01 X7.3140 Y-22.4627
G01 X7.2423 Y-22.2898
G01 X7.1383 Y-22.1341
G01 X7.0059 Y-22.0017
G01 X6.8502 Y-21.8977
G01 X6.6772 Y-21.8260
G01 X6.4936 Y-21.7895
G01 X6.3064 Y-21.7895
G01 X6.1227 Y-21.8260
G01 X5.9498 Y-21.8977
G01 X5.7941 Y-22.0017
G01 X5.6617 Y-22.1341
G01 X5.5577 Y-22.2898
G01 X5.4860 Y-22.4627
G01 X5.4495 Y-22.6464
G01 X5.4495 Y-22.8336
G01 X5.4860 Y-23.0173
G01 X5.5577 Y-23.1902
G01 X5.6617 Y-23.3459
G01 X5.7941 Y-23.4783
G01 X5.9498 Y-23.5823
G01 X6.1227 Y-23.6540
G01 X6.3064 Y-23.6905
G00 Z2.0000
G00 X6.3951 Y-26.2299
G01 F25.00
G01 Z-0.1866
G01 F120.00
G01 X6.3069 Y-26.2254
G01 X6.2147 Y-26.2117
G01 X6.1242 Y-26.1891
G01 X6.0365 Y-26.1577
G01 X5.9522 Y-26.1178
G01 X5.8722 Y-26.0699
G01 X5.7973 Y-26.0144
G01 X5.7318 Y-25.9551
G01 X5.7249 Y-25.9482
G01 X5.6656 Y-25.8827
G01 X5.6101 Y-25.8078
G01 X5.5622 Y-25.7278
G01 X5.5243 Y-25.6480
G01 X5.5205 Y-25.6390
G01 X5.4909 Y-25.5558
G01 X5.4693 Y-25.4701
G01 X5.4674 Y-25.4605
G01 X5.4552 Y-25.3780
G01 X5.4542 Y-25.3682
G01 X5.4500 Y-25.2800
G01 X5.4542 Y-25.1918
G01 X5.4552 Y-25.1820
G01 X5.4683 Y-25.0947
G01 X5.4896 Y-25.0090
G01 X5.4924 Y-24.9996
G01 X5.5223 Y-24.9165
G01 X5.5600 Y-24.8366
G01 X5.5646 Y-24.8279
G01 X5.6101 Y-24.7522
G01 X5.6626 Y-24.6812
G01 X5.6688 Y-24.6736
G01 X5.7282 Y-24.6082
G01 X5.7936 Y-24.5488
G01 X5.8012 Y-24.5426
G01 X5.8722 Y-24.4901
G01 X5.9522 Y-24.4422
G01 X6.0320 Y-24.4043
G01 X6.0410 Y-24.4005
G01 X6.1242 Y-24.3709
G01 X6.2099 Y-24.3493
G01 X6.2195 Y-24.3474
G01 X6.3069 Y-24.3346
G01 X6.4000 Y-24.3300
G01 X6.4931 Y-24.3346
G01 X6.5805 Y-24.3474
G01 X6.5901 Y-24.3493
G01 X6.6758 Y-24.3709
G01 X6.7590 Y-24.4005
G01 X6.7680 Y-24.4043
G01 X6.8478 Y-24.4422
G01 X6.9278 Y-24.4901
G01 X6.9988 Y-24.5426
G01 X7.0064 Y-24.5488
G01 X7.0682 Y-24.6049
G01 X7.0751 Y-24.6118
G01 X7.1344 Y-24.6773
G01 X7.1899 Y-24.7522
G01 X7.2378 Y-24.8322
G01 X7.2777 Y-24.9165
G01 X7.3091 Y-25.0042
G01 X7.3317 Y-25.0947
G01 X7.3454 Y-25.1869
G01 X7.3499 Y-25.2751
G01 X7.3499 Y-25.2849
G01 X7.3458 Y-25.3682
G01 X7.3448 Y-25.3780
G01 X7.3317 Y-25.4653
G01 X7.3091 Y-25.5558
G01 X7.2777 Y-25.6435
G01 X7.2400 Y-25.7234
G01 X7.2354 Y-25.7321
G01 X7.1925 Y-25.8036
G01 X7.1871 Y-25.8118
G01 X7.1344 Y-25.8827
G01 X7.0718 Y-25.9518
G01 X7.0027 Y-26.0144
G01 X6.9278 Y-26.0699
G01 X6.8478 Y-26.1178
G01 X6.7680 Y-26.1557
G01 X6.7590 Y-26.1595
G01 X6.6804 Y-26.1876
G01 X6.6710 Y-26.1904
G01 X6.5853 Y-26.2117
G01 X6.4931 Y-26.2254
G01 X6.4025 Y-26.2300
G01 X6.3064 Y-26.2305
G01 X6.4936 Y-26.2305
G01 X6.6773 Y-26.1940
G01 X6.8502 Y-26.1223
G01 X7.0059 Y-26.0183
G01 X7.1383 Y-25.8859
G01 X7.2423 Y-25.7302
G01 X7.3140 Y-25.5572
G01 X7.3505 Y-25.3736
G01 X7.3505 Y-25.1864
G01 X7.3140 Y-25.0027
G01 X7.2423 Y-24.8298
G01 X7.1383 Y-24.6741
G01 X7.0059 Y-24.5417
G01 X6.8502 Y-24.4377
G01 X6.6772 Y-24.3660
G01 X6.4936 Y-24.3295
G01 X6.3064 Y-24.3295
G01 X6.1227 Y-24.3660
G01 X5.9498 Y-24.4377
G01 X5.7941 Y-24.5417
G01 X5.6617 Y-24.6741
G01 X5.5577 Y-24.8298
G01 X5.4860 Y-25.0027
G01 X5.4495 Y-25.1864
G01 X5.4495 Y-25.3736
G01 X5.4860 Y-25.5573
G01 X5.5577 Y-25.7302
G01 X5.6617 Y-25.8859
G01 X5.7941 Y-26.0183
G01 X5.9498 Y-26.1223
G01 X6.1227 Y-26.1940
G01 X6.3064 Y-26.2305
G00 Z2.0000
G00 X20.7495 Y-25.1864
G01 F25.00
G01 Z-0.1866
G01 F120.00
G01 X20.7860 Y-25.0027
G01 X20.8577 Y-24.8298
G01 X20.9617 Y-24.6741
G01 X21.0941 Y-24.5417
G01 X21.2498 Y-24.4377
G01 X21.4227 Y-24.3660
G01 X21.6064 Y-24.3295
G01 X21.7936 Y-24.3295
G01 X21.9772 Y-24.3660
G01 X22.1502 Y-24.4377
G01 X22.3059 Y-24.5417
G01 X22.4383 Y-24.6741
G01 X22.5423 Y-24.8298
G01 X22.6140 Y-25.0027
G01 X22.6505 Y-25.1864
G01 X22.6505 Y-25.3736
G01 X22.6140 Y-25.5572
G01 X22.5423 Y-25.7302
G01 X22.4383 Y-25.8859
G01 X22.3059 Y-26.0183
G01 X22.1502 Y-26.1223
G01 X21.9773 Y-26.1940
G01 X21.7936 Y-26.2305
G01 X21.6064 Y-26.2305
G01 X21.4227 Y-26.1940
G01 X21.2498 Y-26.1223
G01 X21.0941 Y-26.0183
G01 X20.9617 Y-25.8859
G01 X20.8577 Y-25.7302
G01 X20.7860 Y-25.5573
G01 X20.7495 Y-25.3736
G01 X20.7495 Y-25.1864
G00 Z2.0000
G00 X21.6951 Y-26.2299
G01 F25.00
G01 Z-0.1866
G01 F120.00
G01 X21.7049 Y-26.2299
G01 X21.7931 Y-26.2254
G01 X21.8853 Y-26.2117
G01 X21.9758 Y-26.1891
G01 X22.0635 Y-26.1577
G01 X22.1478 Y-26.1178
G01 X22.2278 Y-26.0699
G01 X22.3027 Y-26.0144
G01 X22.3718 Y-25.9518
G01 X22.4344 Y-25.8827
G01 X22.4899 Y-25.8078
G01 X22.5378 Y-25.7278
G01 X22.5777 Y-25.6435
G01 X22.6091 Y-25.5558
G01 X22.6317 Y-25.4653
G01 X22.6454 Y-25.3731
G01 X22.6500 Y-25.2800
G01 X22.6454 Y-25.1869
G01 X22.6317 Y-25.0947
G01 X22.6091 Y-25.0042
G01 X22.5777 Y-24.9165
G01 X22.5378 Y-24.8322
G01 X22.4899 Y-24.7522
G01 X22.4344 Y-24.6773
G01 X22.3718 Y-24.6082
G01 X22.3027 Y-24.5456
G01 X22.2278 Y-24.4901
G01 X22.1478 Y-24.4422
G01 X22.0635 Y-24.4023
G01 X21.9758 Y-24.3709
G01 X21.8853 Y-24.3483
G01 X21.7931 Y-24.3346
G01 X21.7000 Y-24.3300
G01 X21.6069 Y-24.3346
G01 X21.5147 Y-24.3483
G01 X21.4242 Y-24.3709
G01 X21.3365 Y-24.4023
G01 X21.2522 Y-24.4422
G01 X21.1722 Y-24.4901
G01 X21.0973 Y-24.5456
G01 X21.0282 Y-24.6082
G01 X20.9656 Y-24.6773
G01 X20.9101 Y-24.7522
G01 X20.8622 Y-24.8322
G01 X20.8223 Y-24.9165
G01 X20.7909 Y-25.0042
G01 X20.7683 Y-25.0947
G01 X20.7546 Y-25.1869
G01 X20.7500 Y-25.2800
G01 X20.7546 Y-25.3731
G01 X20.7683 Y-25.4653
G01 X20.7909 Y-25.5558
G01 X20.8223 Y-25.6435
G01 X20.8622 Y-25.7278
G01 X20.9101 Y-25.8078
G01 X20.9656 Y-25.8827
G01 X21.0282 Y-25.9518
G01 X21.0973 Y-26.0144
G01 X21.1722 Y-26.0699
G01 X21.2522 Y-26.1178
G01 X21.3365 Y-26.1577
G01 X21.4242 Y-26.1891
G01 X21.5147 Y-26.2117
G01 X21.6069 Y-26.2254
G01 X21.6951 Y-26.2299
G00 Z2.0000
G00 X21.6951 Y-23.6899
G01 F25.00
G01 Z-0.1866
G01 F120.00
G01 X21.7049 Y-23.6899
G01 X21.7931 Y-23.6854
G01 X21.8853 Y-23.6717
G01 X21.9758 Y-23.6491
G01 X22.0635 Y-23.6177
G01 X22.1478 Y-23.5778
G01 X22.2278 Y-23.5299
G01 X22.3027 Y-23.4744
G01 X22.3718 Y-23.4118
G01 X22.4344 Y-23.3427
G01 X22.4899 Y-23.2678
G01 X22.5378 Y-23.1878
G01 X22.5777 Y-23.1035
G01 X22.6091 Y-23.0158
G01 X22.6317 Y-22.9253
G01 X22.6454 Y-22.8331
G01 X22.6500 Y-22.7400
G01 X22.6454 Y-22.6469
G01 X22.6317 Y-22.5547
G01 X22.6091 Y-22.4642
G01 X22.5777 Y-22.3765
G01 X22.5378 Y-22.2922
G01 X22.4899 Y-22.2122
G01 X22.4344 Y-22.1373
G01 X22.3718 Y-22.0682
G01 X22.3027 Y-22.0056
G01 X22.2278 Y-21.9501
G01 X22.1478 Y-21.9022
G01 X22.0635 Y-21.8623
G01 X21.9758 Y-21.8309
G01 X21.8853 Y-21.8083
G01 X21.7931 Y-21.7946
G01 X21.7000 Y-21.7900
G01 X21.6069 Y-21.7946
G01 X21.5147 Y-21.8083
G01 X21.4242 Y-21.8309
G01 X21.3365 Y-21.8623
G01 X21.2522 Y-21.9022
G01 X21.1722 Y-21.9501
G01 X21.0973 Y-22.0056
G01 X21.0282 Y-22.0682
G01 X20.9656 Y-22.1373
G01 X20.9101 Y-22.2122
G01 X20.8622 Y-22.2922
G01 X20.8223 Y-22.3765
G01 X20.7909 Y-22.4642
G01 X20.7683 Y-22.5547
G01 X20.7546 Y-22.6469
G01 X20.7500 Y-22.7400
G01 X20.7546 Y-22.8331
G01 X20.7683 Y-22.9253
G01 X20.7909 Y-23.0158
G01 X20.8223 Y-23.1035
G01 X20.8622 Y-23.1878
G01 X20.9101 Y-23.2678
G01 X20.9656 Y-23.3427
G01 X21.0282 Y-23.4118
G01 X21.0973 Y-23.4744
G01 X21.1722 Y-23.5299
G01 X21.2522 Y-23.5778
G01 X21.3365 Y-23.6177
G01 X21.4242 Y-23.6491
G01 X21.5147 Y-23.6717
G01 X21.6069 Y-23.6854
G01 X21.6951 Y-23.6899
G00 Z2.0000
G00 X20.7495 Y-22.6464
G01 F25.00
G01 Z-0.1866
G01 F120.00
G01 X20.7860 Y-22.4627
G01 X20.8577 Y-22.2898
G01 X20.9617 Y-22.1341
G01 X21.0941 Y-22.0017
G01 X21.2498 Y-21.8977
G01 X21.4227 Y-21.8260
G01 X21.6064 Y-21.7895
G01 X21.7936 Y-21.7895
G01 X21.9772 Y-21.8260
G01 X22.1502 Y-21.8977
G01 X22.3059 Y-22.0017
G01 X22.4383 Y-22.1341
G01 X22.5423 Y-22.2898
G01 X22.6140 Y-22.4627
G01 X22.6505 Y-22.6464
G01 X22.6505 Y-22.8336
G01 X22.6140 Y-23.0172
G01 X22.5423 Y-23.1902
G01 X22.4383 Y-23.3459
G01 X22.3059 Y-23.4783
G01 X22.1502 Y-23.5823
G01 X21.9773 Y-23.6540
G01 X21.7936 Y-23.6905
G01 X21.6064 Y-23.6905
G01 X21.4227 Y-23.6540
G01 X21.2498 Y-23.5823
G01 X21.0941 Y-23.4783
G01 X20.9617 Y-23.3459
G01 X20.8577 Y-23.1902
G01 X20.7860 Y-23.0173
G01 X20.7495 Y-22.8336
G01 X20.7495 Y-22.6464
G00 Z2.0000
G00 X21.6951 Y-21.1499
G01 F25.00
G01 Z-0.1866
G01 F120.00
G01 X21.7049 Y-21.1499
G01 X21.7931 Y-21.1454
G01 X21.8853 Y-21.1317
G01 X21.9758 Y-21.1091
G01 X22.0635 Y-21.0777
G01 X22.1478 Y-21.0378
G01 X22.2278 Y-20.9899
G01 X22.3027 Y-20.9344
G01 X22.3718 Y-20.8718
G01 X22.4344 Y-20.8027
G01 X22.4899 Y-20.7278
G01 X22.5378 Y-20.6478
G01 X22.5777 Y-20.5635
G01 X22.6091 Y-20.4758
G01 X22.6317 Y-20.3853
G01 X22.6454 Y-20.2931
G01 X22.6500 Y-20.2000
G01 X22.6454 Y-20.1069
G01 X22.6317 Y-20.0147
G01 X22.6091 Y-19.9242
G01 X22.5777 Y-19.8365
G01 X22.5378 Y-19.7522
G01 X22.4899 Y-19.6722
G01 X22.4344 Y-19.5973
G01 X22.3718 Y-19.5282
G01 X22.3027 Y-19.4656
G01 X22.2278 Y-19.4101
G01 X22.1478 Y-19.3622
G01 X22.0635 Y-19.3223
G01 X21.9758 Y-19.2909
G01 X21.8853 Y-19.2683
G01 X21.7931 Y-19.2546
G01 X21.7000 Y-19.2500
G01 X21.6069 Y-19.2546
G01 X21.5147 Y-19.2683
G01 X21.4242 Y-19.2909
G01 X21.3365 Y-19.3223
G01 X21.2522 Y-19.3622
G01 X21.1722 Y-19.4101
G01 X21.0973 Y-19.4656
G01 X21.0282 Y-19.5282
G01 X20.9656 Y-19.5973
G01 X20.9101 Y-19.6722
G01 X20.8622 Y-19.7522
G01 X20.8223 Y-19.8365
G01 X20.7909 Y-19.9242
G01 X20.7683 Y-20.0147
G01 X20.7546 Y-20.1069
G01 X20.7500 Y-20.2000
G01 X20.7546 Y-20.2931
G01 X20.7683 Y-20.3853
G01 X20.7909 Y-20.4758
G01 X20.8223 Y-20.5635
G01 X20.8622 Y-20.6478
G01 X20.9101 Y-20.7278
G01 X20.9656 Y-20.8027
G01 X21.0282 Y-20.8718
G01 X21.0973 Y-20.9344
G01 X21.1722 Y-20.9899
G01 X21.2522 Y-21.0378
G01 X21.3365 Y-21.0777
G01 X21.4242 Y-21.1091
G01 X21.5147 Y-21.1317
G01 X21.6069 Y-21.1454
G01 X21.6951 Y-21.1499
G00 Z2.0000
G00 X20.7495 Y-20.1064
G01 F25.00
G01 Z-0.1866
G01 F120.00
G01 X20.7860 Y-19.9227
G01 X20.8577 Y-19.7498
G01 X20.9617 Y-19.5941
G01 X21.0941 Y-19.4617
G01 X21.2498 Y-19.3577
G01 X21.4227 Y-19.2860
G01 X21.6064 Y-19.2495
G01 X21.7936 Y-19.2495
G01 X21.9772 Y-19.2860
G01 X22.1502 Y-19.3577
G01 X22.3059 Y-19.4617
G01 X22.4383 Y-19.5941
G01 X22.5423 Y-19.7498
G01 X22.6140 Y-19.9227
G01 X22.6505 Y-20.1064
G01 X22.6505 Y-20.2936
G01 X22.6140 Y-20.4772
G01 X22.5423 Y-20.6502
G01 X22.4383 Y-20.8059
G01 X22.3059 Y-20.9383
G01 X22.1502 Y-21.0423
G01 X21.9773 Y-21.1140
G01 X21.7936 Y-21.1505
G01 X21.6064 Y-21.1505
G01 X21.4227 Y-21.1140
G01 X21.2498 Y-21.0423
G01 X21.0941 Y-20.9383
G01 X20.9617 Y-20.8059
G01 X20.8577 Y-20.6502
G01 X20.7860 Y-20.4773
G01 X20.7495 Y-20.2936
G01 X20.7495 Y-20.1064
G00 Z2.0000
G00 X21.6951 Y-18.6099
G01 F25.00
G01 Z-0.1866
G01 F120.00
G01 X21.7049 Y-18.6099
G01 X21.7931 Y-18.6054
G01 X21.8853 Y-18.5917
G01 X21.9758 Y-18.5691
G01 X22.0635 Y-18.5377
G01 X22.1478 Y-18.4978
G01 X22.2278 Y-18.4499
G01 X22.3027 Y-18.3944
G01 X22.3718 Y-18.3318
G01 X22.4344 Y-18.2627
G01 X22.4899 Y-18.1878
G01 X22.5378 Y-18.1078
G01 X22.5777 Y-18.0235
G01 X22.6091 Y-17.9358
G01 X22.6317 Y-17.8453
G01 X22.6454 Y-17.7531
G01 X22.6500 Y-17.6600
G01 X22.6454 Y-17.5669
G01 X22.6317 Y-17.4747
G01 X22.6091 Y-17.3842
G01 X22.5777 Y-17.2965
G01 X22.5378 Y-17.2122
G01 X22.4899 Y-17.1322
G01 X22.4344 Y-17.0573
G01 X22.3718 Y-16.9882
G01 X22.3027 Y-16.9256
G01 X22.2278 Y-16.8701
G01 X22.1478 Y-16.8222
G01 X22.0635 Y-16.7823
G01 X21.9758 Y-16.7509
G01 X21.8853 Y-16.7283
G01 X21.7931 Y-16.7146
G01 X21.7000 Y-16.7100
G01 X21.6069 Y-16.7146
G01 X21.5147 Y-16.7283
G01 X21.4242 Y-16.7509
G01 X21.3365 Y-16.7823
G01 X21.2522 Y-16.8222
G01 X21.1722 Y-16.8701
G01 X21.0973 Y-16.9256
G01 X21.0282 Y-16.9882
G01 X20.9656 Y-17.0573
G01 X20.9101 Y-17.1322
G01 X20.8622 Y-17.2122
G01 X20.8223 Y-17.2965
G01 X20.7909 Y-17.3842
G01 X20.7683 Y-17.4747
G01 X20.7546 Y-17.5669
G01 X20.7500 Y-17.6600
G01 X20.7546 Y-17.7531
G01 X20.7683 Y-17.8453
G01 X20.7909 Y-17.9358
G01 X20.8223 Y-18.0235
G01 X20.8622 Y-18.1078
G01 X20.9101 Y-18.1878
G01 X20.9656 Y-18.2627
G01 X21.0282 Y-18.3318
G01 X21.0973 Y-18.3944
G01 X21.1722 Y-18.4499
G01 X21.2522 Y-18.4978
G01 X21.3365 Y-18.5377
G01 X21.4242 Y-18.5691
G01 X21.5147 Y-18.5917
G01 X21.6069 Y-18.6054
G01 X21.6951 Y-18.6099
G00 Z2.0000
G00 X20.7495 Y-17.5664
G01 F25.00
G01 Z-0.1866
G01 F120.00
G01 X20.7860 Y-17.3827
G01 X20.8577 Y-17.2098
G01 X20.9617 Y-17.0541
G01 X21.0941 Y-16.9217
G01 X21.2498 Y-16.8177
G01 X21.4227 Y-16.7460
G01 X21.6064 Y-16.7095
G01 X21.7936 Y-16.7095
G01 X21.9772 Y-16.7460
G01 X22.1502 Y-16.8177
G01 X22.3059 Y-16.9217
G01 X22.4383 Y-17.0541
G01 X22.5423 Y-17.2098
G01 X22.6140 Y-17.3827
G01 X22.6505 Y-17.5664
G01 X22.6505 Y-17.7536
G01 X22.6140 Y-17.9372
G01 X22.5423 Y-18.1102
G01 X22.4383 Y-18.2659
G01 X22.3059 Y-18.3983
G01 X22.1502 Y-18.5023
G01 X21.9773 Y-18.5740
G01 X21.7936 Y-18.6105
G01 X21.6064 Y-18.6105
G01 X21.4227 Y-18.5740
G01 X21.2498 Y-18.5023
G01 X21.0941 Y-18.3983
G01 X20.9617 Y-18.2659
G01 X20.8577 Y-18.1102
G01 X20.7860 Y-17.9373
G01 X20.7495 Y-17.7536
G01 X20.7495 Y-17.5664
G00 Z2.0000
G00 X21.6951 Y-16.0699
G01 F25.00
G01 Z-0.1866
G01 F120.00
G01 X21.7049 Y-16.0699
G01 X21.7931 Y-16.0654
G01 X21.8853 Y-16.0517
G01 X21.9758 Y-16.0291
G01 X22.0635 Y-15.9977
G01 X22.1478 Y-15.9578
G01 X22.2278 Y-15.9099
G01 X22.3027 Y-15.8544
G01 X22.3718 Y-15.7918
G01 X22.4344 Y-15.7227
G01 X22.4899 Y-15.6478
G01 X22.5378 Y-15.5678
G01 X22.5777 Y-15.4835
G01 X22.6091 Y-15.3958
G01 X22.6317 Y-15.3053
G01 X22.6454 Y-15.2131
G01 X22.6500 Y-15.1200
G01 X22.6454 Y-15.0269
G01 X22.6317 Y-14.9347
G01 X22.6091 Y-14.8442
G01 X22.5777 Y-14.7565
G01 X22.5378 Y-14.6722
G01 X22.4899 Y-14.5922
G01 X22.4344 Y-14.5173
G01 X22.3718 Y-14.4482
G01 X22.3027 Y-14.3856
G01 X22.2278 Y-14.3301
G01 X22.1478 Y-14.2822
G01 X22.0635 Y-14.2423
G01 X21.9758 Y-14.2109
G01 X21.8853 Y-14.1883
G01 X21.7931 Y-14.1746
G01 X21.7000 Y-14.1700
G01 X21.6069 Y-14.1746
G01 X21.5147 Y-14.1883
G01 X21.4242 Y-14.2109
G01 X21.3365 Y-14.2423
G01 X21.2522 Y-14.2822
G01 X21.1722 Y-14.3301
G01 X21.0973 Y-14.3856
G01 X21.0282 Y-14.4482
G01 X20.9656 Y-14.5173
G01 X20.9101 Y-14.5922
G01 X20.8622 Y-14.6722
G01 X20.8223 Y-14.7565
G01 X20.7909 Y-14.8442
G01 X20.7683 Y-14.9347
G01 X20.7546 Y-15.0269
G01 X20.7500 Y-15.1200
G01 X20.7546 Y-15.2131
G01 X20.7683 Y-15.3053
G01 X20.7909 Y-15.3958
G01 X20.8223 Y-15.4835
G01 X20.8622 Y-15.5678
G01 X20.9101 Y-15.6478
G01 X20.9656 Y-15.7227
G01 X21.0282 Y-15.7918
G01 X21.0973 Y-15.8544
G01 X21.1722 Y-15.9099
G01 X21.2522 Y-15.9578
G01 X21.3365 Y-15.9977
G01 X21.4242 Y-16.0291
G01 X21.5147 Y-16.0517
G01 X21.6069 Y-16.0654
G01 X21.6951 Y-16.0699
G00 Z2.0000
G00 X20.7495 Y-15.0264
G01 F25.00
G01 Z-0.1866
G01 F120.00
G01 X20.7860 Y-14.8427
G01 X20.8577 Y-14.6698
G01 X20.9617 Y-14.5141
G01 X21.0941 Y-14.3817
G01 X21.2498 Y-14.2777
G01 X21.4227 Y-14.2060
G01 X21.6064 Y-14.1695
G01 X21.7936 Y-14.1695
G01 X21.9772 Y-14.2060
G01 X22.1502 Y-14.2777
G01 X22.3059 Y-14.3817
G01 X22.4383 Y-14.5141
G01 X22.5423 Y-14.6698
G01 X22.6140 Y-14.8427
G01 X22.6505 Y-15.0264
G01 X22.6505 Y-15.2136
G01 X22.6140 Y-15.3972
G01 X22.5423 Y-15.5702
G01 X22.4383 Y-15.7259
G01 X22.3059 Y-15.8583
G01 X22.1502 Y-15.9623
G01 X21.9773 Y-16.0340
G01 X21.7936 Y-16.0705
G01 X21.6064 Y-16.0705
G01 X21.4227 Y-16.0340
G01 X21.2498 Y-15.9623
G01 X21.0941 Y-15.8583
G01 X20.9617 Y-15.7259
G01 X20.8577 Y-15.5702
G01 X20.7860 Y-15.3973
G01 X20.7495 Y-15.2136
G01 X20.7495 Y-15.0264
G00 Z2.0000
G00 X21.6951 Y-13.5299
G01 F25.00
G01 Z-0.1866
G01 F120.00
G01 X21.7049 Y-13.5299
G01 X21.7931 Y-13.5254
G01 X21.8853 Y-13.5117
G01 X21.9758 Y-13.4891
G01 X22.0635 Y-13.4577
G01 X22.1478 Y-13.4178
G01 X22.2278 Y-13.3699
G01 X22.3027 Y-13.3144
G01 X22.3718 Y-13.2518
G01 X22.4344 Y-13.1827
G01 X22.4899 Y-13.1078
G01 X22.5378 Y-13.0278
G01 X22.5777 Y-12.9435
G01 X22.6091 Y-12.8558
G01 X22.6317 Y-12.7653
G01 X22.6454 Y-12.6731
G01 X22.6500 Y-12.5800
G01 X22.6454 Y-12.4869
G01 X22.6317 Y-12.3947
G01 X22.6091 Y-12.3042
G01 X22.5777 Y-12.2165
G01 X22.5378 Y-12.1322
G01 X22.4899 Y-12.0522
G01 X22.4344 Y-11.9773
G01 X22.3718 Y-11.9082
G01 X22.3027 Y-11.8456
G01 X22.2278 Y-11.7901
G01 X22.1478 Y-11.7422
G01 X22.0635 Y-11.7023
G01 X21.9758 Y-11.6709
G01 X21.8853 Y-11.6483
G01 X21.7931 Y-11.6346
G01 X21.7000 Y-11.6300
G01 X21.6069 Y-11.6346
G01 X21.5147 Y-11.6483
G01 X21.4242 Y-11.6709
G01 X21.3365 Y-11.7023
G01 X21.2522 Y-11.7422
G01 X21.1722 Y-11.7901
G01 X21.0973 Y-11.8456
G01 X21.0282 Y-11.9082
G01 X20.9656 Y-11.9773
G01 X20.9101 Y-12.0522
G01 X20.8622 Y-12.1322
G01 X20.8223 Y-12.2165
G01 X20.7909 Y-12.3042
G01 X20.7683 Y-12.3947
G01 X20.7546 Y-12.4869
G01 X20.7500 Y-12.5800
G01 X20.7546 Y-12.6731
G01 X20.7683 Y-12.7653
G01 X20.7909 Y-12.8558
G01 X20.8223 Y-12.9435
G01 X20.8622 Y-13.0278
G01 X20.9101 Y-13.1078
G01 X20.9656 Y-13.1827
G01 X21.0282 Y-13.2518
G01 X21.0973 Y-13.3144
G01 X21.1722 Y-13.3699
G01 X21.2522 Y-13.4178
G01 X21.3365 Y-13.4577
G01 X21.4242 Y-13.4891
G01 X21.5147 Y-13.5117
G01 X21.6069 Y-13.5254
G01 X21.6951 Y-13.5299
G00 Z2.0000
G00 X20.7495 Y-12.4864
G01 F25.00
G01 Z-0.1866
G01 F120.00
G01 X20.7860 Y-12.3027
G01 X20.8577 Y-12.1298
G01 X20.9617 Y-11.9741
G01 X21.0941 Y-11.8417
G01 X21.2498 Y-11.7377
G01 X21.4227 Y-11.6660
G01 X21.6064 Y-11.6295
G01 X21.7936 Y-11.6295
G01 X21.9772 Y-11.6660
G01 X22.1502 Y-11.7377
G01 X22.3059 Y-11.8417
G01 X22.4383 Y-11.9741
G01 X22.5423 Y-12.1298
G01 X22.6140 Y-12.3027
G01 X22.6505 Y-12.4864
G01 X22.6505 Y-12.6736
G01 X22.6140 Y-12.8572
G01 X22.5423 Y-13.0302
G01 X22.4383 Y-13.1859
G01 X22.3059 Y-13.3183
G01 X22.1502 Y-13.4223
G01 X21.9773 Y-13.4940
G01 X21.7936 Y-13.5305
G01 X21.6064 Y-13.5305
G01 X21.4227 Y-13.4940
G01 X21.2498 Y-13.4223
G01 X21.0941 Y-13.3183
G01 X20.9617 Y-13.1859
G01 X20.8577 Y-13.0302
G01 X20.7860 Y-12.8573
G01 X20.7495 Y-12.6736
G01 X20.7495 Y-12.4864
G00 Z2.0000
G00 X21.6951 Y-10.9899
G01 F25.00
G01 Z-0.1866
G01 F120.00
G01 X21.7049 Y-10.9899
G01 X21.7931 Y-10.9854
G01 X21.8853 Y-10.9717
G01 X21.9758 Y-10.9491
G01 X22.0635 Y-10.9177
G01 X22.1478 Y-10.8778
G01 X22.2278 Y-10.8299
G01 X22.3027 Y-10.7744
G01 X22.3718 Y-10.7118
G01 X22.4344 Y-10.6427
G01 X22.4899 Y-10.5678
G01 X22.5378 Y-10.4878
G01 X22.5777 Y-10.4035
G01 X22.6091 Y-10.3158
G01 X22.6317 Y-10.2253
G01 X22.6454 Y-10.1331
G01 X22.6500 Y-10.0400
G01 X22.6454 Y-9.9469
G01 X22.6317 Y-9.8547
G01 X22.6091 Y-9.7642
G01 X22.5777 Y-9.6765
G01 X22.5378 Y-9.5922
G01 X22.4899 Y-9.5122
G01 X22.4344 Y-9.4373
G01 X22.3718 Y-9.3682
G01 X22.3027 Y-9.3056
G01 X22.2278 Y-9.2501
G01 X22.1478 Y-9.2022
G01 X22.0635 Y-9.1623
G01 X21.9758 Y-9.1309
G01 X21.8853 Y-9.1083
G01 X21.7931 Y-9.0946
G01 X21.7000 Y-9.0900
G01 X21.6069 Y-9.0946
G01 X21.5147 Y-9.1083
G01 X21.4242 Y-9.1309
G01 X21.3365 Y-9.1623
G01 X21.2522 Y-9.2022
G01 X21.1722 Y-9.2501
G01 X21.0973 Y-9.3056
G01 X21.0282 Y-9.3682
G01 X20.9656 Y-9.4373
G01 X20.9101 Y-9.5122
G01 X20.8622 Y-9.5922
G01 X20.8223 Y-9.6765
G01 X20.7909 Y-9.7642
G01 X20.7683 Y-9.8547
G01 X20.7546 Y-9.9469
G01 X20.7500 Y-10.0400
G01 X20.7546 Y-10.1331
G01 X20.7683 Y-10.2253
G01 X20.7909 Y-10.3158
G01 X20.8223 Y-10.4035
G01 X20.8622 Y-10.4878
G01 X20.9101 Y-10.5678
G01 X20.9656 Y-10.6427
G01 X21.0282 Y-10.7118
G01 X21.0973 Y-10.7744
G01 X21.1722 Y-10.8299
G01 X21.2522 Y-10.8778
G01 X21.3365 Y-10.9177
G01 X21.4242 Y-10.9491
G01 X21.5147 Y-10.9717
G01 X21.6069 Y-10.9854
G01 X21.6951 Y-10.9899
G00 Z2.0000
G00 X20.7957 Y-10.3405
G01 F25.00
G01 Z-0.1866
G01 F120.00
G01 X20.7860 Y-10.3173
G01 X20.7495 Y-10.1336
G01 X20.7495 Y-9.9464
G01 X20.7860 Y-9.7627
G01 X20.8577 Y-9.5898
G01 X20.9617 Y-9.4341
G01 X21.0941 Y-9.3017
G01 X21.2498 Y-9.1977
G01 X21.4227 Y-9.1260
G01 X21.6064 Y-9.0895
G01 X21.7936 Y-9.0895
G01 X21.9772 Y-9.1260
G01 X22.1502 Y-9.1977
G01 X22.3059 Y-9.3017
G01 X22.4383 Y-9.4341
G01 X22.5423 Y-9.5898
G01 X22.6140 Y-9.7627
G01 X22.6505 Y-9.9464
G01 X22.6505 Y-10.1336
G01 X22.6140 Y-10.3172
G01 X22.5423 Y-10.4902
G01 X22.4383 Y-10.6459
G01 X22.3059 Y-10.7783
G01 X22.1502 Y-10.8823
G01 X21.9773 Y-10.9540
G01 X21.7936 Y-10.9905
G01 X21.6064 Y-10.9905
G01 X21.4227 Y-10.9540
G01 X21.2498 Y-10.8823
G01 X21.0941 Y-10.7783
G01 X20.9617 Y-10.6459
G01 X20.8577 Y-10.4902
G01 X20.7957 Y-10.3405
G00 Z2.0000
G00 X22.5500 Y-8.4500
G01 F25.00
G01 Z-0.1866
G01 F120.00
G01 X22.5574 Y-8.4497
G01 X22.5671 Y-8.4485
G01 X22.5767 Y-8.4464
G01 X22.5860 Y-8.4433
G01 X22.5950 Y-8.4393
G01 X22.6035 Y-8.4345
G01 X22.6115 Y-8.4288
G01 X22.6190 Y-8.4224
G01 X22.6257 Y-8.4153
G01 X22.6318 Y-8.4076
G01 X22.6370 Y-8.3993
G01 X22.6414 Y-8.3905
G01 X22.6450 Y-8.3814
G01 X22.6476 Y-8.3719
G01 X22.6492 Y-8.3622
G01 X22.6499 Y-8.3549
G01 X22.6500 Y-6.6475
G01 X22.6492 Y-6.6378
G01 X22.6476 Y-6.6281
G01 X22.6457 Y-6.6210
G01 X22.6424 Y-6.6117
G01 X22.6382 Y-6.6029
G01 X22.6345 Y-6.5965
G01 X22.6288 Y-6.5885
G01 X22.6224 Y-6.5810
G01 X22.6153 Y-6.5743
G01 X22.6076 Y-6.5682
G01 X22.5993 Y-6.5630
G01 X22.5883 Y-6.5576
G01 X22.5790 Y-6.5543
G01 X22.5695 Y-6.5519
G01 X22.5598 Y-6.5505
G01 X22.5500 Y-6.5500
G01 X20.8475 Y-6.5500
G01 X20.8378 Y-6.5508
G01 X20.8281 Y-6.5524
G01 X20.8210 Y-6.5543
G01 X20.8117 Y-6.5576
G01 X20.8050 Y-6.5607
G01 X20.7965 Y-6.5655
G01 X20.7885 Y-6.5712
G01 X20.7810 Y-6.5776
G01 X20.7743 Y-6.5847
G01 X20.7682 Y-6.5924
G01 X20.7630 Y-6.6007
G01 X20.7586 Y-6.6095
G01 X20.7550 Y-6.6186
G01 X20.7519 Y-6.6305
G01 X20.7505 Y-6.6402
G01 X20.7500 Y-6.6500
G01 X20.7500 Y-8.3525
G01 X20.7508 Y-8.3622
G01 X20.7519 Y-8.3695
G01 X20.7543 Y-8.3790
G01 X20.7576 Y-8.3883
G01 X20.7618 Y-8.3971
G01 X20.7655 Y-8.4035
G01 X20.7712 Y-8.4115
G01 X20.7776 Y-8.4190
G01 X20.7847 Y-8.4257
G01 X20.7924 Y-8.4318
G01 X20.8007 Y-8.4370
G01 X20.8095 Y-8.4414
G01 X20.8186 Y-8.4450
G01 X20.8281 Y-8.4476
G01 X20.8378 Y-8.4492
G01 X20.8475 Y-8.4500
G01 X22.5500 Y-8.4500
G00 Z2.0000
G00 X20.7495 Y-6.6401
G01 F25.00
G01 Z-0.1866
G01 F120.00
G01 X20.7553 Y-6.6108
G01 X20.7775 Y-6.5775
G01 X20.8108 Y-6.5553
G01 X20.8401 Y-6.5495
G01 X22.5599 Y-6.5495
G01 X22.5892 Y-6.5553
G01 X22.6225 Y-6.5775
G01 X22.6447 Y-6.6108
G01 X22.6505 Y-6.6401
G01 X22.6505 Y-8.3599
G01 X22.6447 Y-8.3892
G01 X22.6225 Y-8.4225
G01 X22.5892 Y-8.4447
G01 X22.5599 Y-8.4505
G01 X20.8401 Y-8.4505
G01 X20.8108 Y-8.4447
G01 X20.7775 Y-8.4225
G01 X20.7553 Y-8.3892
G01 X20.7495 Y-8.3599
G01 X20.7495 Y-6.6401
G00 Z2.0000
G00 X30.7954 Y-4.9302
G01 F25.00
G01 Z-0.1866
G01 F120.00
G01 X30.8785 Y-4.9302
G01 X30.8210 Y-4.9877
G01 X30.8161 Y-4.9713
G01 X30.8104 Y-4.9570
G01 X30.8032 Y-4.9428
G01 X30.7954 Y-4.9302
G00 Z2.0000
G00 X33.8515 Y-12.9778
G01 F25.00
G01 Z-0.1866
G01 F120.00
G01 X33.9165 Y-12.9128
G01 X33.9199 Y-12.9250
G01 X33.9246 Y-12.9376
G01 X33.9301 Y-12.9498
G01 X33.9353 Y-12.9594
G01 X33.9450 Y-12.9744
G01 X33.9736 Y-13.0127
G01 X33.9634 Y-13.0220
G01 X33.9528 Y-13.0335
G01 X33.9346 Y-13.0178
G01 X33.9257 Y-13.0107
G01 X33.9147 Y-13.0030
G01 X33.9054 Y-12.9974
G01 X33.8912 Y-12.9903
G01 X33.8787 Y-12.9852
G01 X33.8660 Y-12.9812
G01 X33.8515 Y-12.9778
G00 Z2.0000
G00 X33.9900 Y-14.8501
G01 F25.00
G01 Z-0.1866
G01 F120.00
G01 X33.9905 Y-14.8598
G01 X33.9919 Y-14.8695
G01 X33.9900 Y-14.8599
G01 X33.9900 Y-14.8501
G00 Z2.0000
G00 X33.9919 Y-14.8695
G01 F25.00
G01 Z-0.1866
G01 F120.00
G01 X33.9943 Y-14.8790
G01 X33.9976 Y-14.8883
G01 X34.0018 Y-14.8971
G01 X34.0068 Y-14.9055
G01 X33.9958 Y-14.8890
G01 X33.9919 Y-14.8695
G00 Z2.0000
G00 X34.0069 Y-14.9056
G01 F25.00
G01 Z-0.1866
G01 F120.00
G01 X34.0127 Y-14.9134
G01 X34.0193 Y-14.9207
G01 X34.0266 Y-14.9273
G01 X34.0344 Y-14.9331
G01 X34.0179 Y-14.9221
G01 X34.0069 Y-14.9056
G00 Z2.0000
G00 X34.0345 Y-14.9332
G01 F25.00
G01 Z-0.1866
G01 F120.00
G01 X34.0407 Y-14.9370
G01 X34.0472 Y-14.9404
G01 X34.0586 Y-14.9450
G01 X34.0657 Y-14.9470
G01 X34.0729 Y-14.9485
G01 X34.0851 Y-14.9499
G01 X34.4400 Y-14.9500
G01 X34.0802 Y-14.9500
G01 X34.0510 Y-14.9442
G01 X34.0345 Y-14.9332
G00 Z2.0000
G00 X35.7901 Y-14.9500
G01 F25.00
G01 Z-0.1866
G01 F120.00
G01 X35.7974 Y-14.9497
G01 X35.8047 Y-14.9489
G01 X35.8119 Y-14.9476
G01 X35.8190 Y-14.9457
G01 X35.8260 Y-14.9433
G01 X35.8328 Y-14.9404
G01 X35.8393 Y-14.9370
G01 X35.8455 Y-14.9332
G01 X35.8290 Y-14.9442
G01 X35.7999 Y-14.9500
G01 X35.7901 Y-14.9500
G00 Z2.0000
G00 X35.8456 Y-14.9331
G01 F25.00
G01 Z-0.1866
G01 F120.00
G01 X35.8534 Y-14.9273
G01 X35.8607 Y-14.9207
G01 X35.8673 Y-14.9134
G01 X35.8731 Y-14.9056
G01 X35.8621 Y-14.9221
G01 X35.8456 Y-14.9331
G00 Z2.0000
G00 X35.8732 Y-14.9055
G01 F25.00
G01 Z-0.1866
G01 F120.00
G01 X35.8770 Y-14.8993
G01 X35.8804 Y-14.8928
G01 X35.8850 Y-14.8814
G01 X35.8881 Y-14.8695
G01 X35.8892 Y-14.8622
G01 X35.8899 Y-14.8549
G01 X35.8900 Y-14.5000
G01 X35.8900 Y-14.8599
G01 X35.8842 Y-14.8890
G01 X35.8732 Y-14.9055
G00 Z2.0000
G00 X35.8900 Y-13.5000
G01 F25.00
G01 Z-0.1866
G01 F120.00
G01 X35.8900 Y-13.1500
G01 X35.8897 Y-13.1426
G01 X35.8885 Y-13.1329
G01 X35.8864 Y-13.1233
G01 X35.8842 Y-13.1163
G01 X35.8804 Y-13.1072
G01 X35.8758 Y-13.0986
G01 X35.8718 Y-13.0924
G01 X35.8673 Y-13.0866
G01 X35.8607 Y-13.0793
G01 X35.8534 Y-13.0727
G01 X35.8456 Y-13.0669
G01 X35.8393 Y-13.0630
G01 X35.8305 Y-13.0586
G01 X35.8237 Y-13.0558
G01 X35.8143 Y-13.0530
G01 X35.8071 Y-13.0515
G01 X35.7974 Y-13.0503
G01 X35.7900 Y-13.0500
G01 X35.4400 Y-13.0500
G01 X35.7999 Y-13.0500
G01 X35.8290 Y-13.0558
G01 X35.8621 Y-13.0779
G01 X35.8842 Y-13.1110
G01 X35.8900 Y-13.1401
G01 X35.8900 Y-13.5000
G00 Z2.0000
G00 X31.8498 Y-14.7734
G01 F25.00
G01 Z-0.1866
G01 F120.00
G01 X31.8498 Y-20.7266
G01 X31.7973 Y-20.7656
G01 X31.7318 Y-20.8249
G01 X31.7249 Y-20.8318
G01 X31.6656 Y-20.8973
G01 X31.6129 Y-20.9682
G01 X31.6075 Y-20.9764
G01 X31.5622 Y-21.0522
G01 X31.5233 Y-21.1342
G01 X31.5205 Y-21.1410
G01 X31.4909 Y-21.2242
G01 X31.4693 Y-21.3099
G01 X31.4674 Y-21.3195
G01 X31.4546 Y-21.4069
G01 X31.4501 Y-21.4951
G01 X31.4501 Y-21.5049
G01 X31.4544 Y-21.5907
G01 X31.4552 Y-21.5980
G01 X31.4683 Y-21.6853
G01 X31.4909 Y-21.7758
G01 X31.5223 Y-21.8635
G01 X31.5622 Y-21.9478
G01 X31.6101 Y-22.0278
G01 X31.6656 Y-22.1027
G01 X31.7282 Y-22.1718
G01 X31.7973 Y-22.2344
G01 X31.8722 Y-22.2899
G01 X31.9522 Y-22.3378
G01 X32.0365 Y-22.3777
G01 X32.1242 Y-22.4091
G01 X32.2147 Y-22.4317
G01 X32.3069 Y-22.4454
G01 X32.4000 Y-22.4500
G01 X32.4907 Y-22.4456
G01 X32.4980 Y-22.4448
G01 X32.5853 Y-22.4317
G01 X32.6710 Y-22.4104
G01 X32.6804 Y-22.4076
G01 X32.7590 Y-22.3795
G01 X32.7680 Y-22.3757
G01 X32.8478 Y-22.3378
G01 X32.9278 Y-22.2899
G01 X33.0027 Y-22.2344
G01 X33.0718 Y-22.1718
G01 X33.1344 Y-22.1027
G01 X33.1899 Y-22.0278
G01 X33.2378 Y-21.9478
G01 X33.2757 Y-21.8680
G01 X33.2795 Y-21.8590
G01 X33.3076 Y-21.7804
G01 X33.3104 Y-21.7710
G01 X33.3317 Y-21.6853
G01 X33.3448 Y-21.5980
G01 X33.3456 Y-21.5907
G01 X33.3499 Y-21.5049
G01 X33.3499 Y-21.4951
G01 X33.3454 Y-21.4069
G01 X33.3326 Y-21.3195
G01 X33.3307 Y-21.3099
G01 X33.3091 Y-21.2242
G01 X33.2795 Y-21.1410
G01 X33.2767 Y-21.1342
G01 X33.2378 Y-21.0522
G01 X33.1925 Y-20.9764
G01 X33.1871 Y-20.9682
G01 X33.1344 Y-20.8973
G01 X33.0751 Y-20.8318
G01 X33.0682 Y-20.8249
G01 X33.0027 Y-20.7656
G01 X32.9502 Y-20.7266
G01 X32.9502 Y-14.7734
G01 X33.0027 Y-14.7344
G01 X33.0682 Y-14.6751
G01 X33.0735 Y-14.6700
G01 X33.1344 Y-14.6027
G01 X33.1871 Y-14.5318
G01 X33.1912 Y-14.5257
G01 X33.2378 Y-14.4478
G01 X33.2777 Y-14.3635
G01 X33.3091 Y-14.2758
G01 X33.3317 Y-14.1853
G01 X33.3454 Y-14.0931
G01 X33.3500 Y-14.0000
G01 X33.3454 Y-13.9069
G01 X33.3322 Y-13.8171
G01 X33.3307 Y-13.8099
G01 X33.3091 Y-13.7242
G01 X33.2786 Y-13.6387
G01 X33.2757 Y-13.6320
G01 X33.2390 Y-13.5544
G01 X33.2102 Y-13.5059
G01 X35.3308 Y-11.3853
G01 X35.3653 Y-11.3471
G01 X35.3947 Y-11.3077
G01 X35.4001 Y-11.2995
G01 X35.4228 Y-11.2616
G01 X35.4275 Y-11.2530
G01 X35.4483 Y-11.2086
G01 X35.4665 Y-11.1577
G01 X35.4797 Y-11.1053
G01 X35.4870 Y-11.0568
G01 X35.4879 Y-11.0470
G01 X35.4902 Y-10.9980
G01 X35.4902 Y-5.0734
G01 X35.5427 Y-5.0344
G01 X35.6082 Y-4.9751
G01 X35.6151 Y-4.9682
G01 X35.6728 Y-4.9046
G01 X35.6774 Y-4.8988
G01 X35.7299 Y-4.8278
G01 X35.7754 Y-4.7521
G01 X35.7790 Y-4.7456
G01 X35.8157 Y-4.6680
G01 X35.8195 Y-4.6590
G01 X35.8491 Y-4.5758
G01 X35.8707 Y-4.4901
G01 X35.8726 Y-4.4805
G01 X35.8854 Y-4.3931
G01 X35.8899 Y-4.3049
G01 X35.8900 Y-4.2975
G01 X35.8854 Y-4.2069
G01 X35.8726 Y-4.1195
G01 X35.8707 Y-4.1099
G01 X35.8504 Y-4.0290
G01 X35.8476 Y-4.0196
G01 X35.8177 Y-3.9365
G01 X35.7778 Y-3.8522
G01 X35.7299 Y-3.7722
G01 X35.6774 Y-3.7012
G01 X35.6712 Y-3.6936
G01 X35.6151 Y-3.6318
G01 X35.6082 Y-3.6249
G01 X35.5427 Y-3.5656
G01 X35.4678 Y-3.5101
G01 X35.3878 Y-3.4622
G01 X35.3080 Y-3.4243
G01 X35.2990 Y-3.4205
G01 X35.2158 Y-3.3909
G01 X35.1253 Y-3.3683
G01 X35.0331 Y-3.3546
G01 X34.9400 Y-3.3500
G01 X34.8518 Y-3.3542
G01 X34.8420 Y-3.3552
G01 X34.7547 Y-3.3683
G01 X34.6690 Y-3.3896
G01 X34.6596 Y-3.3924
G01 X34.5810 Y-3.4205
G01 X34.5720 Y-3.4243
G01 X34.4922 Y-3.4622
G01 X34.4122 Y-3.5101
G01 X34.3373 Y-3.5656
G01 X34.2682 Y-3.6282
G01 X34.2056 Y-3.6973
G01 X34.1529 Y-3.7682
G01 X34.1475 Y-3.7764
G01 X34.1022 Y-3.8522
G01 X34.0643 Y-3.9320
G01 X34.0605 Y-3.9410
G01 X34.0324 Y-4.0196
G01 X34.0296 Y-4.0290
G01 X34.0083 Y-4.1147
G01 X33.9948 Y-4.2044
G01 X33.9942 Y-4.2118
G01 X33.9900 Y-4.3000
G01 X33.9942 Y-4.3882
G01 X33.9952 Y-4.3980
G01 X34.0083 Y-4.4853
G01 X34.0296 Y-4.5710
G01 X34.0324 Y-4.5804
G01 X34.0633 Y-4.6658
G01 X34.1022 Y-4.7478
G01 X34.1475 Y-4.8236
G01 X34.1529 Y-4.8318
G01 X34.2056 Y-4.9027
G01 X34.2649 Y-4.9682
G01 X34.2718 Y-4.9751
G01 X34.3373 Y-5.0344
G01 X34.3898 Y-5.0734
G01 X34.3898 Y-10.7701
G01 X32.0383 Y-13.1216
G01 X31.9566 Y-13.1600
G01 X31.9479 Y-13.1646
G01 X31.8722 Y-13.2101
G01 X31.7973 Y-13.2656
G01 X31.7282 Y-13.3282
G01 X31.6688 Y-13.3936
G01 X31.6626 Y-13.4012
G01 X31.6088 Y-13.4743
G01 X31.5622 Y-13.5522
G01 X31.5223 Y-13.6365
G01 X31.4909 Y-13.7242
G01 X31.4683 Y-13.8147
G01 X31.4546 Y-13.9069
G01 X31.4500 Y-14.0000
G01 X31.4546 Y-14.0931
G01 X31.4678 Y-14.1829
G01 X31.4693 Y-14.1901
G01 X31.4909 Y-14.2758
G01 X31.5223 Y-14.3635
G01 X31.5622 Y-14.4478
G01 X31.6088 Y-14.5257
G01 X31.6129 Y-14.5318
G01 X31.6656 Y-14.6027
G01 X31.7265 Y-14.6700
G01 X31.7318 Y-14.6751
G01 X31.7973 Y-14.7344
G01 X31.8498 Y-14.7734
G00 Z2.0000
G00 X34.0345 Y-20.5668
G01 F25.00
G01 Z-0.1866
G01 F120.00
G01 X34.0510 Y-20.5558
G01 X34.0801 Y-20.5500
G01 X34.4400 Y-20.5500
G01 X34.0851 Y-20.5501
G01 X34.0729 Y-20.5515
G01 X34.0657 Y-20.5530
G01 X34.0586 Y-20.5550
G01 X34.0472 Y-20.5596
G01 X34.0407 Y-20.5630
G01 X34.0345 Y-20.5668
G00 Z2.0000
G00 X34.0069 Y-20.5944
G01 F25.00
G01 Z-0.1866
G01 F120.00
G01 X34.0179 Y-20.5779
G01 X34.0344 Y-20.5669
G01 X34.0266 Y-20.5727
G01 X34.0193 Y-20.5793
G01 X34.0127 Y-20.5866
G01 X34.0069 Y-20.5944
G00 Z2.0000
G00 X33.9900 Y-20.6402
G01 F25.00
G01 Z-0.1866
G01 F120.00
G01 X33.9958 Y-20.6110
G01 X34.0068 Y-20.5945
G01 X34.0030 Y-20.6007
G01 X33.9996 Y-20.6072
G01 X33.9950 Y-20.6186
G01 X33.9930 Y-20.6257
G01 X33.9915 Y-20.6329
G01 X33.9901 Y-20.6451
G01 X33.9900 Y-21.0000
G01 X33.9900 Y-20.6402
G00 Z2.0000
G00 X33.9900 Y-22.3501
G01 F25.00
G01 Z-0.1866
G01 F120.00
G01 X33.9905 Y-22.3598
G01 X33.9919 Y-22.3695
G01 X33.9900 Y-22.3599
G01 X33.9900 Y-22.3501
G00 Z2.0000
G00 X33.9919 Y-22.3695
G01 F25.00
G01 Z-0.1866
G01 F120.00
G01 X33.9943 Y-22.3790
G01 X33.9976 Y-22.3883
G01 X34.0018 Y-22.3971
G01 X34.0068 Y-22.4055
G01 X33.9958 Y-22.3890
G01 X33.9919 Y-22.3695
G00 Z2.0000
G00 X34.0069 Y-22.4056
G01 F25.00
G01 Z-0.1866
G01 F120.00
G01 X34.0127 Y-22.4134
G01 X34.0193 Y-22.4207
G01 X34.0266 Y-22.4273
G01 X34.0344 Y-22.4331
G01 X34.0179 Y-22.4221
G01 X34.0069 Y-22.4056
G00 Z2.0000
G00 X34.0345 Y-22.4332
G01 F25.00
G01 Z-0.1866
G01 F120.00
G01 X34.0407 Y-22.4370
G01 X34.0472 Y-22.4404
G01 X34.0586 Y-22.4450
G01 X34.0657 Y-22.4470
G01 X34.0729 Y-22.4485
G01 X34.0851 Y-22.4499
G01 X34.4400 Y-22.4500
G01 X34.0802 Y-22.4500
G01 X34.0510 Y-22.4442
G01 X34.0345 Y-22.4332
G00 Z2.0000
G00 X32.3064 Y-22.4505
G01 F25.00
G01 Z-0.1866
G01 F120.00
G01 X32.1227 Y-22.4140
G01 X31.9498 Y-22.3423
G01 X31.7941 Y-22.2383
G01 X31.6617 Y-22.1059
G01 X31.5577 Y-21.9502
G01 X31.4860 Y-21.7773
G01 X31.4495 Y-21.5936
G01 X31.4495 Y-21.4064
G01 X31.4860 Y-21.2227
G01 X31.5577 Y-21.0498
G01 X31.6617 Y-20.8941
G01 X31.7839 Y-20.7719
G01 X31.7903 Y-20.7649
G01 X31.7960 Y-20.7572
G01 X31.8009 Y-20.7491
G01 X31.8344 Y-20.6878
G01 X31.8396 Y-20.6767
G01 X31.8428 Y-20.6674
G01 X31.8454 Y-20.6554
G01 X31.8494 Y-20.6189
G01 X31.8495 Y-14.8865
G01 X31.8492 Y-14.8794
G01 X31.8485 Y-14.8723
G01 X31.8472 Y-14.8652
G01 X31.8454 Y-14.8583
G01 X31.8250 Y-14.7889
G01 X31.8206 Y-14.7775
G01 X31.8160 Y-14.7688
G01 X31.8092 Y-14.7586
G01 X31.7910 Y-14.7361
G01 X31.7858 Y-14.7300
G01 X31.6617 Y-14.6059
G01 X31.5577 Y-14.4502
G01 X31.4860 Y-14.2773
G01 X31.4495 Y-14.0936
G01 X31.4495 Y-13.9064
G01 X31.4860 Y-13.7227
G01 X31.5577 Y-13.5498
G01 X31.6617 Y-13.3941
G01 X31.7941 Y-13.2617
G01 X31.9498 Y-13.1577
G01 X31.9974 Y-13.1379
G01 X32.0084 Y-13.1326
G01 X32.0570 Y-13.1004
G01 X32.0647 Y-13.0944
G01 X32.0701 Y-13.0894
G01 X34.3239 Y-10.8356
G01 X34.3318 Y-10.8267
G01 X34.3360 Y-10.8209
G01 X34.3398 Y-10.8149
G01 X34.3756 Y-10.7493
G01 X34.3787 Y-10.7426
G01 X34.3813 Y-10.7358
G01 X34.3840 Y-10.7263
G01 X34.3858 Y-10.7167
G01 X34.3892 Y-10.6852
G01 X34.3895 Y-10.6772
G01 X34.3895 Y-5.1865
G01 X34.3892 Y-5.1794
G01 X34.3881 Y-5.1699
G01 X34.3861 Y-5.1606
G01 X34.3658 Y-5.0913
G01 X34.3616 Y-5.0797
G01 X34.3560 Y-5.0688
G01 X34.3492 Y-5.0586
G01 X34.3310 Y-5.0361
G01 X34.3258 Y-5.0300
G01 X34.2017 Y-4.9059
G01 X34.0977 Y-4.7502
G01 X34.0260 Y-4.5773
G01 X33.9895 Y-4.3936
G01 X33.9895 Y-4.2064
G01 X34.0260 Y-4.0227
G01 X34.0977 Y-3.8498
G01 X34.2017 Y-3.6941
G01 X34.3341 Y-3.5617
G01 X34.4898 Y-3.4577
G01 X34.6627 Y-3.3860
G01 X34.8464 Y-3.3495
G01 X35.0336 Y-3.3495
G01 X35.2172 Y-3.3860
G01 X35.3902 Y-3.4577
G01 X35.5459 Y-3.5617
G01 X35.6783 Y-3.6941
G01 X35.7823 Y-3.8498
G01 X35.8540 Y-4.0227
G01 X35.8905 Y-4.2064
G01 X35.8905 Y-4.3936
G01 X35.8540 Y-4.5772
G01 X35.7823 Y-4.7502
G01 X35.6783 Y-4.9059
G01 X35.5561 Y-5.0281
G01 X35.5497 Y-5.0351
G01 X35.5440 Y-5.0428
G01 X35.5391 Y-5.0509
G01 X35.5056 Y-5.1122
G01 X35.5004 Y-5.1233
G01 X35.4966 Y-5.1350
G01 X35.4946 Y-5.1446
G01 X35.4906 Y-5.1811
G01 X35.4905 Y-11.0522
G01 X35.4693 Y-11.1586
G01 X35.4278 Y-11.2588
G01 X35.3676 Y-11.3489
G01 X34.0473 Y-12.6693
G01 X34.0396 Y-12.6784
G01 X34.0330 Y-12.6883
G01 X33.9972 Y-12.7539
G01 X33.9922 Y-12.7653
G01 X33.9887 Y-12.7772
G01 X33.9870 Y-12.7869
G01 X33.9861 Y-12.7993
G01 X33.9864 Y-12.8068
G01 X33.9916 Y-12.8789
G01 X33.9935 Y-12.8912
G01 X33.9962 Y-12.9008
G01 X33.9988 Y-12.9077
G01 X34.0019 Y-12.9145
G01 X34.0082 Y-12.9252
G01 X34.0529 Y-12.9852
G01 X34.0593 Y-12.9928
G01 X34.0645 Y-12.9981
G01 X34.0701 Y-13.0030
G01 X34.0782 Y-13.0089
G01 X34.0867 Y-13.0139
G01 X34.0957 Y-13.0181
G01 X34.1635 Y-13.0434
G01 X34.1753 Y-13.0470
G01 X34.1875 Y-13.0491
G01 X34.2073 Y-13.0500
G01 X34.4400 Y-13.0500
G01 X34.0900 Y-13.0500
G01 X34.0826 Y-13.0503
G01 X34.0729 Y-13.0515
G01 X34.0657 Y-13.0530
G01 X34.0563 Y-13.0558
G01 X34.0495 Y-13.0586
G01 X34.0429 Y-13.0618
G01 X34.0344 Y-13.0669
G01 X34.0266 Y-13.0727
G01 X34.0193 Y-13.0793
G01 X34.0127 Y-13.0866
G01 X34.0082 Y-13.0924
G01 X34.0042 Y-13.0986
G01 X33.9996 Y-13.1072
G01 X33.9958 Y-13.1163
G01 X33.9930 Y-13.1257
G01 X33.9915 Y-13.1329
G01 X33.9903 Y-13.1426
G01 X33.9900 Y-13.1500
G01 X33.9900 Y-13.5000
G01 X33.9900 Y-13.2673
G01 X33.9895 Y-13.2578
G01 X33.9882 Y-13.2484
G01 X33.9866 Y-13.2414
G01 X33.9663 Y-13.1721
G01 X33.9630 Y-13.1627
G01 X33.9588 Y-13.1537
G01 X33.9551 Y-13.1473
G01 X33.9494 Y-13.1391
G01 X33.9430 Y-13.1316
G01 X33.9377 Y-13.1263
G01 X33.8811 Y-13.0773
G01 X33.8731 Y-13.0714
G01 X33.8646 Y-13.0663
G01 X33.8579 Y-13.0630
G01 X33.8510 Y-13.0603
G01 X33.8439 Y-13.0581
G01 X33.8366 Y-13.0564
G01 X33.7626 Y-13.0456
G01 X33.7502 Y-13.0446
G01 X33.7378 Y-13.0451
G01 X33.7280 Y-13.0467
G01 X33.7184 Y-13.0492
G01 X33.7091 Y-13.0526
G01 X33.6433 Y-13.0826
G01 X33.6366 Y-13.0860
G01 X33.6303 Y-13.0898
G01 X33.6242 Y-13.0940
G01 X33.6185 Y-13.0987
G01 X33.6102 Y-13.1064
G01 X33.3260 Y-13.3905
G01 X33.3212 Y-13.3957
G01 X33.3153 Y-13.4032
G01 X33.3101 Y-13.4112
G01 X33.2755 Y-13.4746
G01 X33.2712 Y-13.4835
G01 X33.2670 Y-13.4953
G01 X33.2653 Y-13.5025
G01 X33.2641 Y-13.5098
G01 X33.2634 Y-13.5173
G01 X33.2633 Y-13.5247
G01 X33.2685 Y-13.5994
G01 X33.2702 Y-13.6119
G01 X33.2727 Y-13.6217
G01 X33.2768 Y-13.6330
G01 X33.3140 Y-13.7227
G01 X33.3505 Y-13.9064
G01 X33.3505 Y-14.0936
G01 X33.3140 Y-14.2772
G01 X33.2423 Y-14.4502
G01 X33.1383 Y-14.6059
G01 X33.0161 Y-14.7281
G01 X33.0097 Y-14.7351
G01 X33.0040 Y-14.7428
G01 X32.9991 Y-14.7509
G01 X32.9656 Y-14.8122
G01 X32.9604 Y-14.8233
G01 X32.9566 Y-14.8350
G01 X32.9546 Y-14.8446
G01 X32.9506 Y-14.8811
G01 X32.9505 Y-20.6135
G01 X32.9508 Y-20.6206
G01 X32.9515 Y-20.6277
G01 X32.9528 Y-20.6348
G01 X32.9546 Y-20.6417
G01 X32.9750 Y-20.7111
G01 X32.9784 Y-20.7203
G01 X32.9840 Y-20.7312
G01 X32.9908 Y-20.7414
G01 X33.0090 Y-20.7639
G01 X33.0142 Y-20.7700
G01 X33.1383 Y-20.8941
G01 X33.2423 Y-21.0498
G01 X33.3140 Y-21.2227
G01 X33.3505 Y-21.4064
G01 X33.3505 Y-21.5936
G01 X33.3140 Y-21.7772
G01 X33.2423 Y-21.9502
G01 X33.1383 Y-22.1059
G01 X33.0059 Y-22.2383
G01 X32.8502 Y-22.3423
G01 X32.6773 Y-22.4140
G01 X32.4936 Y-22.4505
G01 X32.3064 Y-22.4505
G00 Z2.0000
G00 X35.7901 Y-22.4500
G01 F25.00
G01 Z-0.1866
G01 F120.00
G01 X35.7974 Y-22.4497
G01 X35.8047 Y-22.4489
G01 X35.8119 Y-22.4476
G01 X35.8190 Y-22.4457
G01 X35.8260 Y-22.4433
G01 X35.8328 Y-22.4404
G01 X35.8393 Y-22.4370
G01 X35.8455 Y-22.4332
G01 X35.8290 Y-22.4442
G01 X35.7999 Y-22.4500
G01 X35.7901 Y-22.4500
G00 Z2.0000
G00 X35.8456 Y-22.4331
G01 F25.00
G01 Z-0.1866
G01 F120.00
G01 X35.8534 Y-22.4273
G01 X35.8607 Y-22.4207
G01 X35.8673 Y-22.4134
G01 X35.8731 Y-22.4056
G01 X35.8621 Y-22.4221
G01 X35.8456 Y-22.4331
G00 Z2.0000
G00 X35.8732 Y-22.4055
G01 F25.00
G01 Z-0.1866
G01 F120.00
G01 X35.8770 Y-22.3993
G01 X35.8804 Y-22.3928
G01 X35.8850 Y-22.3814
G01 X35.8881 Y-22.3695
G01 X35.8892 Y-22.3622
G01 X35.8899 Y-22.3549
G01 X35.8900 Y-22.0000
G01 X35.8900 Y-22.3599
G01 X35.8842 Y-22.3890
G01 X35.8732 Y-22.4055
G00 Z2.0000
G00 X35.8900 Y-21.0000
G01 F25.00
G01 Z-0.1866
G01 F120.00
G01 X35.8900 Y-20.6500
G01 X35.8897 Y-20.6426
G01 X35.8885 Y-20.6329
G01 X35.8864 Y-20.6233
G01 X35.8842 Y-20.6163
G01 X35.8804 Y-20.6072
G01 X35.8758 Y-20.5986
G01 X35.8718 Y-20.5924
G01 X35.8673 Y-20.5866
G01 X35.8607 Y-20.5793
G01 X35.8553 Y-20.5743
G01 X35.8476 Y-20.5682
G01 X35.8393 Y-20.5630
G01 X35.8328 Y-20.5596
G01 X35.8237 Y-20.5558
G01 X35.8167 Y-20.5536
G01 X35.8071 Y-20.5515
G01 X35.7974 Y-20.5503
G01 X35.7900 Y-20.5500
G01 X35.4400 Y-20.5500
G01 X35.7999 Y-20.5500
G01 X35.8290 Y-20.5558
G01 X35.8621 Y-20.5779
G01 X35.8842 Y-20.6110
G01 X35.8900 Y-20.6401
G01 X35.8900 Y-21.0000
G00 Z2.0000
G00 X34.0345 Y-27.6668
G01 F25.00
G01 Z-0.1866
G01 F120.00
G01 X34.0510 Y-27.6558
G01 X34.0801 Y-27.6500
G01 X34.4400 Y-27.6500
G01 X34.0851 Y-27.6501
G01 X34.0729 Y-27.6515
G01 X34.0657 Y-27.6530
G01 X34.0586 Y-27.6550
G01 X34.0472 Y-27.6596
G01 X34.0407 Y-27.6630
G01 X34.0345 Y-27.6668
G00 Z2.0000
G00 X34.0069 Y-27.6944
G01 F25.00
G01 Z-0.1866
G01 F120.00
G01 X34.0179 Y-27.6779
G01 X34.0344 Y-27.6669
G01 X34.0266 Y-27.6727
G01 X34.0193 Y-27.6793
G01 X34.0127 Y-27.6866
G01 X34.0069 Y-27.6944
G00 Z2.0000
G00 X33.9900 Y-27.7402
G01 F25.00
G01 Z-0.1866
G01 F120.00
G01 X33.9958 Y-27.7110
G01 X34.0068 Y-27.6945
G01 X34.0030 Y-27.7007
G01 X33.9996 Y-27.7072
G01 X33.9950 Y-27.7186
G01 X33.9930 Y-27.7257
G01 X33.9915 Y-27.7329
G01 X33.9901 Y-27.7451
G01 X33.9900 Y-28.1000
G01 X33.9900 Y-27.7402
G00 Z2.0000
G00 X33.9900 Y-29.4501
G01 F25.00
G01 Z-0.1866
G01 F120.00
G01 X33.9905 Y-29.4598
G01 X33.9919 Y-29.4695
G01 X33.9900 Y-29.4599
G01 X33.9900 Y-29.4501
G00 Z2.0000
G00 X33.9919 Y-29.4695
G01 F25.00
G01 Z-0.1866
G01 F120.00
G01 X33.9943 Y-29.4790
G01 X33.9976 Y-29.4883
G01 X34.0018 Y-29.4971
G01 X34.0068 Y-29.5055
G01 X33.9958 Y-29.4890
G01 X33.9919 Y-29.4695
G00 Z2.0000
G00 X34.0069 Y-29.5056
G01 F25.00
G01 Z-0.1866
G01 F120.00
G01 X34.0127 Y-29.5134
G01 X34.0193 Y-29.5207
G01 X34.0266 Y-29.5273
G01 X34.0344 Y-29.5331
G01 X34.0179 Y-29.5221
G01 X34.0069 Y-29.5056
G00 Z2.0000
G00 X34.0345 Y-29.5332
G01 F25.00
G01 Z-0.1866
G01 F120.00
G01 X34.0407 Y-29.5370
G01 X34.0472 Y-29.5404
G01 X34.0586 Y-29.5450
G01 X34.0657 Y-29.5470
G01 X34.0729 Y-29.5485
G01 X34.0851 Y-29.5499
G01 X34.4400 Y-29.5500
G01 X34.0802 Y-29.5500
G01 X34.0510 Y-29.5442
G01 X34.0345 Y-29.5332
G00 Z2.0000
G00 X35.7901 Y-29.5500
G01 F25.00
G01 Z-0.1866
G01 F120.00
G01 X35.7974 Y-29.5497
G01 X35.8047 Y-29.5489
G01 X35.8119 Y-29.5476
G01 X35.8190 Y-29.5457
G01 X35.8260 Y-29.5433
G01 X35.8328 Y-29.5404
G01 X35.8393 Y-29.5370
G01 X35.8455 Y-29.5332
G01 X35.8290 Y-29.5442
G01 X35.7999 Y-29.5500
G01 X35.7901 Y-29.5500
G00 Z2.0000
G00 X35.8456 Y-29.5331
G01 F25.00
G01 Z-0.1866
G01 F120.00
G01 X35.8534 Y-29.5273
G01 X35.8607 Y-29.5207
G01 X35.8673 Y-29.5134
G01 X35.8731 Y-29.5056
G01 X35.8621 Y-29.5221
G01 X35.8456 Y-29.5331
G00 Z2.0000
G00 X35.8732 Y-29.5055
G01 F25.00
G01 Z-0.1866
G01 F120.00
G01 X35.8770 Y-29.4993
G01 X35.8804 Y-29.4928
G01 X35.8850 Y-29.4814
G01 X35.8881 Y-29.4695
G01 X35.8892 Y-29.4622
G01 X35.8899 Y-29.4549
G01 X35.8900 Y-29.1000
G01 X35.8900 Y-29.4599
G01 X35.8842 Y-29.4890
G01 X35.8732 Y-29.5055
G00 Z2.0000
G00 X35.8900 Y-28.1000
G01 F25.00
G01 Z-0.1866
G01 F120.00
G01 X35.8900 Y-27.7500
G01 X35.8897 Y-27.7426
G01 X35.8885 Y-27.7329
G01 X35.8864 Y-27.7233
G01 X35.8842 Y-27.7163
G01 X35.8804 Y-27.7072
G01 X35.8758 Y-27.6986
G01 X35.8718 Y-27.6924
G01 X35.8673 Y-27.6866
G01 X35.8607 Y-27.6793
G01 X35.8553 Y-27.6743
G01 X35.8476 Y-27.6682
G01 X35.8393 Y-27.6630
G01 X35.8328 Y-27.6596
G01 X35.8237 Y-27.6558
G01 X35.8167 Y-27.6536
G01 X35.8071 Y-27.6515
G01 X35.7974 Y-27.6503
G01 X35.7900 Y-27.6500
G01 X35.4400 Y-27.6500
G01 X35.7999 Y-27.6500
G01 X35.8290 Y-27.6558
G01 X35.8621 Y-27.6779
G01 X35.8842 Y-27.7110
G01 X35.8900 Y-27.7401
G01 X35.8900 Y-28.1000
G00 Z2.0000
G00 X31.8498 Y-27.8266
G01 F25.00
G01 Z-0.1866
G01 F120.00
G01 X31.7973 Y-27.8656
G01 X31.7318 Y-27.9249
G01 X31.7265 Y-27.9300
G01 X31.6656 Y-27.9973
G01 X31.6129 Y-28.0682
G01 X31.6088 Y-28.0743
G01 X31.5622 Y-28.1522
G01 X31.5223 Y-28.2365
G01 X31.4909 Y-28.3242
G01 X31.4693 Y-28.4099
G01 X31.4678 Y-28.4171
G01 X31.4546 Y-28.5069
G01 X31.4500 Y-28.6000
G01 X31.4546 Y-28.6931
G01 X31.4683 Y-28.7853
G01 X31.4909 Y-28.8758
G01 X31.5223 Y-28.9635
G01 X31.5622 Y-29.0478
G01 X31.6075 Y-29.1236
G01 X31.6115 Y-29.1298
G01 X31.6656 Y-29.2027
G01 X31.7282 Y-29.2718
G01 X31.7973 Y-29.3344
G01 X31.8722 Y-29.3899
G01 X31.9522 Y-29.4378
G01 X32.0365 Y-29.4777
G01 X32.1242 Y-29.5091
G01 X32.2147 Y-29.5317
G01 X32.3069 Y-29.5454
G01 X32.4000 Y-29.5500
G01 X32.4931 Y-29.5454
G01 X32.5853 Y-29.5317
G01 X32.6758 Y-29.5091
G01 X32.7635 Y-29.4777
G01 X32.8478 Y-29.4378
G01 X32.9236 Y-29.3925
G01 X32.9298 Y-29.3885
G01 X32.9988 Y-29.3374
G01 X33.0064 Y-29.3312
G01 X33.0718 Y-29.2718
G01 X33.1312 Y-29.2064
G01 X33.1374 Y-29.1988
G01 X33.1899 Y-29.1278
G01 X33.2378 Y-29.0478
G01 X33.2777 Y-28.9635
G01 X33.3076 Y-28.8804
G01 X33.3104 Y-28.8710
G01 X33.3317 Y-28.7853
G01 X33.3448 Y-28.6980
G01 X33.3458 Y-28.6882
G01 X33.3500 Y-28.6000
G01 X33.3454 Y-28.5069
G01 X33.3326 Y-28.4195
G01 X33.3307 Y-28.4099
G01 X33.3091 Y-28.3242
G01 X33.2795 Y-28.2410
G01 X33.2757 Y-28.2320
G01 X33.2390 Y-28.1544
G01 X33.2354 Y-28.1479
G01 X33.1899 Y-28.0722
G01 X33.1374 Y-28.0012
G01 X33.1328 Y-27.9954
G01 X33.0751 Y-27.9318
G01 X33.0682 Y-27.9249
G01 X33.0027 Y-27.8656
G01 X32.9502 Y-27.8266
G01 X32.9502 Y-24.6000
G01 X32.9476 Y-24.5461
G01 X32.9405 Y-24.4975
G01 X32.9386 Y-24.4879
G01 X32.9278 Y-24.4450
G01 X32.9250 Y-24.4356
G01 X32.9101 Y-24.3940
G01 X32.9064 Y-24.3850
G01 X32.8853 Y-24.3406
G01 X32.8601 Y-24.2985
G01 X32.8547 Y-24.2903
G01 X32.8253 Y-24.2509
G01 X32.7908 Y-24.2127
G01 X30.2502 Y-21.6721
G01 X30.2502 Y-7.2279
G01 X32.2281 Y-5.2500
G01 X33.2525 Y-5.2500
G01 X33.2647 Y-5.2489
G01 X33.2743 Y-5.2470
G01 X33.2837 Y-5.2442
G01 X33.2950 Y-5.2393
G01 X33.3056 Y-5.2331
G01 X33.3134 Y-5.2273
G01 X33.3224 Y-5.2190
G01 X33.3288 Y-5.2115
G01 X33.3331 Y-5.2056
G01 X33.3382 Y-5.1971
G01 X33.3414 Y-5.1905
G01 X33.3442 Y-5.1837
G01 X33.3470 Y-5.1743
G01 X33.3485 Y-5.1671
G01 X33.3495 Y-5.1598
G01 X33.3500 Y-5.1500
G01 X33.3500 Y-3.4500
G01 X33.3495 Y-3.4402
G01 X33.3481 Y-3.4305
G01 X33.3464 Y-3.4233
G01 X33.3433 Y-3.4140
G01 X33.3393 Y-3.4050
G01 X33.3345 Y-3.3965
G01 X33.3303 Y-3.3904
G01 X33.3241 Y-3.3828
G01 X33.3172 Y-3.3759
G01 X33.3096 Y-3.3697
G01 X33.3014 Y-3.3642
G01 X33.2928 Y-3.3596
G01 X33.2837 Y-3.3558
G01 X33.2719 Y-3.3524
G01 X33.2622 Y-3.3508
G01 X33.2525 Y-3.3500
G01 X31.5500 Y-3.3500
G01 X31.5402 Y-3.3505
G01 X31.5305 Y-3.3519
G01 X31.5233 Y-3.3536
G01 X31.5163 Y-3.3558
G01 X31.5095 Y-3.3586
G01 X31.5029 Y-3.3618
G01 X31.4965 Y-3.3655
G01 X31.4904 Y-3.3697
G01 X31.4847 Y-3.3743
G01 X31.4793 Y-3.3793
G01 X31.4743 Y-3.3847
G01 X31.4697 Y-3.3904
G01 X31.4655 Y-3.3965
G01 X31.4618 Y-3.4029
G01 X31.4586 Y-3.4095
G01 X31.4558 Y-3.4163
G01 X31.4536 Y-3.4233
G01 X31.4519 Y-3.4305
G01 X31.4505 Y-3.4402
G01 X31.4500 Y-3.4500
G01 X31.4500 Y-3.7498
G01 X29.2279 Y-3.7498
G01 X27.2855 Y-1.8075
G01 X27.2491 Y-1.7747
G01 X27.2057 Y-1.7425
G01 X27.1594 Y-1.7147
G01 X27.1150 Y-1.6936
G01 X27.1083 Y-1.6907
G01 X27.0942 Y-1.6857
G01 X27.0644 Y-1.6750
G01 X27.0550 Y-1.6722
G01 X27.0073 Y-1.6603
G01 X26.9588 Y-1.6530
G01 X26.9515 Y-1.6522
G01 X26.9000 Y-1.6498
G01 X8.2000 Y-1.6498
G01 X8.1461 Y-1.6524
G01 X8.0927 Y-1.6603
G01 X8.0403 Y-1.6735
G01 X7.9894 Y-1.6917
G01 X7.9406 Y-1.7147
G01 X7.8943 Y-1.7425
G01 X7.8509 Y-1.7747
G01 X7.8145 Y-1.8075
G01 X6.0092 Y-3.6127
G01 X5.9747 Y-3.6509
G01 X5.9453 Y-3.6903
G01 X5.9399 Y-3.6985
G01 X5.9172 Y-3.7364
G01 X5.9125 Y-3.7450
G01 X5.8917 Y-3.7894
G01 X5.8750 Y-3.8356
G01 X5.8722 Y-3.8450
G01 X5.8614 Y-3.8879
G01 X5.8595 Y-3.8975
G01 X5.8524 Y-3.9461
G01 X5.8498 Y-4.0000
G01 X5.8498 Y-6.5500
G01 X5.5500 Y-6.5500
G01 X5.5402 Y-6.5505
G01 X5.5281 Y-6.5524
G01 X5.5186 Y-6.5550
G01 X5.5117 Y-6.5576
G01 X5.5050 Y-6.5607
G01 X5.4986 Y-6.5642
G01 X5.4924 Y-6.5682
G01 X5.4866 Y-6.5727
G01 X5.4793 Y-6.5793
G01 X5.4743 Y-6.5847
G01 X5.4697 Y-6.5904
G01 X5.4655 Y-6.5965
G01 X5.4607 Y-6.6050
G01 X5.4576 Y-6.6117
G01 X5.4550 Y-6.6186
G01 X5.4530 Y-6.6257
G01 X5.4515 Y-6.6329
G01 X5.4503 Y-6.6426
G01 X5.4500 Y-6.6500
G01 X5.4500 Y-8.3525
G01 X5.4505 Y-8.3598
G01 X5.4515 Y-8.3671
G01 X5.4536 Y-8.3767
G01 X5.4558 Y-8.3837
G01 X5.4586 Y-8.3905
G01 X5.4618 Y-8.3971
G01 X5.4655 Y-8.4035
G01 X5.4697 Y-8.4096
G01 X5.4743 Y-8.4153
G01 X5.4793 Y-8.4207
G01 X5.4847 Y-8.4257
G01 X5.4904 Y-8.4303
G01 X5.4965 Y-8.4345
G01 X5.5029 Y-8.4382
G01 X5.5095 Y-8.4414
G01 X5.5163 Y-8.4442
G01 X5.5257 Y-8.4470
G01 X5.5329 Y-8.4485
G01 X5.5402 Y-8.4495
G01 X5.5500 Y-8.4500
G01 X7.2525 Y-8.4500
G01 X7.2598 Y-8.4495
G01 X7.2671 Y-8.4485
G01 X7.2790 Y-8.4457
G01 X7.2905 Y-8.4414
G01 X7.2971 Y-8.4382
G01 X7.3035 Y-8.4345
G01 X7.3096 Y-8.4303
G01 X7.3153 Y-8.4257
G01 X7.3241 Y-8.4172
G01 X7.3318 Y-8.4076
G01 X7.3358 Y-8.4014
G01 X7.3393 Y-8.3950
G01 X7.3433 Y-8.3860
G01 X7.3470 Y-8.3743
G01 X7.3492 Y-8.3622
G01 X7.3500 Y-8.3500
G01 X7.3500 Y-6.6500
G01 X7.3495 Y-6.6402
G01 X7.3481 Y-6.6305
G01 X7.3464 Y-6.6233
G01 X7.3442 Y-6.6163
G01 X7.3414 Y-6.6095
G01 X7.3382 Y-6.6029
G01 X7.3345 Y-6.5965
G01 X7.3303 Y-6.5904
G01 X7.3257 Y-6.5847
G01 X7.3207 Y-6.5793
G01 X7.3153 Y-6.5743
G01 X7.3096 Y-6.5697
G01 X7.3035 Y-6.5655
G01 X7.2971 Y-6.5618
G01 X7.2905 Y-6.5586
G01 X7.2837 Y-6.5558
G01 X7.2767 Y-6.5536
G01 X7.2695 Y-6.5519
G01 X7.2598 Y-6.5505
G01 X7.2500 Y-6.5500
G01 X6.9502 Y-6.5500
G01 X6.9502 Y-4.2279
G01 X8.4279 Y-2.7502
G01 X26.6721 Y-2.7502
G01 X28.6109 Y-4.6891
G01 X28.6509 Y-4.7253
G01 X28.6903 Y-4.7547
G01 X28.6985 Y-4.7601
G01 X28.7364 Y-4.7828
G01 X28.7450 Y-4.7875
G01 X28.7894 Y-4.8083
G01 X28.8356 Y-4.8250
G01 X28.8450 Y-4.8278
G01 X28.8879 Y-4.8386
G01 X28.8975 Y-4.8405
G01 X28.9461 Y-4.8476
G01 X28.9975 Y-4.8502
G01 X31.0716 Y-4.8502
G01 X29.3075 Y-6.6145
G01 X29.2747 Y-6.6509
G01 X29.2425 Y-6.6943
G01 X29.2147 Y-6.7406
G01 X29.1936 Y-6.7850
G01 X29.1907 Y-6.7917
G01 X29.1846 Y-6.8089
G01 X29.1742 Y-6.8379
G01 X29.1722 Y-6.8450
G01 X29.1603 Y-6.8927
G01 X29.1527 Y-6.9436
G01 X29.1521 Y-6.9510
G01 X29.1498 Y-7.0000
G01 X29.1498 Y-21.9025
G01 X29.1524 Y-21.9539
G01 X29.1603 Y-22.0073
G01 X29.1735 Y-22.0597
G01 X29.1917 Y-22.1106
G01 X29.2147 Y-22.1594
G01 X29.2425 Y-22.2057
G01 X29.2747 Y-22.2491
G01 X29.3075 Y-22.2855
G01 X31.8498 Y-24.8279
G01 X31.8498 Y-27.8266
G00 Z2.0000
M05
G00 Z2.0000
G00 Z2.50
G00 X0.0 Y0.0


