(G-CODE GENERATED BY FLATCAM v8.994 - www.flatcam.org - Version Date: 2020/11/7)

(Name: M¾dulo Patas-PTH.drl_cnc)
(Type: G-code from Geometry)
(Units: MM)

(Created on Saturday, 04 October 2025 at 22:50)

(This preprocessor is the default preprocessor used by FlatCAM.)
(It is made to work with MACH3 compatible motion controllers.)


(TOOLS DIAMETER: )
(Tool: 1 -> Dia: 1.0)

(FEEDRATE Z: )
(Tool: 1 -> Feedrate: 25.0)

(FEEDRATE RAPIDS: )
(Tool: 1 -> Feedrate Rapids: 1500.0)

(Z_CUT: )
(Tool: 1 -> Z_Cut: -2.5)

(Tools Offset: )
(Tool: 1 -> Offset Z: 0.0)

(Z_MOVE: )
(Tool: 1 -> Z_Move: 1.5)

(Z Toolchange: 15 mm)
(X,Y Toolchange: 0.0000, 0.0000 mm)
(Z Start: None mm)
(Z End: 2.5 mm)
(X,Y End: 0.0000, 0.0000 mm)
(Steps per circle: 64)
(Preprocessor Excellon: default)

(X range:   25.5000 ...   56.4400  mm)
(Y range:  -18.6200 ...   23.2400  mm)

(Spindle Speed: 10000 RPM)
G21
G90
G94

G01 F25.00

M5
G00 Z15.0000
T1
G00 X0.0000 Y0.0000                
M6
(MSG, Change to Tool Dia = 1.0000 ||| Total drills for tool T1 = 36)
M0
G00 Z15.0000

G01 F25.00
M03 S10000
G00 X55.9400 Y22.7000
G01 Z-2.5000
G01 Z0
G00 Z1.5000
G00 X53.4000 Y22.7000
G01 Z-2.5000
G01 Z0
G00 Z1.5000
G00 X35.8000 Y20.1600
G01 Z-2.5000
G01 Z0
G00 Z1.5000
G00 X35.8000 Y22.7000
G01 Z-2.5000
G01 Z0
G00 Z1.5000
G00 X30.2000 Y22.7400
G01 Z-2.5000
G01 Z0
G00 Z1.5000
G00 X30.2000 Y20.2000
G01 Z-2.5000
G01 Z0
G00 Z1.5000
G00 X28.4000 Y13.2000
G01 Z-2.5000
G01 Z0
G00 Z1.5000
G00 X28.4000 Y10.6600
G01 Z-2.5000
G01 Z0
G00 Z1.5000
G00 X28.4000 Y8.1200
G01 Z-2.5000
G01 Z0
G00 Z1.5000
G00 X26.0000 Y2.2000
G01 Z-2.5000
G01 Z0
G00 Z1.5000
G00 X26.0000 Y-0.3400
G01 Z-2.5000
G01 Z0
G00 Z1.5000
G00 X26.0000 Y-2.8800
G01 Z-2.5000
G01 Z0
G00 Z1.5000
G00 X26.0000 Y-5.4200
G01 Z-2.5000
G01 Z0
G00 Z1.5000
G00 X26.0000 Y-7.9600
G01 Z-2.5000
G01 Z0
G00 Z1.5000
G00 X26.0000 Y-10.5000
G01 Z-2.5000
G01 Z0
G00 Z1.5000
G00 X26.0000 Y-13.0400
G01 Z-2.5000
G01 Z0
G00 Z1.5000
G00 X26.0000 Y-15.5800
G01 Z-2.5000
G01 Z0
G00 Z1.5000
G00 X26.0000 Y-18.1200
G01 Z-2.5000
G01 Z0
G00 Z1.5000
G00 X41.2000 Y-18.1200
G01 Z-2.5000
G01 Z0
G00 Z1.5000
G00 X41.2000 Y-15.5800
G01 Z-2.5000
G01 Z0
G00 Z1.5000
G00 X41.2000 Y-13.0400
G01 Z-2.5000
G01 Z0
G00 Z1.5000
G00 X41.2000 Y-10.5000
G01 Z-2.5000
G01 Z0
G00 Z1.5000
G00 X41.2000 Y-7.9600
G01 Z-2.5000
G01 Z0
G00 Z1.5000
G00 X41.2000 Y-5.4200
G01 Z-2.5000
G01 Z0
G00 Z1.5000
G00 X41.2000 Y-2.8800
G01 Z-2.5000
G01 Z0
G00 Z1.5000
G00 X41.2000 Y-0.3400
G01 Z-2.5000
G01 Z0
G00 Z1.5000
G00 X41.2000 Y2.2000
G01 Z-2.5000
G01 Z0
G00 Z1.5000
G00 X37.0000 Y8.1200
G01 Z-2.5000
G01 Z0
G00 Z1.5000
G00 X37.0000 Y10.6600
G01 Z-2.5000
G01 Z0
G00 Z1.5000
G00 X37.0000 Y13.2000
G01 Z-2.5000
G01 Z0
G00 Z1.5000
G00 X45.6000 Y13.1000
G01 Z-2.5000
G01 Z0
G00 Z1.5000
G00 X45.6000 Y10.5600
G01 Z-2.5000
G01 Z0
G00 Z1.5000
G00 X45.6000 Y8.0200
G01 Z-2.5000
G01 Z0
G00 Z1.5000
G00 X54.2000 Y8.0200
G01 Z-2.5000
G01 Z0
G00 Z1.5000
G00 X54.2000 Y10.5600
G01 Z-2.5000
G01 Z0
G00 Z1.5000
G00 X54.2000 Y13.1000
G01 Z-2.5000
G01 Z0
G00 Z1.5000
M05
G00 Z2.50
G00 X0.0 Y0.0


