(G-CODE GENERATED BY FLATCAM v8.994 - www.flatcam.org - Version Date: 2020/11/7)

(Name: Oscilatorio_1-PTH.drl_2_cnc)
(Type: G-code from Geometry)
(Units: MM)

(Created on Saturday, 04 October 2025 at 22:45)

(This preprocessor is the default preprocessor used by FlatCAM.)
(It is made to work with MACH3 compatible motion controllers.)


(TOOLS DIAMETER: )
(Tool: 1 -> Dia: 1.0)

(FEEDRATE Z: )
(Tool: 1 -> Feedrate: 25.0)

(FEEDRATE RAPIDS: )
(Tool: 1 -> Feedrate Rapids: 1500.0)

(Z_CUT: )
(Tool: 1 -> Z_Cut: -2.5)

(Tools Offset: )
(Tool: 1 -> Offset Z: 0.0)

(Z_MOVE: )
(Tool: 1 -> Z_Move: 1.5)

(Z Toolchange: 15 mm)
(X,Y Toolchange: 0.0000, 0.0000 mm)
(Z Start: None mm)
(Z End: 2.5 mm)
(X,Y End: 0.0000, 0.0000 mm)
(Steps per circle: 64)
(Preprocessor Excellon: default)

(X range:  -49.2000 ...  -22.3000  mm)
(Y range:    8.0500 ...   27.0500  mm)

(Spindle Speed: 10000 RPM)
G21
G90
G94

G01 F25.00

M5
G00 Z15.0000
T1
G00 X0.0000 Y0.0000                
M6
(MSG, Change to Tool Dia = 1.0000 ||| Total drills for tool T1 = 25)
M0
G00 Z15.0000

G01 F25.00
M03 S10000
G00 X-22.8000 Y8.7500
G01 Z-2.5000
G01 Z0
G00 Z1.5000
G00 X-25.3400 Y8.7500
G01 Z-2.5000
G01 Z0
G00 Z1.5000
G00 X-27.8800 Y8.7500
G01 Z-2.5000
G01 Z0
G00 Z1.5000
G00 X-33.5000 Y8.5500
G01 Z-2.5000
G01 Z0
G00 Z1.5000
G00 X-48.7000 Y8.5500
G01 Z-2.5000
G01 Z0
G00 Z1.5000
G00 X-48.7000 Y11.0900
G01 Z-2.5000
G01 Z0
G00 Z1.5000
G00 X-48.7000 Y13.6300
G01 Z-2.5000
G01 Z0
G00 Z1.5000
G00 X-48.7000 Y16.1700
G01 Z-2.5000
G01 Z0
G00 Z1.5000
G00 X-48.7000 Y18.7100
G01 Z-2.5000
G01 Z0
G00 Z1.5000
G00 X-48.7000 Y21.2500
G01 Z-2.5000
G01 Z0
G00 Z1.5000
G00 X-48.7000 Y23.7900
G01 Z-2.5000
G01 Z0
G00 Z1.5000
G00 X-48.7000 Y26.3300
G01 Z-2.5000
G01 Z0
G00 Z1.5000
G00 X-33.5000 Y23.7900
G01 Z-2.5000
G01 Z0
G00 Z1.5000
G00 X-33.5000 Y26.3300
G01 Z-2.5000
G01 Z0
G00 Z1.5000
G00 X-27.1400 Y26.5500
G01 Z-2.5000
G01 Z0
G00 Z1.5000
G00 X-24.6000 Y26.5500
G01 Z-2.5000
G01 Z0
G00 Z1.5000
G00 X-23.0000 Y18.4500
G01 Z-2.5000
G01 Z0
G00 Z1.5000
G00 X-23.0000 Y15.9100
G01 Z-2.5000
G01 Z0
G00 Z1.5000
G00 X-28.8000 Y15.9100
G01 Z-2.5000
G01 Z0
G00 Z1.5000
G00 X-28.8000 Y18.4500
G01 Z-2.5000
G01 Z0
G00 Z1.5000
G00 X-33.5000 Y21.2500
G01 Z-2.5000
G01 Z0
G00 Z1.5000
G00 X-33.5000 Y18.7100
G01 Z-2.5000
G01 Z0
G00 Z1.5000
G00 X-33.5000 Y16.1700
G01 Z-2.5000
G01 Z0
G00 Z1.5000
G00 X-33.5000 Y13.6300
G01 Z-2.5000
G01 Z0
G00 Z1.5000
G00 X-33.5000 Y11.0900
G01 Z-2.5000
G01 Z0
G00 Z1.5000
M05
G00 Z2.50
G00 X0.0 Y0.0


