(G-CODE GENERATED BY FLATCAM v8.994 - www.flatcam.org - Version Date: 2020/11/7)

(Name: M¾dulo Patas-B_Cu.gbr_ncc_cnc)
(Type: G-code from Geometry)
(Units: MM)

(Created on Saturday, 04 October 2025 at 22:48)

(This preprocessor is the default preprocessor used by FlatCAM.)
(It is made to work with MACH3 compatible motion controllers.)

(TOOL DIAMETER: 0.1536 mm)
(Feedrate_XY: 120.0 mm/min)
(Feedrate_Z: 25.0 mm/min)
(Feedrate rapids 1500.0 mm/min)

(Z_Cut: -0.1 mm)
(Z_Move: 2.0 mm)
(Z Start: None mm)
(Z End: 2.5 mm)
(X,Y End: 0.0000, 0.0000 mm)
(Steps per circle: 64)
(Preprocessor Geometry: default)

(X range:   24.9763 ...   56.9637  mm)
(Y range:  -19.1437 ...   23.7237  mm)

(Spindle Speed: 10000.0 RPM)
G21
G90
G94

G01 F120.00

M5
G00 Z15.0000
G00 X0.0000 Y0.0000
T1
M6    
(MSG, Change to Tool Dia = 0.1536)
M0
G00 Z15.0000

M03 S10000.0
G01 F120.00
G00 X24.9763 Y3.0671
G01 F25.00
G01 Z-0.1000
G01 F120.00
G01 X24.9864 Y3.1178
G01 X25.0248 Y3.1752
G01 X25.0822 Y3.2136
G01 X25.1329 Y3.2237
G01 X25.1773 Y3.2237
G01 X25.1846 Y3.2242
G01 X25.1936 Y3.2259
G01 X25.2696 Y3.2483
G01 X25.2749 Y3.2505
G01 X25.2816 Y3.2541
G01 X25.2880 Y3.2583
G01 X25.2939 Y3.2631
G01 X25.3006 Y3.2699
G01 X25.3476 Y3.3242
G01 X25.3522 Y3.3303
G01 X25.3561 Y3.3369
G01 X25.3601 Y3.3456
G01 X25.3629 Y3.3548
G01 X25.3745 Y3.4082
G01 X25.3761 Y3.4190
G01 X25.3763 Y9.5235
G01 X25.4003 Y9.6440
G01 X25.4473 Y9.7575
G01 X25.5155 Y9.8597
G01 X26.8003 Y11.1445
G01 X26.9025 Y11.2127
G01 X27.0160 Y11.2597
G01 X27.1365 Y11.2837
G01 X27.4964 Y11.2838
G01 X27.5037 Y11.2845
G01 X27.5127 Y11.2863
G01 X27.5833 Y11.3070
G01 X27.5920 Y11.3105
G01 X27.6019 Y11.3159
G01 X27.6080 Y11.3204
G01 X27.6318 Y11.3397
G01 X27.7331 Y11.4408
G01 X27.8635 Y11.5355
G01 X28.0070 Y11.6087
G01 X28.1603 Y11.6585
G01 X28.3194 Y11.6837
G01 X28.4806 Y11.6837
G01 X28.6397 Y11.6585
G01 X28.7930 Y11.6087
G01 X28.9365 Y11.5355
G01 X29.0669 Y11.4408
G01 X29.1652 Y11.3425
G01 X29.1720 Y11.3364
G01 X29.1780 Y11.3322
G01 X29.2440 Y11.2959
G01 X29.2543 Y11.2913
G01 X29.2615 Y11.2890
G01 X29.2689 Y11.2875
G01 X29.3051 Y11.2837
G01 X36.0964 Y11.2838
G01 X36.1037 Y11.2845
G01 X36.1127 Y11.2863
G01 X36.1815 Y11.3065
G01 X36.1903 Y11.3097
G01 X36.2003 Y11.3149
G01 X36.2080 Y11.3204
G01 X36.2333 Y11.3411
G01 X36.3331 Y11.4408
G01 X36.4635 Y11.5355
G01 X36.6070 Y11.6087
G01 X36.7603 Y11.6585
G01 X36.9194 Y11.6837
G01 X37.0806 Y11.6837
G01 X37.2397 Y11.6585
G01 X37.3930 Y11.6087
G01 X37.5365 Y11.5355
G01 X37.6669 Y11.4408
G01 X37.7808 Y11.3269
G01 X37.8247 Y11.2665
G01 X37.8318 Y11.2581
G01 X37.8400 Y11.2508
G01 X37.8968 Y11.2070
G01 X37.9016 Y11.2038
G01 X37.9082 Y11.2001
G01 X37.9152 Y11.1971
G01 X37.9224 Y11.1947
G01 X37.9730 Y11.1850
G01 X37.9836 Y11.1838
G01 X44.6964 Y11.1838
G01 X44.7037 Y11.1845
G01 X44.7127 Y11.1863
G01 X44.7815 Y11.2065
G01 X44.7903 Y11.2097
G01 X44.8003 Y11.2149
G01 X44.8080 Y11.2204
G01 X44.8333 Y11.2411
G01 X44.9331 Y11.3408
G01 X45.0635 Y11.4355
G01 X45.2070 Y11.5087
G01 X45.3603 Y11.5585
G01 X45.5194 Y11.5837
G01 X45.6806 Y11.5837
G01 X45.8397 Y11.5585
G01 X45.9930 Y11.5087
G01 X46.1365 Y11.4355
G01 X46.2669 Y11.3408
G01 X46.2749 Y11.3331
G01 X46.2821 Y11.3276
G01 X46.2884 Y11.3238
G01 X46.3497 Y11.2903
G01 X46.3566 Y11.2870
G01 X46.3637 Y11.2843
G01 X46.3730 Y11.2821
G01 X46.3825 Y11.2810
G01 X46.3901 Y11.2810
G01 X46.4655 Y11.2865
G01 X46.4768 Y11.2887
G01 X46.4858 Y11.2918
G01 X46.4961 Y11.2971
G01 X46.5420 Y11.3266
G01 X46.5480 Y11.3308
G01 X46.5548 Y11.3369
G01 X55.2575 Y20.0395
G01 X55.2624 Y20.0449
G01 X55.2668 Y20.0508
G01 X55.2706 Y20.0570
G01 X55.3041 Y20.1184
G01 X55.3081 Y20.1269
G01 X55.3105 Y20.1340
G01 X55.3125 Y20.1432
G01 X55.3163 Y20.1795
G01 X55.3163 Y21.4755
G01 X55.3160 Y21.4828
G01 X55.3149 Y21.4900
G01 X55.3132 Y21.4971
G01 X55.2929 Y21.5660
G01 X55.2895 Y21.5749
G01 X55.2849 Y21.5833
G01 X55.2782 Y21.5925
G01 X55.2715 Y21.5993
G01 X55.2173 Y21.6463
G01 X55.2113 Y21.6511
G01 X55.2048 Y21.6552
G01 X55.1979 Y21.6586
G01 X55.1907 Y21.6613
G01 X55.1833 Y21.6633
G01 X55.1318 Y21.6745
G01 X55.1246 Y21.6758
G01 X55.1173 Y21.6763
G01 X55.0729 Y21.6763
G01 X55.0222 Y21.6864
G01 X54.9648 Y21.7248
G01 X54.9264 Y21.7822
G01 X54.9163 Y21.8329
G01 X54.9163 Y23.5671
G01 X54.9264 Y23.6178
G01 X54.9648 Y23.6752
G01 X55.0222 Y23.7136
G01 X55.0729 Y23.7237
G01 X56.8071 Y23.7237
G01 X56.8578 Y23.7136
G01 X56.9152 Y23.6752
G01 X56.9536 Y23.6178
G01 X56.9637 Y23.5671
G01 X56.9637 Y21.8329
G01 X56.9536 Y21.7822
G01 X56.9152 Y21.7248
G01 X56.8578 Y21.6864
G01 X56.8071 Y21.6763
G01 X56.7627 Y21.6763
G01 X56.7554 Y21.6758
G01 X56.7500 Y21.6749
G01 X56.7429 Y21.6732
G01 X56.6740 Y21.6529
G01 X56.6669 Y21.6503
G01 X56.6617 Y21.6478
G01 X56.6520 Y21.6417
G01 X56.6461 Y21.6369
G01 X56.6420 Y21.6329
G01 X56.5924 Y21.5758
G01 X56.5878 Y21.5697
G01 X56.5830 Y21.5614
G01 X56.5793 Y21.5526
G01 X56.5767 Y21.5433
G01 X56.5651 Y21.4900
G01 X56.5640 Y21.4828
G01 X56.5637 Y21.4755
G01 X56.5637 Y19.7786
G01 X56.5397 Y19.6581
G01 X56.4927 Y19.5446
G01 X56.4245 Y19.4424
G01 X48.5085 Y11.5265
G01 X48.5014 Y11.5182
G01 X48.4963 Y11.5106
G01 X48.4611 Y11.4460
G01 X48.4579 Y11.4390
G01 X48.4560 Y11.4336
G01 X48.4534 Y11.4225
G01 X48.4527 Y11.4149
G01 X48.4526 Y11.4073
G01 X48.4577 Y11.3357
G01 X48.4590 Y11.3262
G01 X48.4614 Y11.3170
G01 X48.4650 Y11.3082
G01 X48.4706 Y11.2983
G01 X48.5159 Y11.2377
G01 X48.5222 Y11.2306
G01 X48.5294 Y11.2243
G01 X48.5373 Y11.2190
G01 X48.5458 Y11.2147
G01 X48.6166 Y11.1882
G01 X48.6258 Y11.1857
G01 X48.6370 Y11.1842
G01 X48.6505 Y11.1837
G01 X53.2946 Y11.1837
G01 X53.3037 Y11.1845
G01 X53.3127 Y11.1863
G01 X53.3815 Y11.2065
G01 X53.3903 Y11.2097
G01 X53.4003 Y11.2149
G01 X53.4080 Y11.2204
G01 X53.4333 Y11.2411
G01 X53.5331 Y11.3408
G01 X53.6635 Y11.4355
G01 X53.8070 Y11.5087
G01 X53.9603 Y11.5585
G01 X54.1194 Y11.5837
G01 X54.2806 Y11.5837
G01 X54.4397 Y11.5585
G01 X54.5930 Y11.5087
G01 X54.7365 Y11.4355
G01 X54.8669 Y11.3408
G01 X54.9808 Y11.2269
G01 X55.0755 Y11.0965
G01 X55.1487 Y10.9530
G01 X55.1985 Y10.7997
G01 X55.2237 Y10.6406
G01 X55.2237 Y10.4794
G01 X55.1985 Y10.3203
G01 X55.1487 Y10.1670
G01 X55.0755 Y10.0235
G01 X54.9808 Y9.8931
G01 X54.8669 Y9.7792
G01 X54.7365 Y9.6845
G01 X54.5930 Y9.6113
G01 X54.4397 Y9.5615
G01 X54.2806 Y9.5363
G01 X54.1194 Y9.5363
G01 X53.9603 Y9.5615
G01 X53.8070 Y9.6113
G01 X53.6635 Y9.6845
G01 X53.5331 Y9.7792
G01 X53.4348 Y9.8775
G01 X53.4294 Y9.8824
G01 X53.4235 Y9.8868
G01 X53.4173 Y9.8906
G01 X53.3560 Y9.9241
G01 X53.3474 Y9.9281
G01 X53.3403 Y9.9305
G01 X53.3311 Y9.9325
G01 X53.2949 Y9.9363
G01 X46.5054 Y9.9363
G01 X46.4963 Y9.9355
G01 X46.4873 Y9.9337
G01 X46.4185 Y9.9135
G01 X46.4097 Y9.9103
G01 X46.3997 Y9.9051
G01 X46.3920 Y9.8996
G01 X46.3667 Y9.8789
G01 X46.2669 Y9.7792
G01 X46.1365 Y9.6845
G01 X45.9930 Y9.6113
G01 X45.8397 Y9.5615
G01 X45.6806 Y9.5363
G01 X45.5194 Y9.5363
G01 X45.3603 Y9.5615
G01 X45.2070 Y9.6113
G01 X45.0635 Y9.6845
G01 X44.9331 Y9.7792
G01 X44.8348 Y9.8775
G01 X44.8280 Y9.8836
G01 X44.8220 Y9.8878
G01 X44.7560 Y9.9241
G01 X44.7474 Y9.9281
G01 X44.7403 Y9.9305
G01 X44.7311 Y9.9325
G01 X44.6969 Y9.9362
G01 X37.8072 Y9.9363
G01 X37.7963 Y9.9355
G01 X37.7856 Y9.9332
G01 X37.7167 Y9.9130
G01 X37.7097 Y9.9103
G01 X37.7029 Y9.9070
G01 X37.6935 Y9.9008
G01 X37.6672 Y9.8794
G01 X37.5365 Y9.7845
G01 X37.3930 Y9.7113
G01 X37.2397 Y9.6615
G01 X37.0806 Y9.6363
G01 X36.9194 Y9.6363
G01 X36.7603 Y9.6615
G01 X36.6070 Y9.7113
G01 X36.4635 Y9.7845
G01 X36.3331 Y9.8792
G01 X36.2348 Y9.9775
G01 X36.2294 Y9.9824
G01 X36.2220 Y9.9878
G01 X36.1560 Y10.0241
G01 X36.1474 Y10.0281
G01 X36.1403 Y10.0305
G01 X36.1311 Y10.0325
G01 X36.0969 Y10.0362
G01 X29.3072 Y10.0363
G01 X29.2963 Y10.0355
G01 X29.2856 Y10.0332
G01 X29.2167 Y10.0130
G01 X29.2080 Y10.0095
G01 X29.1997 Y10.0051
G01 X29.1920 Y9.9996
G01 X29.1667 Y9.9789
G01 X29.0669 Y9.8792
G01 X28.9365 Y9.7845
G01 X28.7930 Y9.7113
G01 X28.6397 Y9.6615
G01 X28.4806 Y9.6363
G01 X28.3194 Y9.6363
G01 X28.1603 Y9.6615
G01 X28.0070 Y9.7113
G01 X27.8635 Y9.7845
G01 X27.7331 Y9.8792
G01 X27.6581 Y9.9542
G01 X27.6498 Y9.9613
G01 X27.6406 Y9.9673
G01 X27.5776 Y10.0016
G01 X27.5689 Y10.0055
G01 X27.5616 Y10.0077
G01 X27.5522 Y10.0095
G01 X27.5427 Y10.0101
G01 X27.4673 Y10.0050
G01 X27.4559 Y10.0033
G01 X27.4504 Y10.0018
G01 X27.4431 Y9.9992
G01 X27.4329 Y9.9940
G01 X27.3854 Y9.9635
G01 X27.3795 Y9.9591
G01 X27.3754 Y9.9554
G01 X26.6812 Y9.2612
G01 X26.6753 Y9.2543
G01 X26.6703 Y9.2466
G01 X26.6359 Y9.1837
G01 X26.6326 Y9.1769
G01 X26.6295 Y9.1681
G01 X26.6275 Y9.1589
G01 X26.6238 Y9.1247
G01 X26.6238 Y3.4208
G01 X26.6245 Y3.4136
G01 X26.6263 Y3.4046
G01 X26.6483 Y3.3304
G01 X26.6522 Y3.3217
G01 X26.6572 Y3.3136
G01 X26.6631 Y3.3061
G01 X26.6699 Y3.2994
G01 X26.7257 Y3.2512
G01 X26.7352 Y3.2448
G01 X26.7421 Y3.2414
G01 X26.7474 Y3.2393
G01 X26.7567 Y3.2367
G01 X26.8136 Y3.2245
G01 X26.8227 Y3.2237
G01 X26.8671 Y3.2237
G01 X26.9178 Y3.2136
G01 X26.9752 Y3.1752
G01 X27.0136 Y3.1178
G01 X27.0237 Y3.0671
G01 X27.0237 Y1.3329
G01 X27.0136 Y1.2822
G01 X26.9752 Y1.2248
G01 X26.9178 Y1.1864
G01 X26.8671 Y1.1763
G01 X25.1329 Y1.1763
G01 X25.0822 Y1.1864
G01 X25.0248 Y1.2248
G01 X24.9864 Y1.2822
G01 X24.9763 Y1.3329
G01 X24.9763 Y3.0671
G01 X25.2838 Y3.1882
G01 X25.2937 Y3.1918
G01 X25.3014 Y3.1951
G01 X25.3106 Y3.1999
G01 X25.3193 Y3.2053
G01 X25.3277 Y3.2113
G01 X25.3370 Y3.2192
G01 X25.3442 Y3.2265
G01 X25.3955 Y3.2857
G01 X25.4037 Y3.2968
G01 X25.4115 Y3.3104
G01 X25.4115 Y3.1882
G01 X25.2838 Y3.1882
G00 Z2.0000
G00 X26.7108 Y3.1882
G01 F25.00
G01 Z-0.1000
G01 F120.00
G01 X26.5885 Y3.1882
G01 X26.5885 Y3.3155
G01 X26.5911 Y3.3080
G01 X26.5945 Y3.2999
G01 X26.6016 Y3.2865
G01 X26.6104 Y3.2735
G01 X26.6203 Y3.2619
G01 X26.6291 Y3.2535
G01 X26.6857 Y3.2045
G01 X26.6984 Y3.1953
G01 X26.7108 Y3.1882
G00 Z2.0000
G00 X26.7808 Y-2.2131
G01 F25.00
G01 Z-0.1000
G01 F120.00
G01 X26.8755 Y-2.3435
G01 X26.9487 Y-2.4870
G01 X26.9985 Y-2.6403
G01 X27.0237 Y-2.7994
G01 X27.0237 Y-2.9606
G01 X26.9985 Y-3.1197
G01 X26.9487 Y-3.2730
G01 X26.8755 Y-3.4165
G01 X26.7808 Y-3.5469
G01 X26.6669 Y-3.6608
G01 X26.5365 Y-3.7555
G01 X26.3930 Y-3.8287
G01 X26.2397 Y-3.8785
G01 X26.0806 Y-3.9037
G01 X25.9194 Y-3.9037
G01 X25.7603 Y-3.8785
G01 X25.6070 Y-3.8287
G01 X25.4635 Y-3.7555
G01 X25.3331 Y-3.6608
G01 X25.2192 Y-3.5469
G01 X25.1245 Y-3.4165
G01 X25.0513 Y-3.2730
G01 X25.0015 Y-3.1197
G01 X24.9763 Y-2.9606
G01 X24.9763 Y-2.7994
G01 X25.0015 Y-2.6403
G01 X25.0513 Y-2.4870
G01 X25.1245 Y-2.3435
G01 X25.2192 Y-2.2131
G01 X25.3331 Y-2.0992
G01 X25.4635 Y-2.0045
G01 X25.6070 Y-1.9313
G01 X25.7603 Y-1.8815
G01 X25.9194 Y-1.8563
G01 X26.0806 Y-1.8563
G01 X26.2397 Y-1.8815
G01 X26.3930 Y-1.9313
G01 X26.5365 Y-2.0045
G01 X26.6669 Y-2.0992
G01 X26.7808 Y-2.2131
G00 Z2.0000
G00 X25.9962 Y-3.8067
G01 F25.00
G01 Z-0.1000
G01 F120.00
G01 X26.0038 Y-3.8067
G01 X26.0908 Y-3.8023
G01 X26.1808 Y-3.7890
G01 X26.2690 Y-3.7669
G01 X26.3547 Y-3.7363
G01 X26.4369 Y-3.6974
G01 X26.5149 Y-3.6506
G01 X26.5880 Y-3.5964
G01 X26.6553 Y-3.5353
G01 X26.7164 Y-3.4680
G01 X26.7706 Y-3.3949
G01 X26.8174 Y-3.3169
G01 X26.8563 Y-3.2347
G01 X26.8869 Y-3.1490
G01 X26.9090 Y-3.0608
G01 X26.9223 Y-2.9708
G01 X26.9268 Y-2.8800
G01 X26.9223 Y-2.7892
G01 X26.9090 Y-2.6992
G01 X26.8869 Y-2.6110
G01 X26.8563 Y-2.5253
G01 X26.8174 Y-2.4431
G01 X26.7706 Y-2.3651
G01 X26.7164 Y-2.2920
G01 X26.6553 Y-2.2247
G01 X26.5880 Y-2.1636
G01 X26.5149 Y-2.1094
G01 X26.4369 Y-2.0626
G01 X26.3547 Y-2.0237
G01 X26.2690 Y-1.9931
G01 X26.1808 Y-1.9710
G01 X26.0908 Y-1.9577
G01 X26.0000 Y-1.9532
G01 X25.9092 Y-1.9577
G01 X25.8192 Y-1.9710
G01 X25.7310 Y-1.9931
G01 X25.6453 Y-2.0237
G01 X25.5631 Y-2.0626
G01 X25.4851 Y-2.1094
G01 X25.4120 Y-2.1636
G01 X25.3447 Y-2.2247
G01 X25.2836 Y-2.2920
G01 X25.2294 Y-2.3651
G01 X25.1826 Y-2.4431
G01 X25.1437 Y-2.5253
G01 X25.1131 Y-2.6110
G01 X25.0910 Y-2.6992
G01 X25.0777 Y-2.7892
G01 X25.0732 Y-2.8800
G01 X25.0777 Y-2.9708
G01 X25.0910 Y-3.0608
G01 X25.1131 Y-3.1490
G01 X25.1437 Y-3.2347
G01 X25.1826 Y-3.3169
G01 X25.2294 Y-3.3949
G01 X25.2836 Y-3.4680
G01 X25.3447 Y-3.5353
G01 X25.4120 Y-3.5964
G01 X25.4851 Y-3.6506
G01 X25.5631 Y-3.6974
G01 X25.6453 Y-3.7363
G01 X25.7310 Y-3.7669
G01 X25.8192 Y-3.7890
G01 X25.9092 Y-3.8023
G01 X25.9962 Y-3.8067
G00 Z2.0000
G00 X26.7808 Y-4.7531
G01 F25.00
G01 Z-0.1000
G01 F120.00
G01 X26.8755 Y-4.8835
G01 X26.9487 Y-5.0270
G01 X26.9985 Y-5.1803
G01 X27.0237 Y-5.3394
G01 X27.0237 Y-5.5006
G01 X26.9985 Y-5.6597
G01 X26.9487 Y-5.8130
G01 X26.8755 Y-5.9565
G01 X26.7808 Y-6.0869
G01 X26.6669 Y-6.2008
G01 X26.5365 Y-6.2955
G01 X26.3930 Y-6.3687
G01 X26.2397 Y-6.4185
G01 X26.0806 Y-6.4437
G01 X25.9194 Y-6.4437
G01 X25.7603 Y-6.4185
G01 X25.6070 Y-6.3687
G01 X25.4635 Y-6.2955
G01 X25.3331 Y-6.2008
G01 X25.2192 Y-6.0869
G01 X25.1245 Y-5.9565
G01 X25.0513 Y-5.8130
G01 X25.0015 Y-5.6597
G01 X24.9763 Y-5.5006
G01 X24.9763 Y-5.3394
G01 X25.0015 Y-5.1803
G01 X25.0513 Y-5.0270
G01 X25.1245 Y-4.8835
G01 X25.2192 Y-4.7531
G01 X25.3331 Y-4.6392
G01 X25.4635 Y-4.5445
G01 X25.6070 Y-4.4713
G01 X25.7603 Y-4.4215
G01 X25.9194 Y-4.3963
G01 X26.0806 Y-4.3963
G01 X26.2397 Y-4.4215
G01 X26.3930 Y-4.4713
G01 X26.5365 Y-4.5445
G01 X26.6669 Y-4.6392
G01 X26.7808 Y-4.7531
G00 Z2.0000
G00 X25.9962 Y-6.3467
G01 F25.00
G01 Z-0.1000
G01 F120.00
G01 X26.0038 Y-6.3467
G01 X26.0908 Y-6.3423
G01 X26.1808 Y-6.3290
G01 X26.2690 Y-6.3069
G01 X26.3547 Y-6.2763
G01 X26.4369 Y-6.2374
G01 X26.5149 Y-6.1906
G01 X26.5880 Y-6.1364
G01 X26.6553 Y-6.0753
G01 X26.7164 Y-6.0080
G01 X26.7706 Y-5.9349
G01 X26.8174 Y-5.8569
G01 X26.8563 Y-5.7747
G01 X26.8869 Y-5.6890
G01 X26.9090 Y-5.6008
G01 X26.9223 Y-5.5108
G01 X26.9268 Y-5.4200
G01 X26.9223 Y-5.3292
G01 X26.9090 Y-5.2392
G01 X26.8869 Y-5.1510
G01 X26.8563 Y-5.0653
G01 X26.8174 Y-4.9831
G01 X26.7706 Y-4.9051
G01 X26.7164 Y-4.8320
G01 X26.6553 Y-4.7647
G01 X26.5880 Y-4.7036
G01 X26.5149 Y-4.6494
G01 X26.4369 Y-4.6026
G01 X26.3547 Y-4.5637
G01 X26.2690 Y-4.5331
G01 X26.1808 Y-4.5110
G01 X26.0908 Y-4.4977
G01 X26.0000 Y-4.4932
G01 X25.9092 Y-4.4977
G01 X25.8192 Y-4.5110
G01 X25.7310 Y-4.5331
G01 X25.6453 Y-4.5637
G01 X25.5631 Y-4.6026
G01 X25.4851 Y-4.6494
G01 X25.4120 Y-4.7036
G01 X25.3447 Y-4.7647
G01 X25.2836 Y-4.8320
G01 X25.2294 Y-4.9051
G01 X25.1826 Y-4.9831
G01 X25.1437 Y-5.0653
G01 X25.1131 Y-5.1510
G01 X25.0910 Y-5.2392
G01 X25.0777 Y-5.3292
G01 X25.0732 Y-5.4200
G01 X25.0777 Y-5.5108
G01 X25.0910 Y-5.6008
G01 X25.1131 Y-5.6890
G01 X25.1437 Y-5.7747
G01 X25.1826 Y-5.8569
G01 X25.2294 Y-5.9349
G01 X25.2836 Y-6.0080
G01 X25.3447 Y-6.0753
G01 X25.4120 Y-6.1364
G01 X25.4851 Y-6.1906
G01 X25.5631 Y-6.2374
G01 X25.6453 Y-6.2763
G01 X25.7310 Y-6.3069
G01 X25.8192 Y-6.3290
G01 X25.9092 Y-6.3423
G01 X25.9962 Y-6.3467
G00 Z2.0000
G00 X26.7808 Y-7.2931
G01 F25.00
G01 Z-0.1000
G01 F120.00
G01 X26.8755 Y-7.4235
G01 X26.9487 Y-7.5670
G01 X26.9985 Y-7.7203
G01 X27.0237 Y-7.8794
G01 X27.0237 Y-8.0406
G01 X26.9985 Y-8.1997
G01 X26.9487 Y-8.3530
G01 X26.8755 Y-8.4965
G01 X26.7808 Y-8.6269
G01 X26.6669 Y-8.7408
G01 X26.5365 Y-8.8355
G01 X26.3930 Y-8.9087
G01 X26.2397 Y-8.9585
G01 X26.0806 Y-8.9837
G01 X25.9194 Y-8.9837
G01 X25.7603 Y-8.9585
G01 X25.6070 Y-8.9087
G01 X25.4635 Y-8.8355
G01 X25.3331 Y-8.7408
G01 X25.2192 Y-8.6269
G01 X25.1245 Y-8.4965
G01 X25.0513 Y-8.3530
G01 X25.0015 Y-8.1997
G01 X24.9763 Y-8.0406
G01 X24.9763 Y-7.8794
G01 X25.0015 Y-7.7203
G01 X25.0513 Y-7.5670
G01 X25.1245 Y-7.4235
G01 X25.2192 Y-7.2931
G01 X25.3331 Y-7.1792
G01 X25.4635 Y-7.0845
G01 X25.6070 Y-7.0113
G01 X25.7603 Y-6.9615
G01 X25.9194 Y-6.9363
G01 X26.0806 Y-6.9363
G01 X26.2397 Y-6.9615
G01 X26.3930 Y-7.0113
G01 X26.5365 Y-7.0845
G01 X26.6669 Y-7.1792
G01 X26.7808 Y-7.2931
G00 Z2.0000
G00 X25.9962 Y-8.8867
G01 F25.00
G01 Z-0.1000
G01 F120.00
G01 X26.0038 Y-8.8867
G01 X26.0908 Y-8.8823
G01 X26.1808 Y-8.8690
G01 X26.2690 Y-8.8469
G01 X26.3547 Y-8.8163
G01 X26.4369 Y-8.7774
G01 X26.5149 Y-8.7306
G01 X26.5880 Y-8.6764
G01 X26.6553 Y-8.6153
G01 X26.7164 Y-8.5480
G01 X26.7706 Y-8.4749
G01 X26.8174 Y-8.3969
G01 X26.8563 Y-8.3147
G01 X26.8869 Y-8.2290
G01 X26.9090 Y-8.1408
G01 X26.9223 Y-8.0508
G01 X26.9268 Y-7.9600
G01 X26.9223 Y-7.8692
G01 X26.9090 Y-7.7792
G01 X26.8869 Y-7.6910
G01 X26.8563 Y-7.6053
G01 X26.8174 Y-7.5231
G01 X26.7706 Y-7.4451
G01 X26.7164 Y-7.3720
G01 X26.6553 Y-7.3047
G01 X26.5880 Y-7.2436
G01 X26.5149 Y-7.1894
G01 X26.4369 Y-7.1426
G01 X26.3547 Y-7.1037
G01 X26.2690 Y-7.0731
G01 X26.1808 Y-7.0510
G01 X26.0908 Y-7.0377
G01 X26.0000 Y-7.0332
G01 X25.9092 Y-7.0377
G01 X25.8192 Y-7.0510
G01 X25.7310 Y-7.0731
G01 X25.6453 Y-7.1037
G01 X25.5631 Y-7.1426
G01 X25.4851 Y-7.1894
G01 X25.4120 Y-7.2436
G01 X25.3447 Y-7.3047
G01 X25.2836 Y-7.3720
G01 X25.2294 Y-7.4451
G01 X25.1826 Y-7.5231
G01 X25.1437 Y-7.6053
G01 X25.1131 Y-7.6910
G01 X25.0910 Y-7.7792
G01 X25.0777 Y-7.8692
G01 X25.0732 Y-7.9600
G01 X25.0777 Y-8.0508
G01 X25.0910 Y-8.1408
G01 X25.1131 Y-8.2290
G01 X25.1437 Y-8.3147
G01 X25.1826 Y-8.3969
G01 X25.2294 Y-8.4749
G01 X25.2836 Y-8.5480
G01 X25.3447 Y-8.6153
G01 X25.4120 Y-8.6764
G01 X25.4851 Y-8.7306
G01 X25.5631 Y-8.7774
G01 X25.6453 Y-8.8163
G01 X25.7310 Y-8.8469
G01 X25.8192 Y-8.8690
G01 X25.9092 Y-8.8823
G01 X25.9962 Y-8.8867
G00 Z2.0000
G00 X26.7808 Y-9.8331
G01 F25.00
G01 Z-0.1000
G01 F120.00
G01 X26.8755 Y-9.9635
G01 X26.9487 Y-10.1070
G01 X26.9985 Y-10.2603
G01 X27.0237 Y-10.4194
G01 X27.0237 Y-10.5806
G01 X26.9985 Y-10.7397
G01 X26.9487 Y-10.8930
G01 X26.8755 Y-11.0365
G01 X26.7808 Y-11.1669
G01 X26.6669 Y-11.2808
G01 X26.5365 Y-11.3755
G01 X26.3930 Y-11.4487
G01 X26.2397 Y-11.4985
G01 X26.0806 Y-11.5237
G01 X25.9194 Y-11.5237
G01 X25.7603 Y-11.4985
G01 X25.6070 Y-11.4487
G01 X25.4635 Y-11.3755
G01 X25.3331 Y-11.2808
G01 X25.2192 Y-11.1669
G01 X25.1245 Y-11.0365
G01 X25.0513 Y-10.8930
G01 X25.0015 Y-10.7397
G01 X24.9763 Y-10.5806
G01 X24.9763 Y-10.4194
G01 X25.0015 Y-10.2603
G01 X25.0513 Y-10.1070
G01 X25.1245 Y-9.9635
G01 X25.2192 Y-9.8331
G01 X25.3331 Y-9.7192
G01 X25.4635 Y-9.6245
G01 X25.6070 Y-9.5513
G01 X25.7603 Y-9.5015
G01 X25.9194 Y-9.4763
G01 X26.0806 Y-9.4763
G01 X26.2397 Y-9.5015
G01 X26.3930 Y-9.5513
G01 X26.5365 Y-9.6245
G01 X26.6669 Y-9.7192
G01 X26.7808 Y-9.8331
G00 Z2.0000
G00 X25.9962 Y-11.4267
G01 F25.00
G01 Z-0.1000
G01 F120.00
G01 X26.0038 Y-11.4267
G01 X26.0908 Y-11.4223
G01 X26.1808 Y-11.4090
G01 X26.2690 Y-11.3869
G01 X26.3547 Y-11.3563
G01 X26.4369 Y-11.3174
G01 X26.5149 Y-11.2706
G01 X26.5880 Y-11.2164
G01 X26.6553 Y-11.1553
G01 X26.7164 Y-11.0880
G01 X26.7706 Y-11.0149
G01 X26.8174 Y-10.9369
G01 X26.8563 Y-10.8547
G01 X26.8869 Y-10.7690
G01 X26.9090 Y-10.6808
G01 X26.9223 Y-10.5908
G01 X26.9268 Y-10.5000
G01 X26.9223 Y-10.4092
G01 X26.9090 Y-10.3192
G01 X26.8869 Y-10.2310
G01 X26.8563 Y-10.1453
G01 X26.8174 Y-10.0631
G01 X26.7706 Y-9.9851
G01 X26.7164 Y-9.9120
G01 X26.6553 Y-9.8447
G01 X26.5880 Y-9.7836
G01 X26.5149 Y-9.7294
G01 X26.4369 Y-9.6826
G01 X26.3547 Y-9.6437
G01 X26.2690 Y-9.6131
G01 X26.1808 Y-9.5910
G01 X26.0908 Y-9.5777
G01 X26.0000 Y-9.5732
G01 X25.9092 Y-9.5777
G01 X25.8192 Y-9.5910
G01 X25.7310 Y-9.6131
G01 X25.6453 Y-9.6437
G01 X25.5631 Y-9.6826
G01 X25.4851 Y-9.7294
G01 X25.4120 Y-9.7836
G01 X25.3447 Y-9.8447
G01 X25.2836 Y-9.9120
G01 X25.2294 Y-9.9851
G01 X25.1826 Y-10.0631
G01 X25.1437 Y-10.1453
G01 X25.1131 Y-10.2310
G01 X25.0910 Y-10.3192
G01 X25.0777 Y-10.4092
G01 X25.0732 Y-10.5000
G01 X25.0777 Y-10.5908
G01 X25.0910 Y-10.6808
G01 X25.1131 Y-10.7690
G01 X25.1437 Y-10.8547
G01 X25.1826 Y-10.9369
G01 X25.2294 Y-11.0149
G01 X25.2836 Y-11.0880
G01 X25.3447 Y-11.1553
G01 X25.4120 Y-11.2164
G01 X25.4851 Y-11.2706
G01 X25.5631 Y-11.3174
G01 X25.6453 Y-11.3563
G01 X25.7310 Y-11.3869
G01 X25.8192 Y-11.4090
G01 X25.9092 Y-11.4223
G01 X25.9962 Y-11.4267
G00 Z2.0000
G00 X26.9355 Y-13.6385
G01 F25.00
G01 Z-0.1000
G01 F120.00
G01 X26.9779 Y-13.5674
G01 X26.9848 Y-13.5542
G01 X27.0010 Y-13.5200
G01 X27.0171 Y-13.5299
G01 X27.0349 Y-13.5391
G01 X26.9355 Y-13.6385
G00 Z2.0000
G00 X26.4759 Y-14.0429
G01 F25.00
G01 Z-0.1000
G01 F120.00
G01 X26.4892 Y-14.0609
G01 X26.4987 Y-14.0753
G01 X26.5985 Y-13.9755
G01 X26.5258 Y-14.0188
G01 X26.5139 Y-14.0249
G01 X26.4759 Y-14.0429
G01 X26.3790 Y-14.0182
G01 X26.3916 Y-14.0328
G01 X26.4357 Y-14.0918
G01 X26.4431 Y-14.1025
G01 X26.4498 Y-14.1136
G01 X26.4584 Y-14.1306
G01 X26.4655 Y-14.1491
G01 X26.4707 Y-14.1683
G01 X26.4739 Y-14.1870
G01 X27.1483 Y-13.5126
G01 X27.0783 Y-13.4907
G01 X27.0624 Y-13.4842
G01 X27.0468 Y-13.4762
G01 X27.0371 Y-13.4702
G01 X27.0283 Y-13.4641
G01 X27.0189 Y-13.4569
G01 X27.0115 Y-13.4504
G01 X26.9975 Y-13.4363
G01 X26.9795 Y-13.4152
G01 X26.9721 Y-13.4357
G01 X26.9675 Y-13.4469
G01 X26.9264 Y-13.5335
G01 X26.9211 Y-13.5430
G01 X26.8778 Y-13.6152
G01 X26.8680 Y-13.6300
G01 X26.8119 Y-13.7053
G01 X26.8050 Y-13.7133
G01 X26.7482 Y-13.7760
G01 X26.7351 Y-13.7890
G01 X26.6731 Y-13.8453
G01 X26.6615 Y-13.8549
G01 X26.5838 Y-13.9124
G01 X26.5749 Y-13.9180
G01 X26.5004 Y-13.9626
G01 X26.4864 Y-13.9700
G01 X26.4076 Y-14.0072
G01 X26.3964 Y-14.0119
G01 X26.3790 Y-14.0182
G01 X26.2201 Y-14.0026
G01 X26.2821 Y-14.0257
G01 X26.2909 Y-14.0294
G01 X26.2984 Y-14.0331
G01 X26.3061 Y-14.0374
G01 X26.3146 Y-14.0431
G01 X26.3213 Y-14.0482
G01 X26.3328 Y-14.0588
G01 X26.3428 Y-14.0703
G01 X26.3879 Y-14.1305
G01 X26.3926 Y-14.1374
G01 X26.3978 Y-14.1463
G01 X26.4030 Y-14.1574
G01 X26.4066 Y-14.1670
G01 X26.4096 Y-14.1769
G01 X26.4120 Y-14.1884
G01 X26.4135 Y-14.2013
G01 X26.4188 Y-14.2771
G01 X26.4188 Y-14.2855
G01 X26.4182 Y-14.2942
G01 X26.4172 Y-14.3026
G01 X26.4155 Y-14.3112
G01 X26.4134 Y-14.3193
G01 X26.4107 Y-14.3276
G01 X26.4076 Y-14.3355
G01 X26.4034 Y-14.3443
G01 X27.3071 Y-13.4407
G01 X27.2491 Y-13.4568
G01 X27.2390 Y-13.4592
G01 X27.2304 Y-13.4606
G01 X27.2201 Y-13.4615
G01 X27.2117 Y-13.4617
G01 X27.2030 Y-13.4614
G01 X27.1878 Y-13.4594
G01 X27.1726 Y-13.4558
G01 X27.1026 Y-13.4341
G01 X27.0916 Y-13.4299
G01 X27.0822 Y-13.4255
G01 X27.0733 Y-13.4204
G01 X27.0647 Y-13.4147
G01 X27.0566 Y-13.4083
G01 X27.0477 Y-13.4000
G01 X27.0402 Y-13.3919
G01 X26.9952 Y-13.3384
G01 X26.9885 Y-13.3297
G01 X26.9828 Y-13.3211
G01 X26.9785 Y-13.3134
G01 X26.9748 Y-13.3059
G01 X26.9710 Y-13.2963
G01 X26.9683 Y-13.2880
G01 X26.9657 Y-13.2780
G01 X26.9628 Y-13.2590
G01 X26.9455 Y-13.3276
G01 X26.9152 Y-13.4126
G01 X26.9103 Y-13.4244
G01 X26.8712 Y-13.5065
G01 X26.8253 Y-13.5833
G01 X26.8178 Y-13.5946
G01 X26.7634 Y-13.6675
G01 X26.6993 Y-13.7383
G01 X26.6321 Y-13.7995
G01 X26.6216 Y-13.8081
G01 X26.5484 Y-13.8621
G01 X26.4682 Y-13.9103
G01 X26.4598 Y-13.9146
G01 X26.3844 Y-13.9503
G01 X26.3743 Y-13.9545
G01 X26.2876 Y-13.9855
G01 X26.2201 Y-14.0026
G01 X25.9962 Y-13.9667
G01 X25.9092 Y-13.9623
G01 X25.8229 Y-13.9496
G01 X25.8155 Y-13.9482
G01 X25.7346 Y-13.9279
G01 X25.7274 Y-13.9257
G01 X25.6488 Y-13.8976
G01 X25.6419 Y-13.8947
G01 X25.5631 Y-13.8574
G01 X25.4835 Y-13.8095
G01 X25.4120 Y-13.7564
G01 X25.3447 Y-13.6953
G01 X25.2836 Y-13.6280
G01 X25.2294 Y-13.5549
G01 X25.1826 Y-13.4769
G01 X25.1437 Y-13.3947
G01 X25.1131 Y-13.3090
G01 X25.0918 Y-13.2245
G01 X25.0904 Y-13.2171
G01 X25.0777 Y-13.1308
G01 X25.0732 Y-13.0400
G01 X25.0777 Y-12.9492
G01 X25.0904 Y-12.8629
G01 X25.0918 Y-12.8555
G01 X25.1121 Y-12.7746
G01 X25.1143 Y-12.7674
G01 X25.1437 Y-12.6853
G01 X25.1809 Y-12.6065
G01 X25.1845 Y-12.5998
G01 X25.2294 Y-12.5251
G01 X25.2836 Y-12.4520
G01 X25.3447 Y-12.3847
G01 X25.4120 Y-12.3236
G01 X25.4851 Y-12.2694
G01 X25.5598 Y-12.2245
G01 X25.5665 Y-12.2209
G01 X25.6419 Y-12.1853
G01 X25.6488 Y-12.1824
G01 X25.7310 Y-12.1531
G01 X25.8155 Y-12.1318
G01 X25.8229 Y-12.1304
G01 X25.9092 Y-12.1177
G01 X26.0000 Y-12.1132
G01 X26.0908 Y-12.1177
G01 X26.1808 Y-12.1310
G01 X26.2690 Y-12.1531
G01 X26.3547 Y-12.1837
G01 X26.4369 Y-12.2226
G01 X26.5149 Y-12.2694
G01 X26.5880 Y-12.3236
G01 X26.6553 Y-12.3847
G01 X26.7164 Y-12.4520
G01 X26.7706 Y-12.5251
G01 X26.8174 Y-12.6031
G01 X26.8563 Y-12.6853
G01 X26.8869 Y-12.7710
G01 X26.9090 Y-12.8592
G01 X26.9223 Y-12.9492
G01 X26.9268 Y-13.0400
G01 X26.9223 Y-13.1308
G01 X26.9090 Y-13.2208
G01 X26.8869 Y-13.3090
G01 X26.8563 Y-13.3947
G01 X26.8174 Y-13.4769
G01 X26.7706 Y-13.5549
G01 X26.7164 Y-13.6280
G01 X26.6553 Y-13.6953
G01 X26.5880 Y-13.7564
G01 X26.5149 Y-13.8106
G01 X26.4369 Y-13.8574
G01 X26.3547 Y-13.8963
G01 X26.2690 Y-13.9269
G01 X26.1808 Y-13.9490
G01 X26.0908 Y-13.9623
G01 X26.0038 Y-13.9667
G01 X25.9962 Y-13.9667
G00 Z2.0000
G00 X26.1609 Y-14.5280
G01 F25.00
G01 Z-0.1000
G01 F120.00
G01 X26.1660 Y-14.5251
G01 X26.1722 Y-14.5208
G01 X26.1990 Y-14.4989
G01 X26.3052 Y-14.3925
G01 X26.3097 Y-14.3867
G01 X26.3137 Y-14.3806
G01 X26.3480 Y-14.3177
G01 X26.3514 Y-14.3108
G01 X26.3545 Y-14.3018
G01 X26.3568 Y-14.2906
G01 X26.3573 Y-14.2849
G01 X26.3574 Y-14.2773
G01 X26.3521 Y-14.2038
G01 X26.3506 Y-14.1944
G01 X26.3486 Y-14.1870
G01 X26.3442 Y-14.1765
G01 X26.3383 Y-14.1667
G01 X26.2953 Y-14.1092
G01 X26.2878 Y-14.1006
G01 X26.2821 Y-14.0955
G01 X26.2759 Y-14.0910
G01 X26.2693 Y-14.0872
G01 X26.2624 Y-14.0840
G01 X26.1934 Y-14.0582
G01 X26.1841 Y-14.0557
G01 X26.1765 Y-14.0545
G01 X26.1670 Y-14.0540
G01 X26.1333 Y-14.0555
G01 X26.0806 Y-14.0637
G01 X25.9194 Y-14.0637
G01 X25.7603 Y-14.0385
G01 X25.6070 Y-13.9887
G01 X25.4635 Y-13.9155
G01 X25.3331 Y-13.8208
G01 X25.2192 Y-13.7069
G01 X25.1245 Y-13.5765
G01 X25.0513 Y-13.4330
G01 X25.0015 Y-13.2797
G01 X24.9763 Y-13.1206
G01 X24.9763 Y-12.9594
G01 X25.0015 Y-12.8003
G01 X25.0513 Y-12.6470
G01 X25.1245 Y-12.5035
G01 X25.2192 Y-12.3731
G01 X25.3331 Y-12.2592
G01 X25.4635 Y-12.1645
G01 X25.6070 Y-12.0913
G01 X25.7603 Y-12.0415
G01 X25.9194 Y-12.0163
G01 X26.0806 Y-12.0163
G01 X26.2397 Y-12.0415
G01 X26.3930 Y-12.0913
G01 X26.5365 Y-12.1645
G01 X26.6669 Y-12.2592
G01 X26.7808 Y-12.3731
G01 X26.8755 Y-12.5035
G01 X26.9487 Y-12.6470
G01 X26.9985 Y-12.8003
G01 X27.0237 Y-12.9594
G01 X27.0237 Y-13.1206
G01 X27.0159 Y-13.1699
G01 X27.0153 Y-13.1772
G01 X27.0155 Y-13.1863
G01 X27.0258 Y-13.2649
G01 X27.0283 Y-13.2741
G01 X27.0311 Y-13.2811
G01 X27.0346 Y-13.2879
G01 X27.0387 Y-13.2943
G01 X27.0885 Y-13.3537
G01 X27.0952 Y-13.3605
G01 X27.1028 Y-13.3663
G01 X27.1109 Y-13.3712
G01 X27.1215 Y-13.3756
G01 X27.1919 Y-13.3974
G01 X27.2012 Y-13.3994
G01 X27.2107 Y-13.4002
G01 X27.2202 Y-13.3999
G01 X27.2278 Y-13.3988
G01 X27.3025 Y-13.3782
G01 X27.3115 Y-13.3748
G01 X27.3199 Y-13.3704
G01 X27.3278 Y-13.3649
G01 X27.3513 Y-13.3462
G01 X27.3565 Y-13.3415
G01 X33.0175 Y-7.6805
G01 X33.0247 Y-7.6722
G01 X33.0297 Y-7.6646
G01 X33.0650 Y-7.6000
G01 X33.0681 Y-7.5931
G01 X33.0700 Y-7.5878
G01 X33.0719 Y-7.5805
G01 X33.0728 Y-7.5749
G01 X33.0759 Y-7.5467
G01 X33.0763 Y-7.5385
G01 X33.0763 Y2.4785
G01 X33.0758 Y2.4876
G01 X33.0737 Y2.4984
G01 X33.0517 Y2.5725
G01 X33.0470 Y2.5828
G01 X33.0419 Y2.5907
G01 X33.0230 Y2.6144
G01 X33.0175 Y2.6205
G01 X28.6005 Y7.0375
G01 X28.5951 Y7.0424
G01 X28.5892 Y7.0468
G01 X28.5830 Y7.0506
G01 X28.5216 Y7.0841
G01 X28.5131 Y7.0881
G01 X28.5060 Y7.0905
G01 X28.4968 Y7.0925
G01 X28.4626 Y7.0962
G01 X27.5329 Y7.0963
G01 X27.4822 Y7.1064
G01 X27.4248 Y7.1448
G01 X27.3864 Y7.2022
G01 X27.3763 Y7.2529
G01 X27.3763 Y8.9871
G01 X27.3864 Y9.0378
G01 X27.4248 Y9.0952
G01 X27.4822 Y9.1336
G01 X27.5329 Y9.1437
G01 X29.2671 Y9.1437
G01 X29.3178 Y9.1336
G01 X29.3752 Y9.0952
G01 X29.4136 Y9.0378
G01 X29.4237 Y8.9871
G01 X29.4238 Y8.0579
G01 X29.4248 Y8.0488
G01 X29.4263 Y8.0416
G01 X29.4465 Y7.9728
G01 X29.4490 Y7.9657
G01 X29.4521 Y7.9589
G01 X29.4570 Y7.9508
G01 X29.4770 Y7.9257
G01 X29.4825 Y7.9195
G01 X34.1845 Y3.2176
G01 X34.2527 Y3.1154
G01 X34.2997 Y3.0019
G01 X34.3237 Y2.8814
G01 X34.3237 Y-7.9414
G01 X34.2997 Y-8.0619
G01 X34.2527 Y-8.1754
G01 X34.1845 Y-8.2776
G01 X27.0800 Y-15.3822
G01 X27.0753 Y-15.3878
G01 X27.0703 Y-15.3954
G01 X27.0359 Y-15.4584
G01 X27.0313 Y-15.4686
G01 X27.0286 Y-15.4777
G01 X27.0270 Y-15.4869
G01 X27.0237 Y-15.5195
G01 X27.0237 Y-15.6606
G01 X26.9985 Y-15.8197
G01 X26.9487 Y-15.9730
G01 X26.8755 Y-16.1165
G01 X26.7808 Y-16.2469
G01 X26.6669 Y-16.3608
G01 X26.5365 Y-16.4555
G01 X26.3930 Y-16.5287
G01 X26.2397 Y-16.5785
G01 X26.0806 Y-16.6037
G01 X25.9194 Y-16.6037
G01 X25.7603 Y-16.5785
G01 X25.6070 Y-16.5287
G01 X25.4635 Y-16.4555
G01 X25.3331 Y-16.3608
G01 X25.2192 Y-16.2469
G01 X25.1245 Y-16.1165
G01 X25.0513 Y-15.9730
G01 X25.0015 Y-15.8197
G01 X24.9763 Y-15.6606
G01 X24.9763 Y-15.4994
G01 X25.0015 Y-15.3403
G01 X25.0513 Y-15.1870
G01 X25.1245 Y-15.0435
G01 X25.2192 Y-14.9131
G01 X25.3331 Y-14.7992
G01 X25.4635 Y-14.7045
G01 X25.6070 Y-14.6313
G01 X25.7603 Y-14.5815
G01 X25.9194 Y-14.5563
G01 X26.0585 Y-14.5563
G01 X26.0694 Y-14.5555
G01 X26.0784 Y-14.5537
G01 X26.1069 Y-14.5453
G01 X26.1399 Y-14.5379
G01 X26.1507 Y-14.5338
G01 X26.1609 Y-14.5280
G01 X26.1487 Y-14.5991
G01 X26.1444 Y-14.6034
G01 X26.1352 Y-14.6020
G01 X26.1487 Y-14.5991
G01 X26.1660 Y-14.6687
G01 X26.0908 Y-14.6577
G01 X26.0000 Y-14.6532
G01 X25.9092 Y-14.6577
G01 X25.8229 Y-14.6704
G01 X25.8155 Y-14.6718
G01 X25.7346 Y-14.6921
G01 X25.7274 Y-14.6943
G01 X25.6453 Y-14.7237
G01 X25.5665 Y-14.7609
G01 X25.5598 Y-14.7645
G01 X25.4883 Y-14.8074
G01 X25.4820 Y-14.8116
G01 X25.4120 Y-14.8636
G01 X25.3447 Y-14.9247
G01 X25.2836 Y-14.9920
G01 X25.2316 Y-15.0620
G01 X25.2274 Y-15.0683
G01 X25.1826 Y-15.1431
G01 X25.1437 Y-15.2253
G01 X25.1143 Y-15.3074
G01 X25.1121 Y-15.3146
G01 X25.0910 Y-15.3992
G01 X25.0777 Y-15.4892
G01 X25.0733 Y-15.5762
G01 X25.0733 Y-15.5838
G01 X25.0777 Y-15.6708
G01 X25.0910 Y-15.7608
G01 X25.1121 Y-15.8454
G01 X25.1143 Y-15.8526
G01 X25.1437 Y-15.9347
G01 X25.1826 Y-16.0169
G01 X25.2274 Y-16.0917
G01 X25.2316 Y-16.0980
G01 X25.2836 Y-16.1680
G01 X25.3447 Y-16.2353
G01 X25.4120 Y-16.2964
G01 X25.4851 Y-16.3506
G01 X25.5631 Y-16.3974
G01 X25.6453 Y-16.4363
G01 X25.7310 Y-16.4669
G01 X25.8192 Y-16.4890
G01 X25.9092 Y-16.5023
G01 X26.0000 Y-16.5068
G01 X26.0908 Y-16.5023
G01 X26.1808 Y-16.4890
G01 X26.2690 Y-16.4669
G01 X26.3547 Y-16.4363
G01 X26.4369 Y-16.3974
G01 X26.5149 Y-16.3506
G01 X26.5865 Y-16.2976
G01 X26.6526 Y-16.2379
G01 X26.6579 Y-16.2326
G01 X26.7164 Y-16.1680
G01 X26.7684 Y-16.0980
G01 X26.7726 Y-16.0917
G01 X26.8174 Y-16.0169
G01 X26.8547 Y-15.9381
G01 X26.8576 Y-15.9312
G01 X26.8869 Y-15.8490
G01 X26.9082 Y-15.7645
G01 X26.9096 Y-15.7571
G01 X26.9223 Y-15.6708
G01 X26.9267 Y-15.5838
G01 X26.9267 Y-15.5762
G01 X26.9223 Y-15.4892
G01 X26.9113 Y-15.4140
G01 X34.0727 Y-8.2527
G01 X34.1074 Y-8.2143
G01 X34.1360 Y-8.1759
G01 X34.1402 Y-8.1696
G01 X34.1629 Y-8.1317
G01 X34.1665 Y-8.1251
G01 X34.1869 Y-8.0817
G01 X34.2043 Y-8.0330
G01 X34.2169 Y-7.9828
G01 X34.2245 Y-7.9317
G01 X34.2270 Y-7.8800
G01 X34.2270 Y2.8200
G01 X34.2245 Y2.8717
G01 X34.2169 Y2.9228
G01 X34.2043 Y2.9730
G01 X34.1876 Y3.0199
G01 X34.1648 Y3.0684
G01 X34.1382 Y3.1128
G01 X34.1074 Y3.1543
G01 X34.0727 Y3.1927
G01 X29.3268 Y7.9385
G01 X29.3268 Y8.9719
G01 X29.3262 Y8.9794
G01 X29.3249 Y8.9868
G01 X29.3229 Y8.9941
G01 X29.3202 Y9.0011
G01 X29.3168 Y9.0079
G01 X29.3117 Y9.0157
G01 X29.3069 Y9.0216
G01 X29.3016 Y9.0269
G01 X29.2957 Y9.0317
G01 X29.2911 Y9.0349
G01 X29.2845 Y9.0386
G01 X29.2776 Y9.0417
G01 X29.2723 Y9.0435
G01 X29.2650 Y9.0453
G01 X29.2575 Y9.0464
G01 X29.2500 Y9.0468
G01 X27.5500 Y9.0468
G01 X27.5425 Y9.0464
G01 X27.5350 Y9.0453
G01 X27.5277 Y9.0435
G01 X27.5206 Y9.0410
G01 X27.5105 Y9.0359
G01 X27.5013 Y9.0294
G01 X27.4931 Y9.0216
G01 X27.4861 Y9.0127
G01 X27.4806 Y9.0028
G01 X27.4765 Y8.9923
G01 X27.4743 Y8.9831
G01 X27.4732 Y8.9719
G01 X27.4732 Y7.2700
G01 X27.4736 Y7.2625
G01 X27.4747 Y7.2550
G01 X27.4760 Y7.2495
G01 X27.4783 Y7.2424
G01 X27.4806 Y7.2372
G01 X27.4841 Y7.2305
G01 X27.4883 Y7.2243
G01 X27.4918 Y7.2198
G01 X27.4970 Y7.2144
G01 X27.5043 Y7.2083
G01 X27.5105 Y7.2041
G01 X27.5172 Y7.2006
G01 X27.5241 Y7.1977
G01 X27.5332 Y7.1951
G01 X27.5406 Y7.1938
G01 X27.5481 Y7.1932
G01 X28.5815 Y7.1932
G01 X33.1730 Y2.6017
G01 X33.1730 Y-7.6617
G01 X26.1660 Y-14.6687
G00 Z2.0000
G00 X26.9771 Y-15.4389
G01 F25.00
G01 Z-0.1000
G01 F120.00
G01 X26.9766 Y-15.4356
G01 X26.9805 Y-15.4317
G01 X26.9786 Y-15.4356
G01 X26.9771 Y-15.4389
G00 Z2.0000
G00 X26.7858 Y-17.5223
G01 F25.00
G01 Z-0.1000
G01 F120.00
G01 X26.8028 Y-17.5315
G01 X26.7927 Y-17.5315
G01 X26.7858 Y-17.5223
G00 Z2.0000
G00 X26.7617 Y-18.6470
G01 F25.00
G01 Z-0.1000
G01 F120.00
G01 X30.2819 Y-18.6470
G01 X30.3317 Y-18.6445
G01 X30.3791 Y-18.6375
G01 X30.3865 Y-18.6361
G01 X30.4330 Y-18.6243
G01 X30.4782 Y-18.6083
G01 X30.4851 Y-18.6054
G01 X30.5284 Y-18.5848
G01 X30.5728 Y-18.5582
G01 X30.6143 Y-18.5274
G01 X30.6527 Y-18.4927
G01 X37.3727 Y-11.7727
G01 X37.4074 Y-11.7343
G01 X37.4382 Y-11.6928
G01 X37.4648 Y-11.6484
G01 X37.4869 Y-11.6017
G01 X37.5043 Y-11.5530
G01 X37.5169 Y-11.5028
G01 X37.5245 Y-11.4517
G01 X37.5270 Y-11.4000
G01 X37.5270 Y7.1932
G01 X37.8500 Y7.1932
G01 X37.8613 Y7.1940
G01 X37.8723 Y7.1965
G01 X37.8828 Y7.2006
G01 X37.8879 Y7.2032
G01 X37.8942 Y7.2072
G01 X37.9030 Y7.2144
G01 X37.9105 Y7.2228
G01 X37.9149 Y7.2289
G01 X37.9177 Y7.2338
G01 X37.9223 Y7.2441
G01 X37.9253 Y7.2550
G01 X37.9264 Y7.2625
G01 X37.9268 Y7.2700
G01 X37.9268 Y8.9719
G01 X37.9257 Y8.9831
G01 X37.9235 Y8.9923
G01 X37.9194 Y9.0028
G01 X37.9139 Y9.0127
G01 X37.9069 Y9.0216
G01 X37.8987 Y9.0294
G01 X37.8895 Y9.0359
G01 X37.8794 Y9.0410
G01 X37.8723 Y9.0435
G01 X37.8650 Y9.0453
G01 X37.8575 Y9.0464
G01 X37.8500 Y9.0468
G01 X36.1481 Y9.0468
G01 X36.1425 Y9.0464
G01 X36.1350 Y9.0453
G01 X36.1277 Y9.0435
G01 X36.1206 Y9.0410
G01 X36.1155 Y9.0386
G01 X36.1089 Y9.0349
G01 X36.1028 Y9.0305
G01 X36.0970 Y9.0256
G01 X36.0931 Y9.0216
G01 X36.0883 Y9.0157
G01 X36.0841 Y9.0095
G01 X36.0806 Y9.0028
G01 X36.0777 Y8.9959
G01 X36.0755 Y8.9887
G01 X36.0743 Y8.9831
G01 X36.0734 Y8.9756
G01 X36.0732 Y7.2700
G01 X36.0738 Y7.2606
G01 X36.0751 Y7.2532
G01 X36.0783 Y7.2424
G01 X36.0832 Y7.2321
G01 X36.0895 Y7.2228
G01 X36.0931 Y7.2184
G01 X36.0984 Y7.2131
G01 X36.1073 Y7.2061
G01 X36.1172 Y7.2006
G01 X36.1277 Y7.1965
G01 X36.1387 Y7.1940
G01 X36.1500 Y7.1932
G01 X36.4730 Y7.1932
G01 X36.4730 Y-11.1817
G01 X30.0617 Y-17.5930
G01 X26.7617 Y-17.5930
G01 X26.7164 Y-17.5320
G01 X26.6579 Y-17.4674
G01 X26.6526 Y-17.4621
G01 X26.5908 Y-17.4060
G01 X26.5850 Y-17.4013
G01 X26.5149 Y-17.3494
G01 X26.4369 Y-17.3026
G01 X26.3581 Y-17.2653
G01 X26.3512 Y-17.2624
G01 X26.2690 Y-17.2331
G01 X26.1845 Y-17.2118
G01 X26.1771 Y-17.2104
G01 X26.0908 Y-17.1977
G01 X26.0000 Y-17.1932
G01 X25.9092 Y-17.1977
G01 X25.8229 Y-17.2104
G01 X25.8155 Y-17.2118
G01 X25.7310 Y-17.2331
G01 X25.6488 Y-17.2624
G01 X25.6419 Y-17.2653
G01 X25.5631 Y-17.3026
G01 X25.4851 Y-17.3494
G01 X25.4150 Y-17.4013
G01 X25.4092 Y-17.4060
G01 X25.3447 Y-17.4647
G01 X25.2860 Y-17.5292
G01 X25.2813 Y-17.5350
G01 X25.2305 Y-17.6035
G01 X25.1826 Y-17.6831
G01 X25.1437 Y-17.7653
G01 X25.1131 Y-17.8510
G01 X25.0910 Y-17.9392
G01 X25.0777 Y-18.0292
G01 X25.0732 Y-18.1200
G01 X25.0777 Y-18.2108
G01 X25.0910 Y-18.3008
G01 X25.1131 Y-18.3890
G01 X25.1437 Y-18.4747
G01 X25.1826 Y-18.5569
G01 X25.2294 Y-18.6349
G01 X25.2836 Y-18.7080
G01 X25.3447 Y-18.7753
G01 X25.4120 Y-18.8364
G01 X25.4835 Y-18.8895
G01 X25.5631 Y-18.9374
G01 X25.6453 Y-18.9763
G01 X25.7310 Y-19.0069
G01 X25.8155 Y-19.0282
G01 X25.8229 Y-19.0296
G01 X25.9092 Y-19.0423
G01 X25.9962 Y-19.0467
G01 X26.0038 Y-19.0467
G01 X26.0871 Y-19.0426
G01 X26.0946 Y-19.0419
G01 X26.1808 Y-19.0290
G01 X26.2690 Y-19.0069
G01 X26.3547 Y-18.9763
G01 X26.4335 Y-18.9391
G01 X26.4402 Y-18.9355
G01 X26.5149 Y-18.8906
G01 X26.5850 Y-18.8387
G01 X26.5908 Y-18.8340
G01 X26.6526 Y-18.7779
G01 X26.6579 Y-18.7726
G01 X26.7164 Y-18.7080
G01 X26.7617 Y-18.6470
G01 X26.7982 Y-18.7085
G01 X26.7907 Y-18.7111
G01 X26.7927 Y-18.7085
G01 X26.7982 Y-18.7085
G00 Z2.0000
G00 X30.4425 Y-18.7236
G01 F25.00
G01 Z-0.1000
G01 F120.00
G01 X30.3414 Y-18.7437
G01 X26.9072 Y-18.7437
G01 X26.8999 Y-18.7440
G01 X26.8945 Y-18.7448
G01 X26.8873 Y-18.7463
G01 X26.8167 Y-18.7670
G01 X26.8080 Y-18.7705
G01 X26.7981 Y-18.7759
G01 X26.7920 Y-18.7804
G01 X26.7667 Y-18.8011
G01 X26.6669 Y-18.9008
G01 X26.5365 Y-18.9955
G01 X26.3930 Y-19.0687
G01 X26.2397 Y-19.1185
G01 X26.0806 Y-19.1437
G01 X25.9194 Y-19.1437
G01 X25.7603 Y-19.1185
G01 X25.6070 Y-19.0687
G01 X25.4635 Y-18.9955
G01 X25.3331 Y-18.9008
G01 X25.2192 Y-18.7869
G01 X25.1245 Y-18.6565
G01 X25.0513 Y-18.5130
G01 X25.0015 Y-18.3597
G01 X24.9763 Y-18.2006
G01 X24.9763 Y-18.0394
G01 X25.0015 Y-17.8803
G01 X25.0513 Y-17.7270
G01 X25.1245 Y-17.5835
G01 X25.2192 Y-17.4531
G01 X25.3331 Y-17.3392
G01 X25.4635 Y-17.2445
G01 X25.6070 Y-17.1713
G01 X25.7603 Y-17.1215
G01 X25.9194 Y-17.0963
G01 X26.0806 Y-17.0963
G01 X26.2397 Y-17.1215
G01 X26.3930 Y-17.1713
G01 X26.5365 Y-17.2445
G01 X26.6669 Y-17.3392
G01 X26.7652 Y-17.4375
G01 X26.7720 Y-17.4436
G01 X26.7780 Y-17.4478
G01 X26.8440 Y-17.4841
G01 X26.8526 Y-17.4881
G01 X26.8597 Y-17.4905
G01 X26.8689 Y-17.4925
G01 X26.9010 Y-17.4961
G01 X29.9385 Y-17.4963
G01 X29.9494 Y-17.4955
G01 X29.9601 Y-17.4932
G01 X30.0290 Y-17.4730
G01 X30.0377 Y-17.4695
G01 X30.0460 Y-17.4651
G01 X30.0537 Y-17.4596
G01 X30.0744 Y-17.4430
G01 X30.0805 Y-17.4375
G01 X36.3175 Y-11.2005
G01 X36.3235 Y-11.1936
G01 X36.3297 Y-11.1846
G01 X36.3658 Y-11.1183
G01 X36.3694 Y-11.1096
G01 X36.3722 Y-11.0986
G01 X36.3759 Y-11.0667
G01 X36.3763 Y-11.0585
G01 X36.3763 Y6.8973
G01 X36.3755 Y6.9064
G01 X36.3737 Y6.9154
G01 X36.3517 Y6.9896
G01 X36.3478 Y6.9983
G01 X36.3439 Y7.0049
G01 X36.3382 Y7.0125
G01 X36.3315 Y7.0193
G01 X36.2743 Y7.0688
G01 X36.2681 Y7.0732
G01 X36.2631 Y7.0761
G01 X36.2526 Y7.0807
G01 X36.2433 Y7.0833
G01 X36.1864 Y7.0955
G01 X36.1773 Y7.0963
G01 X36.1329 Y7.0963
G01 X36.0822 Y7.1064
G01 X36.0248 Y7.1448
G01 X35.9864 Y7.2022
G01 X35.9763 Y7.2529
G01 X35.9763 Y8.9871
G01 X35.9864 Y9.0378
G01 X36.0248 Y9.0952
G01 X36.0822 Y9.1336
G01 X36.1329 Y9.1437
G01 X37.8671 Y9.1437
G01 X37.9178 Y9.1336
G01 X37.9752 Y9.0952
G01 X38.0136 Y9.0378
G01 X38.0237 Y8.9871
G01 X38.0237 Y7.2529
G01 X38.0136 Y7.2022
G01 X37.9752 Y7.1448
G01 X37.9178 Y7.1064
G01 X37.8671 Y7.0963
G01 X37.8227 Y7.0963
G01 X37.8154 Y7.0958
G01 X37.8064 Y7.0941
G01 X37.7304 Y7.0717
G01 X37.7234 Y7.0687
G01 X37.7167 Y7.0649
G01 X37.7120 Y7.0617
G01 X37.7061 Y7.0569
G01 X37.6994 Y7.0501
G01 X37.6524 Y6.9958
G01 X37.6478 Y6.9897
G01 X37.6430 Y6.9814
G01 X37.6393 Y6.9726
G01 X37.6367 Y6.9633
G01 X37.6251 Y6.9100
G01 X37.6240 Y6.9028
G01 X37.6237 Y6.8973
G01 X37.6237 Y-11.4614
G01 X37.5997 Y-11.5819
G01 X37.5527 Y-11.6954
G01 X37.4845 Y-11.7976
G01 X30.6776 Y-18.6045
G01 X30.5754 Y-18.6727
G01 X30.4619 Y-18.7197
G01 X30.4425 Y-18.7236
G00 Z2.0000
G00 X41.1962 Y-19.0467
G01 F25.00
G01 Z-0.1000
G01 F120.00
G01 X41.2038 Y-19.0467
G01 X41.2908 Y-19.0423
G01 X41.3808 Y-19.0290
G01 X41.4690 Y-19.0069
G01 X41.5547 Y-18.9763
G01 X41.6369 Y-18.9374
G01 X41.7149 Y-18.8906
G01 X41.7880 Y-18.8364
G01 X41.8553 Y-18.7753
G01 X41.9164 Y-18.7080
G01 X41.9706 Y-18.6349
G01 X42.0174 Y-18.5569
G01 X42.0563 Y-18.4747
G01 X42.0869 Y-18.3890
G01 X42.1090 Y-18.3008
G01 X42.1223 Y-18.2108
G01 X42.1268 Y-18.1200
G01 X42.1223 Y-18.0292
G01 X42.1090 Y-17.9392
G01 X42.0869 Y-17.8510
G01 X42.0563 Y-17.7653
G01 X42.0174 Y-17.6831
G01 X41.9706 Y-17.6051
G01 X41.9164 Y-17.5320
G01 X41.8553 Y-17.4647
G01 X41.7880 Y-17.4036
G01 X41.7149 Y-17.3494
G01 X41.6369 Y-17.3026
G01 X41.5547 Y-17.2637
G01 X41.4690 Y-17.2331
G01 X41.3808 Y-17.2110
G01 X41.2908 Y-17.1977
G01 X41.2000 Y-17.1932
G01 X41.1092 Y-17.1977
G01 X41.0192 Y-17.2110
G01 X40.9310 Y-17.2331
G01 X40.8453 Y-17.2637
G01 X40.7631 Y-17.3026
G01 X40.6851 Y-17.3494
G01 X40.6120 Y-17.4036
G01 X40.5447 Y-17.4647
G01 X40.4836 Y-17.5320
G01 X40.4294 Y-17.6051
G01 X40.3826 Y-17.6831
G01 X40.3437 Y-17.7653
G01 X40.3131 Y-17.8510
G01 X40.2910 Y-17.9392
G01 X40.2777 Y-18.0292
G01 X40.2732 Y-18.1200
G01 X40.2777 Y-18.2108
G01 X40.2910 Y-18.3008
G01 X40.3131 Y-18.3890
G01 X40.3437 Y-18.4747
G01 X40.3826 Y-18.5569
G01 X40.4294 Y-18.6349
G01 X40.4836 Y-18.7080
G01 X40.5447 Y-18.7753
G01 X40.6120 Y-18.8364
G01 X40.6851 Y-18.8906
G01 X40.7631 Y-18.9374
G01 X40.8453 Y-18.9763
G01 X40.9310 Y-19.0069
G01 X41.0192 Y-19.0290
G01 X41.1092 Y-19.0423
G01 X41.1962 Y-19.0467
G00 Z2.0000
G00 X41.9808 Y-17.4531
G01 F25.00
G01 Z-0.1000
G01 F120.00
G01 X42.0755 Y-17.5835
G01 X42.1487 Y-17.7270
G01 X42.1985 Y-17.8803
G01 X42.2237 Y-18.0394
G01 X42.2237 Y-18.2006
G01 X42.1985 Y-18.3597
G01 X42.1487 Y-18.5130
G01 X42.0755 Y-18.6565
G01 X41.9808 Y-18.7869
G01 X41.8669 Y-18.9008
G01 X41.7365 Y-18.9955
G01 X41.5930 Y-19.0687
G01 X41.4397 Y-19.1185
G01 X41.2806 Y-19.1437
G01 X41.1194 Y-19.1437
G01 X40.9603 Y-19.1185
G01 X40.8070 Y-19.0687
G01 X40.6635 Y-18.9955
G01 X40.5331 Y-18.9008
G01 X40.4192 Y-18.7869
G01 X40.3245 Y-18.6565
G01 X40.2513 Y-18.5130
G01 X40.2015 Y-18.3597
G01 X40.1763 Y-18.2006
G01 X40.1763 Y-18.0394
G01 X40.2015 Y-17.8803
G01 X40.2513 Y-17.7270
G01 X40.3245 Y-17.5835
G01 X40.4192 Y-17.4531
G01 X40.5331 Y-17.3392
G01 X40.6635 Y-17.2445
G01 X40.8070 Y-17.1713
G01 X40.9603 Y-17.1215
G01 X41.1194 Y-17.0963
G01 X41.2806 Y-17.0963
G01 X41.4397 Y-17.1215
G01 X41.5930 Y-17.1713
G01 X41.7365 Y-17.2445
G01 X41.8669 Y-17.3392
G01 X41.9808 Y-17.4531
G00 Z2.0000
G00 X41.1962 Y-16.5067
G01 F25.00
G01 Z-0.1000
G01 F120.00
G01 X41.2038 Y-16.5067
G01 X41.2908 Y-16.5023
G01 X41.3808 Y-16.4890
G01 X41.4690 Y-16.4669
G01 X41.5547 Y-16.4363
G01 X41.6369 Y-16.3974
G01 X41.7149 Y-16.3506
G01 X41.7880 Y-16.2964
G01 X41.8553 Y-16.2353
G01 X41.9164 Y-16.1680
G01 X41.9706 Y-16.0949
G01 X42.0174 Y-16.0169
G01 X42.0563 Y-15.9347
G01 X42.0869 Y-15.8490
G01 X42.1090 Y-15.7608
G01 X42.1223 Y-15.6708
G01 X42.1268 Y-15.5800
G01 X42.1223 Y-15.4892
G01 X42.1090 Y-15.3992
G01 X42.0869 Y-15.3110
G01 X42.0563 Y-15.2253
G01 X42.0174 Y-15.1431
G01 X41.9706 Y-15.0651
G01 X41.9164 Y-14.9920
G01 X41.8553 Y-14.9247
G01 X41.7880 Y-14.8636
G01 X41.7149 Y-14.8094
G01 X41.6369 Y-14.7626
G01 X41.5547 Y-14.7237
G01 X41.4690 Y-14.6931
G01 X41.3808 Y-14.6710
G01 X41.2908 Y-14.6577
G01 X41.2000 Y-14.6532
G01 X41.1092 Y-14.6577
G01 X41.0192 Y-14.6710
G01 X40.9310 Y-14.6931
G01 X40.8453 Y-14.7237
G01 X40.7631 Y-14.7626
G01 X40.6851 Y-14.8094
G01 X40.6120 Y-14.8636
G01 X40.5447 Y-14.9247
G01 X40.4836 Y-14.9920
G01 X40.4294 Y-15.0651
G01 X40.3826 Y-15.1431
G01 X40.3437 Y-15.2253
G01 X40.3131 Y-15.3110
G01 X40.2910 Y-15.3992
G01 X40.2777 Y-15.4892
G01 X40.2732 Y-15.5800
G01 X40.2777 Y-15.6708
G01 X40.2910 Y-15.7608
G01 X40.3131 Y-15.8490
G01 X40.3437 Y-15.9347
G01 X40.3826 Y-16.0169
G01 X40.4294 Y-16.0949
G01 X40.4836 Y-16.1680
G01 X40.5447 Y-16.2353
G01 X40.6120 Y-16.2964
G01 X40.6851 Y-16.3506
G01 X40.7631 Y-16.3974
G01 X40.8453 Y-16.4363
G01 X40.9310 Y-16.4669
G01 X41.0192 Y-16.4890
G01 X41.1092 Y-16.5023
G01 X41.1962 Y-16.5067
G00 Z2.0000
G00 X41.9808 Y-14.9131
G01 F25.00
G01 Z-0.1000
G01 F120.00
G01 X42.0755 Y-15.0435
G01 X42.1487 Y-15.1870
G01 X42.1985 Y-15.3403
G01 X42.2237 Y-15.4994
G01 X42.2237 Y-15.6606
G01 X42.1985 Y-15.8197
G01 X42.1487 Y-15.9730
G01 X42.0755 Y-16.1165
G01 X41.9808 Y-16.2469
G01 X41.8669 Y-16.3608
G01 X41.7365 Y-16.4555
G01 X41.5930 Y-16.5287
G01 X41.4397 Y-16.5785
G01 X41.2806 Y-16.6037
G01 X41.1194 Y-16.6037
G01 X40.9603 Y-16.5785
G01 X40.8070 Y-16.5287
G01 X40.6635 Y-16.4555
G01 X40.5331 Y-16.3608
G01 X40.4192 Y-16.2469
G01 X40.3245 Y-16.1165
G01 X40.2513 Y-15.9730
G01 X40.2015 Y-15.8197
G01 X40.1763 Y-15.6606
G01 X40.1763 Y-15.4994
G01 X40.2015 Y-15.3403
G01 X40.2513 Y-15.1870
G01 X40.3245 Y-15.0435
G01 X40.4192 Y-14.9131
G01 X40.5331 Y-14.7992
G01 X40.6635 Y-14.7045
G01 X40.8070 Y-14.6313
G01 X40.9603 Y-14.5815
G01 X41.1194 Y-14.5563
G01 X41.2806 Y-14.5563
G01 X41.4397 Y-14.5815
G01 X41.5930 Y-14.6313
G01 X41.7365 Y-14.7045
G01 X41.8669 Y-14.7992
G01 X41.9808 Y-14.9131
G00 Z2.0000
G00 X41.1962 Y-13.9667
G01 F25.00
G01 Z-0.1000
G01 F120.00
G01 X41.2038 Y-13.9667
G01 X41.2908 Y-13.9623
G01 X41.3808 Y-13.9490
G01 X41.4690 Y-13.9269
G01 X41.5547 Y-13.8963
G01 X41.6369 Y-13.8574
G01 X41.7149 Y-13.8106
G01 X41.7880 Y-13.7564
G01 X41.8553 Y-13.6953
G01 X41.9164 Y-13.6280
G01 X41.9706 Y-13.5549
G01 X42.0174 Y-13.4769
G01 X42.0563 Y-13.3947
G01 X42.0869 Y-13.3090
G01 X42.1090 Y-13.2208
G01 X42.1223 Y-13.1308
G01 X42.1268 Y-13.0400
G01 X42.1223 Y-12.9492
G01 X42.1090 Y-12.8592
G01 X42.0869 Y-12.7710
G01 X42.0563 Y-12.6853
G01 X42.0174 Y-12.6031
G01 X41.9706 Y-12.5251
G01 X41.9164 Y-12.4520
G01 X41.8553 Y-12.3847
G01 X41.7880 Y-12.3236
G01 X41.7149 Y-12.2694
G01 X41.6369 Y-12.2226
G01 X41.5547 Y-12.1837
G01 X41.4690 Y-12.1531
G01 X41.3808 Y-12.1310
G01 X41.2908 Y-12.1177
G01 X41.2000 Y-12.1132
G01 X41.1092 Y-12.1177
G01 X41.0192 Y-12.1310
G01 X40.9310 Y-12.1531
G01 X40.8453 Y-12.1837
G01 X40.7631 Y-12.2226
G01 X40.6851 Y-12.2694
G01 X40.6120 Y-12.3236
G01 X40.5447 Y-12.3847
G01 X40.4836 Y-12.4520
G01 X40.4294 Y-12.5251
G01 X40.3826 Y-12.6031
G01 X40.3437 Y-12.6853
G01 X40.3131 Y-12.7710
G01 X40.2910 Y-12.8592
G01 X40.2777 Y-12.9492
G01 X40.2732 Y-13.0400
G01 X40.2777 Y-13.1308
G01 X40.2910 Y-13.2208
G01 X40.3131 Y-13.3090
G01 X40.3437 Y-13.3947
G01 X40.3826 Y-13.4769
G01 X40.4294 Y-13.5549
G01 X40.4836 Y-13.6280
G01 X40.5447 Y-13.6953
G01 X40.6120 Y-13.7564
G01 X40.6851 Y-13.8106
G01 X40.7631 Y-13.8574
G01 X40.8453 Y-13.8963
G01 X40.9310 Y-13.9269
G01 X41.0192 Y-13.9490
G01 X41.1092 Y-13.9623
G01 X41.1962 Y-13.9667
G00 Z2.0000
G00 X41.9808 Y-12.3731
G01 F25.00
G01 Z-0.1000
G01 F120.00
G01 X42.0755 Y-12.5035
G01 X42.1487 Y-12.6470
G01 X42.1985 Y-12.8003
G01 X42.2237 Y-12.9594
G01 X42.2237 Y-13.1206
G01 X42.1985 Y-13.2797
G01 X42.1487 Y-13.4330
G01 X42.0755 Y-13.5765
G01 X41.9808 Y-13.7069
G01 X41.8669 Y-13.8208
G01 X41.7365 Y-13.9155
G01 X41.5930 Y-13.9887
G01 X41.4397 Y-14.0385
G01 X41.2806 Y-14.0637
G01 X41.1194 Y-14.0637
G01 X40.9603 Y-14.0385
G01 X40.8070 Y-13.9887
G01 X40.6635 Y-13.9155
G01 X40.5331 Y-13.8208
G01 X40.4192 Y-13.7069
G01 X40.3245 Y-13.5765
G01 X40.2513 Y-13.4330
G01 X40.2015 Y-13.2797
G01 X40.1763 Y-13.1206
G01 X40.1763 Y-12.9594
G01 X40.2015 Y-12.8003
G01 X40.2513 Y-12.6470
G01 X40.3245 Y-12.5035
G01 X40.4192 Y-12.3731
G01 X40.5331 Y-12.2592
G01 X40.6635 Y-12.1645
G01 X40.8070 Y-12.0913
G01 X40.9603 Y-12.0415
G01 X41.1194 Y-12.0163
G01 X41.2806 Y-12.0163
G01 X41.4397 Y-12.0415
G01 X41.5930 Y-12.0913
G01 X41.7365 Y-12.1645
G01 X41.8669 Y-12.2592
G01 X41.9808 Y-12.3731
G00 Z2.0000
G00 X41.1962 Y-11.4267
G01 F25.00
G01 Z-0.1000
G01 F120.00
G01 X41.2038 Y-11.4267
G01 X41.2908 Y-11.4223
G01 X41.3808 Y-11.4090
G01 X41.4690 Y-11.3869
G01 X41.5547 Y-11.3563
G01 X41.6369 Y-11.3174
G01 X41.7149 Y-11.2706
G01 X41.7880 Y-11.2164
G01 X41.8553 Y-11.1553
G01 X41.9164 Y-11.0880
G01 X41.9706 Y-11.0149
G01 X42.0174 Y-10.9369
G01 X42.0563 Y-10.8547
G01 X42.0869 Y-10.7690
G01 X42.1090 Y-10.6808
G01 X42.1223 Y-10.5908
G01 X42.1268 Y-10.5000
G01 X42.1223 Y-10.4092
G01 X42.1090 Y-10.3192
G01 X42.0869 Y-10.2310
G01 X42.0563 Y-10.1453
G01 X42.0174 Y-10.0631
G01 X41.9706 Y-9.9851
G01 X41.9164 Y-9.9120
G01 X41.8553 Y-9.8447
G01 X41.7880 Y-9.7836
G01 X41.7149 Y-9.7294
G01 X41.6369 Y-9.6826
G01 X41.5547 Y-9.6437
G01 X41.4690 Y-9.6131
G01 X41.3808 Y-9.5910
G01 X41.2908 Y-9.5777
G01 X41.2000 Y-9.5732
G01 X41.1092 Y-9.5777
G01 X41.0192 Y-9.5910
G01 X40.9310 Y-9.6131
G01 X40.8453 Y-9.6437
G01 X40.7631 Y-9.6826
G01 X40.6851 Y-9.7294
G01 X40.6120 Y-9.7836
G01 X40.5447 Y-9.8447
G01 X40.4836 Y-9.9120
G01 X40.4294 Y-9.9851
G01 X40.3826 Y-10.0631
G01 X40.3437 Y-10.1453
G01 X40.3131 Y-10.2310
G01 X40.2910 Y-10.3192
G01 X40.2777 Y-10.4092
G01 X40.2732 Y-10.5000
G01 X40.2777 Y-10.5908
G01 X40.2910 Y-10.6808
G01 X40.3131 Y-10.7690
G01 X40.3437 Y-10.8547
G01 X40.3826 Y-10.9369
G01 X40.4294 Y-11.0149
G01 X40.4836 Y-11.0880
G01 X40.5447 Y-11.1553
G01 X40.6120 Y-11.2164
G01 X40.6851 Y-11.2706
G01 X40.7631 Y-11.3174
G01 X40.8453 Y-11.3563
G01 X40.9310 Y-11.3869
G01 X41.0192 Y-11.4090
G01 X41.1092 Y-11.4223
G01 X41.1962 Y-11.4267
G00 Z2.0000
G00 X41.9808 Y-9.8331
G01 F25.00
G01 Z-0.1000
G01 F120.00
G01 X42.0755 Y-9.9635
G01 X42.1487 Y-10.1070
G01 X42.1985 Y-10.2603
G01 X42.2237 Y-10.4194
G01 X42.2237 Y-10.5806
G01 X42.1985 Y-10.7397
G01 X42.1487 Y-10.8930
G01 X42.0755 Y-11.0365
G01 X41.9808 Y-11.1669
G01 X41.8669 Y-11.2808
G01 X41.7365 Y-11.3755
G01 X41.5930 Y-11.4487
G01 X41.4397 Y-11.4985
G01 X41.2806 Y-11.5237
G01 X41.1194 Y-11.5237
G01 X40.9603 Y-11.4985
G01 X40.8070 Y-11.4487
G01 X40.6635 Y-11.3755
G01 X40.5331 Y-11.2808
G01 X40.4192 Y-11.1669
G01 X40.3245 Y-11.0365
G01 X40.2513 Y-10.8930
G01 X40.2015 Y-10.7397
G01 X40.1763 Y-10.5806
G01 X40.1763 Y-10.4194
G01 X40.2015 Y-10.2603
G01 X40.2513 Y-10.1070
G01 X40.3245 Y-9.9635
G01 X40.4192 Y-9.8331
G01 X40.5331 Y-9.7192
G01 X40.6635 Y-9.6245
G01 X40.8070 Y-9.5513
G01 X40.9603 Y-9.5015
G01 X41.1194 Y-9.4763
G01 X41.2806 Y-9.4763
G01 X41.4397 Y-9.5015
G01 X41.5930 Y-9.5513
G01 X41.7365 Y-9.6245
G01 X41.8669 Y-9.7192
G01 X41.9808 Y-9.8331
G00 Z2.0000
G00 X41.1962 Y-8.8867
G01 F25.00
G01 Z-0.1000
G01 F120.00
G01 X41.2038 Y-8.8867
G01 X41.2908 Y-8.8823
G01 X41.3808 Y-8.8690
G01 X41.4690 Y-8.8469
G01 X41.5547 Y-8.8163
G01 X41.6369 Y-8.7774
G01 X41.7149 Y-8.7306
G01 X41.7880 Y-8.6764
G01 X41.8553 Y-8.6153
G01 X41.9164 Y-8.5480
G01 X41.9706 Y-8.4749
G01 X42.0174 Y-8.3969
G01 X42.0563 Y-8.3147
G01 X42.0869 Y-8.2290
G01 X42.1090 Y-8.1408
G01 X42.1223 Y-8.0508
G01 X42.1268 Y-7.9600
G01 X42.1223 Y-7.8692
G01 X42.1090 Y-7.7792
G01 X42.0869 Y-7.6910
G01 X42.0563 Y-7.6053
G01 X42.0174 Y-7.5231
G01 X41.9706 Y-7.4451
G01 X41.9164 Y-7.3720
G01 X41.8553 Y-7.3047
G01 X41.7880 Y-7.2436
G01 X41.7149 Y-7.1894
G01 X41.6369 Y-7.1426
G01 X41.5547 Y-7.1037
G01 X41.4690 Y-7.0731
G01 X41.3808 Y-7.0510
G01 X41.2908 Y-7.0377
G01 X41.2000 Y-7.0332
G01 X41.1092 Y-7.0377
G01 X41.0192 Y-7.0510
G01 X40.9310 Y-7.0731
G01 X40.8453 Y-7.1037
G01 X40.7631 Y-7.1426
G01 X40.6851 Y-7.1894
G01 X40.6120 Y-7.2436
G01 X40.5447 Y-7.3047
G01 X40.4836 Y-7.3720
G01 X40.4294 Y-7.4451
G01 X40.3826 Y-7.5231
G01 X40.3437 Y-7.6053
G01 X40.3131 Y-7.6910
G01 X40.2910 Y-7.7792
G01 X40.2777 Y-7.8692
G01 X40.2732 Y-7.9600
G01 X40.2777 Y-8.0508
G01 X40.2910 Y-8.1408
G01 X40.3131 Y-8.2290
G01 X40.3437 Y-8.3147
G01 X40.3826 Y-8.3969
G01 X40.4294 Y-8.4749
G01 X40.4836 Y-8.5480
G01 X40.5447 Y-8.6153
G01 X40.6120 Y-8.6764
G01 X40.6851 Y-8.7306
G01 X40.7631 Y-8.7774
G01 X40.8453 Y-8.8163
G01 X40.9310 Y-8.8469
G01 X41.0192 Y-8.8690
G01 X41.1092 Y-8.8823
G01 X41.1962 Y-8.8867
G00 Z2.0000
G00 X41.9808 Y-7.2931
G01 F25.00
G01 Z-0.1000
G01 F120.00
G01 X42.0755 Y-7.4235
G01 X42.1487 Y-7.5670
G01 X42.1985 Y-7.7203
G01 X42.2237 Y-7.8794
G01 X42.2237 Y-8.0406
G01 X42.1985 Y-8.1997
G01 X42.1487 Y-8.3530
G01 X42.0755 Y-8.4965
G01 X41.9808 Y-8.6269
G01 X41.8669 Y-8.7408
G01 X41.7365 Y-8.8355
G01 X41.5930 Y-8.9087
G01 X41.4397 Y-8.9585
G01 X41.2806 Y-8.9837
G01 X41.1194 Y-8.9837
G01 X40.9603 Y-8.9585
G01 X40.8070 Y-8.9087
G01 X40.6635 Y-8.8355
G01 X40.5331 Y-8.7408
G01 X40.4192 Y-8.6269
G01 X40.3245 Y-8.4965
G01 X40.2513 Y-8.3530
G01 X40.2015 Y-8.1997
G01 X40.1763 Y-8.0406
G01 X40.1763 Y-7.8794
G01 X40.2015 Y-7.7203
G01 X40.2513 Y-7.5670
G01 X40.3245 Y-7.4235
G01 X40.4192 Y-7.2931
G01 X40.5331 Y-7.1792
G01 X40.6635 Y-7.0845
G01 X40.8070 Y-7.0113
G01 X40.9603 Y-6.9615
G01 X41.1194 Y-6.9363
G01 X41.2806 Y-6.9363
G01 X41.4397 Y-6.9615
G01 X41.5930 Y-7.0113
G01 X41.7365 Y-7.0845
G01 X41.8669 Y-7.1792
G01 X41.9808 Y-7.2931
G00 Z2.0000
G00 X41.1962 Y-6.3467
G01 F25.00
G01 Z-0.1000
G01 F120.00
G01 X41.2038 Y-6.3467
G01 X41.2908 Y-6.3423
G01 X41.3808 Y-6.3290
G01 X41.4690 Y-6.3069
G01 X41.5547 Y-6.2763
G01 X41.6369 Y-6.2374
G01 X41.7149 Y-6.1906
G01 X41.7880 Y-6.1364
G01 X41.8553 Y-6.0753
G01 X41.9164 Y-6.0080
G01 X41.9706 Y-5.9349
G01 X42.0174 Y-5.8569
G01 X42.0563 Y-5.7747
G01 X42.0869 Y-5.6890
G01 X42.1090 Y-5.6008
G01 X42.1223 Y-5.5108
G01 X42.1268 Y-5.4200
G01 X42.1223 Y-5.3292
G01 X42.1090 Y-5.2392
G01 X42.0869 Y-5.1510
G01 X42.0563 Y-5.0653
G01 X42.0174 Y-4.9831
G01 X41.9706 Y-4.9051
G01 X41.9164 Y-4.8320
G01 X41.8553 Y-4.7647
G01 X41.7880 Y-4.7036
G01 X41.7149 Y-4.6494
G01 X41.6369 Y-4.6026
G01 X41.5547 Y-4.5637
G01 X41.4690 Y-4.5331
G01 X41.3808 Y-4.5110
G01 X41.2908 Y-4.4977
G01 X41.2000 Y-4.4932
G01 X41.1092 Y-4.4977
G01 X41.0192 Y-4.5110
G01 X40.9310 Y-4.5331
G01 X40.8453 Y-4.5637
G01 X40.7631 Y-4.6026
G01 X40.6851 Y-4.6494
G01 X40.6120 Y-4.7036
G01 X40.5447 Y-4.7647
G01 X40.4836 Y-4.8320
G01 X40.4294 Y-4.9051
G01 X40.3826 Y-4.9831
G01 X40.3437 Y-5.0653
G01 X40.3131 Y-5.1510
G01 X40.2910 Y-5.2392
G01 X40.2777 Y-5.3292
G01 X40.2732 Y-5.4200
G01 X40.2777 Y-5.5108
G01 X40.2910 Y-5.6008
G01 X40.3131 Y-5.6890
G01 X40.3437 Y-5.7747
G01 X40.3826 Y-5.8569
G01 X40.4294 Y-5.9349
G01 X40.4836 Y-6.0080
G01 X40.5447 Y-6.0753
G01 X40.6120 Y-6.1364
G01 X40.6851 Y-6.1906
G01 X40.7631 Y-6.2374
G01 X40.8453 Y-6.2763
G01 X40.9310 Y-6.3069
G01 X41.0192 Y-6.3290
G01 X41.1092 Y-6.3423
G01 X41.1962 Y-6.3467
G00 Z2.0000
G00 X41.9808 Y-4.7531
G01 F25.00
G01 Z-0.1000
G01 F120.00
G01 X42.0755 Y-4.8835
G01 X42.1487 Y-5.0270
G01 X42.1985 Y-5.1803
G01 X42.2237 Y-5.3394
G01 X42.2237 Y-5.5006
G01 X42.1985 Y-5.6597
G01 X42.1487 Y-5.8130
G01 X42.0755 Y-5.9565
G01 X41.9808 Y-6.0869
G01 X41.8669 Y-6.2008
G01 X41.7365 Y-6.2955
G01 X41.5930 Y-6.3687
G01 X41.4397 Y-6.4185
G01 X41.2806 Y-6.4437
G01 X41.1194 Y-6.4437
G01 X40.9603 Y-6.4185
G01 X40.8070 Y-6.3687
G01 X40.6635 Y-6.2955
G01 X40.5331 Y-6.2008
G01 X40.4192 Y-6.0869
G01 X40.3245 Y-5.9565
G01 X40.2513 Y-5.8130
G01 X40.2015 Y-5.6597
G01 X40.1763 Y-5.5006
G01 X40.1763 Y-5.3394
G01 X40.2015 Y-5.1803
G01 X40.2513 Y-5.0270
G01 X40.3245 Y-4.8835
G01 X40.4192 Y-4.7531
G01 X40.5331 Y-4.6392
G01 X40.6635 Y-4.5445
G01 X40.8070 Y-4.4713
G01 X40.9603 Y-4.4215
G01 X41.1194 Y-4.3963
G01 X41.2806 Y-4.3963
G01 X41.4397 Y-4.4215
G01 X41.5930 Y-4.4713
G01 X41.7365 Y-4.5445
G01 X41.8669 Y-4.6392
G01 X41.9808 Y-4.7531
G00 Z2.0000
G00 X41.1962 Y-3.8067
G01 F25.00
G01 Z-0.1000
G01 F120.00
G01 X41.2038 Y-3.8067
G01 X41.2908 Y-3.8023
G01 X41.3808 Y-3.7890
G01 X41.4690 Y-3.7669
G01 X41.5547 Y-3.7363
G01 X41.6369 Y-3.6974
G01 X41.7149 Y-3.6506
G01 X41.7880 Y-3.5964
G01 X41.8553 Y-3.5353
G01 X41.9164 Y-3.4680
G01 X41.9706 Y-3.3949
G01 X42.0174 Y-3.3169
G01 X42.0563 Y-3.2347
G01 X42.0869 Y-3.1490
G01 X42.1090 Y-3.0608
G01 X42.1223 Y-2.9708
G01 X42.1268 Y-2.8800
G01 X42.1223 Y-2.7892
G01 X42.1090 Y-2.6992
G01 X42.0869 Y-2.6110
G01 X42.0563 Y-2.5253
G01 X42.0174 Y-2.4431
G01 X41.9706 Y-2.3651
G01 X41.9164 Y-2.2920
G01 X41.8553 Y-2.2247
G01 X41.7880 Y-2.1636
G01 X41.7149 Y-2.1094
G01 X41.6369 Y-2.0626
G01 X41.5547 Y-2.0237
G01 X41.4690 Y-1.9931
G01 X41.3808 Y-1.9710
G01 X41.2908 Y-1.9577
G01 X41.2000 Y-1.9532
G01 X41.1092 Y-1.9577
G01 X41.0192 Y-1.9710
G01 X40.9310 Y-1.9931
G01 X40.8453 Y-2.0237
G01 X40.7631 Y-2.0626
G01 X40.6851 Y-2.1094
G01 X40.6120 Y-2.1636
G01 X40.5447 Y-2.2247
G01 X40.4836 Y-2.2920
G01 X40.4294 Y-2.3651
G01 X40.3826 Y-2.4431
G01 X40.3437 Y-2.5253
G01 X40.3131 Y-2.6110
G01 X40.2910 Y-2.6992
G01 X40.2777 Y-2.7892
G01 X40.2732 Y-2.8800
G01 X40.2777 Y-2.9708
G01 X40.2910 Y-3.0608
G01 X40.3131 Y-3.1490
G01 X40.3437 Y-3.2347
G01 X40.3826 Y-3.3169
G01 X40.4294 Y-3.3949
G01 X40.4836 Y-3.4680
G01 X40.5447 Y-3.5353
G01 X40.6120 Y-3.5964
G01 X40.6851 Y-3.6506
G01 X40.7631 Y-3.6974
G01 X40.8453 Y-3.7363
G01 X40.9310 Y-3.7669
G01 X41.0192 Y-3.7890
G01 X41.1092 Y-3.8023
G01 X41.1962 Y-3.8067
G00 Z2.0000
G00 X41.9808 Y-2.2131
G01 F25.00
G01 Z-0.1000
G01 F120.00
G01 X42.0755 Y-2.3435
G01 X42.1487 Y-2.4870
G01 X42.1985 Y-2.6403
G01 X42.2237 Y-2.7994
G01 X42.2237 Y-2.9606
G01 X42.1985 Y-3.1197
G01 X42.1487 Y-3.2730
G01 X42.0755 Y-3.4165
G01 X41.9808 Y-3.5469
G01 X41.8669 Y-3.6608
G01 X41.7365 Y-3.7555
G01 X41.5930 Y-3.8287
G01 X41.4397 Y-3.8785
G01 X41.2806 Y-3.9037
G01 X41.1194 Y-3.9037
G01 X40.9603 Y-3.8785
G01 X40.8070 Y-3.8287
G01 X40.6635 Y-3.7555
G01 X40.5331 Y-3.6608
G01 X40.4192 Y-3.5469
G01 X40.3245 Y-3.4165
G01 X40.2513 Y-3.2730
G01 X40.2015 Y-3.1197
G01 X40.1763 Y-2.9606
G01 X40.1763 Y-2.7994
G01 X40.2015 Y-2.6403
G01 X40.2513 Y-2.4870
G01 X40.3245 Y-2.3435
G01 X40.4192 Y-2.2131
G01 X40.5331 Y-2.0992
G01 X40.6635 Y-2.0045
G01 X40.8070 Y-1.9313
G01 X40.9603 Y-1.8815
G01 X41.1194 Y-1.8563
G01 X41.2806 Y-1.8563
G01 X41.4397 Y-1.8815
G01 X41.5930 Y-1.9313
G01 X41.7365 Y-2.0045
G01 X41.8669 Y-2.0992
G01 X41.9808 Y-2.2131
G00 Z2.0000
G00 X41.9982 Y-0.9285
G01 F25.00
G01 Z-0.1000
G01 F120.00
G01 X41.9927 Y-0.9285
G01 X41.9907 Y-0.9311
G01 X41.9982 Y-0.9285
G01 X41.9617 Y-0.8670
G01 X41.9164 Y-0.9280
G01 X41.8579 Y-0.9926
G01 X41.8526 Y-0.9979
G01 X41.7908 Y-1.0540
G01 X41.7850 Y-1.0587
G01 X41.7149 Y-1.1106
G01 X41.6402 Y-1.1555
G01 X41.6335 Y-1.1591
G01 X41.5547 Y-1.1963
G01 X41.4690 Y-1.2269
G01 X41.3808 Y-1.2490
G01 X41.2946 Y-1.2619
G01 X41.2871 Y-1.2626
G01 X41.2038 Y-1.2667
G01 X41.1962 Y-1.2667
G01 X41.1092 Y-1.2623
G01 X41.0229 Y-1.2496
G01 X41.0155 Y-1.2482
G01 X40.9310 Y-1.2269
G01 X40.8453 Y-1.1963
G01 X40.7631 Y-1.1574
G01 X40.6835 Y-1.1095
G01 X40.6120 Y-1.0564
G01 X40.5447 Y-0.9953
G01 X40.4836 Y-0.9280
G01 X40.4294 Y-0.8549
G01 X40.3826 Y-0.7769
G01 X40.3437 Y-0.6947
G01 X40.3131 Y-0.6090
G01 X40.2910 Y-0.5208
G01 X40.2777 Y-0.4308
G01 X40.2732 Y-0.3400
G01 X40.2777 Y-0.2492
G01 X40.2910 Y-0.1592
G01 X40.3131 Y-0.0710
G01 X40.3437 Y0.0147
G01 X40.3826 Y0.0969
G01 X40.4305 Y0.1765
G01 X40.4813 Y0.2450
G01 X40.4860 Y0.2508
G01 X40.5447 Y0.3153
G01 X40.6092 Y0.3740
G01 X40.6150 Y0.3787
G01 X40.6851 Y0.4306
G01 X40.7631 Y0.4774
G01 X40.8419 Y0.5147
G01 X40.8488 Y0.5176
G01 X40.9310 Y0.5469
G01 X41.0155 Y0.5682
G01 X41.0229 Y0.5696
G01 X41.1092 Y0.5823
G01 X41.2000 Y0.5868
G01 X41.2908 Y0.5823
G01 X41.3771 Y0.5696
G01 X41.3845 Y0.5682
G01 X41.4690 Y0.5469
G01 X41.5512 Y0.5176
G01 X41.5581 Y0.5147
G01 X41.6369 Y0.4774
G01 X41.7149 Y0.4306
G01 X41.7850 Y0.3787
G01 X41.7908 Y0.3740
G01 X41.8526 Y0.3179
G01 X41.8579 Y0.3126
G01 X41.9164 Y0.2480
G01 X41.9617 Y0.1870
G01 X47.4417 Y0.1870
G01 X53.6730 Y6.4183
G01 X53.6730 Y7.0932
G01 X53.3500 Y7.0932
G01 X53.3444 Y7.0934
G01 X53.3369 Y7.0943
G01 X53.3295 Y7.0960
G01 X53.3241 Y7.0977
G01 X53.3138 Y7.1023
G01 X53.3043 Y7.1083
G01 X53.2957 Y7.1157
G01 X53.2906 Y7.1213
G01 X53.2872 Y7.1258
G01 X53.2814 Y7.1355
G01 X53.2771 Y7.1459
G01 X53.2751 Y7.1532
G01 X53.2740 Y7.1587
G01 X53.2732 Y7.1700
G01 X53.2732 Y8.8700
G01 X53.2736 Y8.8775
G01 X53.2743 Y8.8831
G01 X53.2760 Y8.8905
G01 X53.2783 Y8.8976
G01 X53.2814 Y8.9045
G01 X53.2841 Y8.9095
G01 X53.2872 Y8.9142
G01 X53.2918 Y8.9202
G01 X53.2984 Y8.9269
G01 X53.3043 Y8.9317
G01 X53.3105 Y8.9359
G01 X53.3172 Y8.9394
G01 X53.3241 Y8.9423
G01 X53.3313 Y8.9445
G01 X53.3387 Y8.9460
G01 X53.3481 Y8.9468
G01 X55.0500 Y8.9468
G01 X55.0594 Y8.9462
G01 X55.0687 Y8.9445
G01 X55.0759 Y8.9423
G01 X55.0845 Y8.9386
G01 X55.0927 Y8.9339
G01 X55.0987 Y8.9294
G01 X55.1056 Y8.9230
G01 X55.1117 Y8.9157
G01 X55.1177 Y8.9062
G01 X55.1210 Y8.8994
G01 X55.1229 Y8.8941
G01 X55.1257 Y8.8831
G01 X55.1264 Y8.8775
G01 X55.1268 Y8.8700
G01 X55.1268 Y7.1700
G01 X55.1260 Y7.1587
G01 X55.1235 Y7.1477
G01 X55.1194 Y7.1372
G01 X55.1139 Y7.1273
G01 X55.1105 Y7.1228
G01 X55.1056 Y7.1170
G01 X55.0972 Y7.1095
G01 X55.0927 Y7.1061
G01 X55.0862 Y7.1023
G01 X55.0759 Y7.0977
G01 X55.0687 Y7.0955
G01 X55.0631 Y7.0943
G01 X55.0556 Y7.0934
G01 X55.0500 Y7.0932
G01 X54.7270 Y7.0932
G01 X54.7270 Y6.2000
G01 X54.7246 Y6.1502
G01 X54.7175 Y6.1009
G01 X54.7161 Y6.0935
G01 X54.7043 Y6.0470
G01 X54.6883 Y6.0018
G01 X54.6854 Y5.9949
G01 X54.6648 Y5.9516
G01 X54.6402 Y5.9104
G01 X54.6360 Y5.9041
G01 X54.6074 Y5.8657
G01 X54.5727 Y5.8273
G01 X48.0327 Y-0.7127
G01 X47.9972 Y-0.7449
G01 X47.9914 Y-0.7497
G01 X47.9528 Y-0.7782
G01 X47.9084 Y-0.8048
G01 X47.8617 Y-0.8269
G01 X47.8166 Y-0.8431
G01 X47.8094 Y-0.8453
G01 X47.7665 Y-0.8561
G01 X47.7591 Y-0.8575
G01 X47.7117 Y-0.8645
G01 X47.6619 Y-0.8670
G01 X41.9617 Y-0.8670
G00 Z2.0000
G00 X41.9858 Y0.2577
G01 F25.00
G01 Z-0.1000
G01 F120.00
G01 X42.0028 Y0.2485
G01 X41.9927 Y0.2485
G01 X41.9858 Y0.2577
G00 Z2.0000
G00 X42.1882 Y1.4892
G01 F25.00
G01 Z-0.1000
G01 F120.00
G01 X42.1882 Y1.6115
G01 X42.3155 Y1.6115
G01 X42.3080 Y1.6089
G01 X42.2999 Y1.6055
G01 X42.2865 Y1.5984
G01 X42.2735 Y1.5896
G01 X42.2619 Y1.5797
G01 X42.2535 Y1.5709
G01 X42.2045 Y1.5143
G01 X42.1953 Y1.5016
G01 X42.1882 Y1.4892
G00 Z2.0000
G00 X42.1882 Y2.9162
G01 F25.00
G01 Z-0.1000
G01 F120.00
G01 X42.1937 Y2.9017
G01 X42.2008 Y2.8878
G01 X42.2092 Y2.8750
G01 X42.2147 Y2.8682
G01 X42.2203 Y2.8619
G01 X42.2291 Y2.8535
G01 X42.2857 Y2.8045
G01 X42.2968 Y2.7963
G01 X42.3104 Y2.7885
G01 X42.1882 Y2.7885
G01 X42.1882 Y2.9162
G00 Z2.0000
G00 X40.1763 Y3.0671
G01 F25.00
G01 Z-0.1000
G01 F120.00
G01 X40.1864 Y3.1178
G01 X40.2248 Y3.1752
G01 X40.2822 Y3.2136
G01 X40.3329 Y3.2237
G01 X42.0671 Y3.2237
G01 X42.1178 Y3.2136
G01 X42.1752 Y3.1752
G01 X42.2136 Y3.1178
G01 X42.2237 Y3.0671
G01 X42.2237 Y3.0227
G01 X42.2242 Y3.0154
G01 X42.2255 Y3.0082
G01 X42.2477 Y2.9322
G01 X42.2505 Y2.9251
G01 X42.2541 Y2.9184
G01 X42.2583 Y2.9120
G01 X42.2618 Y2.9075
G01 X42.2699 Y2.8994
G01 X42.3227 Y2.8537
G01 X42.3287 Y2.8489
G01 X42.3352 Y2.8448
G01 X42.3439 Y2.8406
G01 X42.3529 Y2.8376
G01 X42.4100 Y2.8251
G01 X42.4172 Y2.8240
G01 X42.4245 Y2.8237
G01 X43.7621 Y2.8238
G01 X43.7712 Y2.8248
G01 X43.7784 Y2.8263
G01 X43.8472 Y2.8465
G01 X43.8560 Y2.8497
G01 X43.8644 Y2.8540
G01 X43.8707 Y2.8581
G01 X43.8990 Y2.8811
G01 X44.9188 Y3.9008
G01 X44.9247 Y3.9078
G01 X44.9297 Y3.9154
G01 X44.9650 Y3.9800
G01 X44.9674 Y3.9851
G01 X44.9700 Y3.9922
G01 X44.9719 Y3.9995
G01 X44.9730 Y4.0070
G01 X44.9759 Y4.0333
G01 X44.9763 Y4.0415
G01 X44.9761 Y6.8010
G01 X44.9752 Y6.8082
G01 X44.9737 Y6.8154
G01 X44.9517 Y6.8896
G01 X44.9478 Y6.8983
G01 X44.9428 Y6.9064
G01 X44.9369 Y6.9139
G01 X44.9301 Y6.9206
G01 X44.8743 Y6.9688
G01 X44.8648 Y6.9752
G01 X44.8597 Y6.9778
G01 X44.8526 Y6.9807
G01 X44.8433 Y6.9833
G01 X44.7864 Y6.9955
G01 X44.7773 Y6.9963
G01 X44.7329 Y6.9963
G01 X44.6822 Y7.0064
G01 X44.6248 Y7.0448
G01 X44.5864 Y7.1022
G01 X44.5763 Y7.1529
G01 X44.5763 Y8.8871
G01 X44.5864 Y8.9378
G01 X44.6248 Y8.9952
G01 X44.6822 Y9.0336
G01 X44.7329 Y9.0437
G01 X46.4671 Y9.0437
G01 X46.5178 Y9.0336
G01 X46.5752 Y8.9952
G01 X46.6136 Y8.9378
G01 X46.6237 Y8.8871
G01 X46.6237 Y7.1529
G01 X46.6136 Y7.1022
G01 X46.5752 Y7.0448
G01 X46.5178 Y7.0064
G01 X46.4671 Y6.9963
G01 X46.4227 Y6.9963
G01 X46.4136 Y6.9955
G01 X46.4064 Y6.9941
G01 X46.3304 Y6.9717
G01 X46.3234 Y6.9687
G01 X46.3167 Y6.9649
G01 X46.3120 Y6.9617
G01 X46.3061 Y6.9569
G01 X46.2994 Y6.9501
G01 X46.2524 Y6.8958
G01 X46.2478 Y6.8897
G01 X46.2439 Y6.8831
G01 X46.2399 Y6.8744
G01 X46.2371 Y6.8652
G01 X46.2255 Y6.8118
G01 X46.2239 Y6.8010
G01 X46.2237 Y3.6386
G01 X46.1997 Y3.5181
G01 X46.1527 Y3.4046
G01 X46.0845 Y3.3024
G01 X44.4976 Y1.7155
G01 X44.3954 Y1.6473
G01 X44.2819 Y1.6003
G01 X44.1614 Y1.5763
G01 X42.4245 Y1.5763
G01 X42.4172 Y1.5760
G01 X42.4082 Y1.5745
G01 X42.3340 Y1.5529
G01 X42.3251 Y1.5495
G01 X42.3167 Y1.5449
G01 X42.3075 Y1.5382
G01 X42.3007 Y1.5315
G01 X42.2537 Y1.4773
G01 X42.2489 Y1.4713
G01 X42.2448 Y1.4648
G01 X42.2414 Y1.4579
G01 X42.2387 Y1.4507
G01 X42.2367 Y1.4433
G01 X42.2255 Y1.3918
G01 X42.2242 Y1.3846
G01 X42.2237 Y1.3773
G01 X42.2237 Y1.3329
G01 X42.2136 Y1.2822
G01 X42.1752 Y1.2248
G01 X42.1178 Y1.1864
G01 X42.0671 Y1.1763
G01 X40.3329 Y1.1763
G01 X40.2822 Y1.1864
G01 X40.2248 Y1.2248
G01 X40.1864 Y1.2822
G01 X40.1763 Y1.3329
G01 X40.1763 Y3.0671
G00 Z2.0000
G00 X37.7162 Y7.1318
G01 F25.00
G01 Z-0.1000
G01 F120.00
G01 X37.7017 Y7.1263
G01 X37.6878 Y7.1192
G01 X37.6750 Y7.1108
G01 X37.6682 Y7.1053
G01 X37.6619 Y7.0997
G01 X37.6535 Y7.0909
G01 X37.6045 Y7.0343
G01 X37.5963 Y7.0232
G01 X37.5885 Y7.0096
G01 X37.5885 Y7.1318
G01 X37.7162 Y7.1318
G00 Z2.0000
G00 X36.4115 Y7.0045
G01 F25.00
G01 Z-0.1000
G01 F120.00
G01 X36.4089 Y7.0120
G01 X36.4055 Y7.0201
G01 X36.3984 Y7.0335
G01 X36.3896 Y7.0465
G01 X36.3797 Y7.0581
G01 X36.3709 Y7.0665
G01 X36.3143 Y7.1155
G01 X36.3016 Y7.1247
G01 X36.2892 Y7.1318
G01 X36.4115 Y7.1318
G01 X36.4115 Y7.0045
G00 Z2.0000
G00 X36.2142 Y10.0623
G01 F25.00
G01 Z-0.1000
G01 F120.00
G01 X36.1972 Y10.0715
G01 X36.2073 Y10.0715
G01 X36.2142 Y10.0623
G00 Z2.0000
G00 X36.2018 Y11.2485
G01 F25.00
G01 Z-0.1000
G01 F120.00
G01 X36.2060 Y11.2499
G01 X36.2093 Y11.2511
G01 X36.2073 Y11.2485
G01 X36.2018 Y11.2485
G00 Z2.0000
G00 X37.8463 Y11.1684
G01 F25.00
G01 Z-0.1000
G01 F120.00
G01 X37.8627 Y11.1559
G01 X37.8744 Y11.1485
G01 X37.8582 Y11.1485
G01 X37.8463 Y11.1684
G00 Z2.0000
G00 X44.8018 Y11.1485
G01 F25.00
G01 Z-0.1000
G01 F120.00
G01 X44.8060 Y11.1499
G01 X44.8093 Y11.1511
G01 X44.8073 Y11.1485
G01 X44.8018 Y11.1485
G00 Z2.0000
G00 X44.8142 Y9.9623
G01 F25.00
G01 Z-0.1000
G01 F120.00
G01 X44.7972 Y9.9715
G01 X44.8073 Y9.9715
G01 X44.8142 Y9.9623
G00 Z2.0000
G00 X46.3982 Y9.9715
G01 F25.00
G01 Z-0.1000
G01 F120.00
G01 X46.3940 Y9.9701
G01 X46.3907 Y9.9689
G01 X46.3927 Y9.9715
G01 X46.3982 Y9.9715
G00 Z2.0000
G00 X46.3185 Y11.2373
G01 F25.00
G01 Z-0.1000
G01 F120.00
G01 X46.3333 Y11.2301
G01 X46.3415 Y11.2270
G01 X46.3495 Y11.2245
G01 X46.3581 Y11.2224
G01 X46.3663 Y11.2209
G01 X46.3819 Y11.2195
G01 X46.3956 Y11.2198
G01 X46.4703 Y11.2252
G01 X46.4839 Y11.2273
G01 X46.4990 Y11.2313
G01 X46.4162 Y11.1485
G01 X46.3927 Y11.1485
G01 X46.3634 Y11.1875
G01 X46.3185 Y11.2373
G00 Z2.0000
G00 X48.3361 Y11.3170
G01 F25.00
G01 Z-0.1000
G01 F120.00
G01 X48.3383 Y11.3031
G01 X48.3417 Y11.2886
G01 X48.3461 Y11.2744
G01 X48.3516 Y11.2606
G01 X48.3581 Y11.2472
G01 X48.3652 Y11.2350
G01 X48.3720 Y11.2249
G01 X48.3832 Y11.2099
G01 X48.2290 Y11.2099
G01 X48.3361 Y11.3170
G01 X48.4066 Y11.4743
G01 X48.4031 Y11.4672
G01 X48.4010 Y11.4623
G01 X48.4005 Y11.4609
G01 X48.3998 Y11.4591
G01 X48.3971 Y11.4511
G01 X48.3948 Y11.4427
G01 X48.3921 Y11.4276
G01 X48.3914 Y11.4189
G01 X48.3911 Y11.4105
G01 X48.3915 Y11.4010
G01 X48.3972 Y11.3237
G01 X48.3986 Y11.3151
G01 X48.4009 Y11.3050
G01 X48.4040 Y11.2952
G01 X48.4078 Y11.2856
G01 X48.4146 Y11.2720
G01 X48.4221 Y11.2605
G01 X48.4672 Y11.2003
G01 X48.4725 Y11.1938
G01 X48.4796 Y11.1863
G01 X48.4861 Y11.1804
G01 X48.4926 Y11.1751
G01 X48.5010 Y11.1692
G01 X48.5085 Y11.1647
G01 X48.5222 Y11.1580
G01 X48.5473 Y11.1485
G01 X48.0807 Y11.1485
G01 X48.4066 Y11.4743
G00 Z2.0000
G00 X46.4500 Y7.0932
G01 F25.00
G01 Z-0.1000
G01 F120.00
G01 X46.1270 Y7.0932
G01 X46.1270 Y3.7000
G01 X46.1245 Y3.6483
G01 X46.1169 Y3.5972
G01 X46.1043 Y3.5470
G01 X46.0876 Y3.5001
G01 X46.0648 Y3.4516
G01 X46.0382 Y3.4072
G01 X46.0074 Y3.3657
G01 X45.9740 Y3.3287
G01 X44.4713 Y1.8260
G01 X44.4343 Y1.7926
G01 X44.3928 Y1.7618
G01 X44.3484 Y1.7352
G01 X44.3051 Y1.7146
G01 X44.2982 Y1.7117
G01 X44.2566 Y1.6969
G01 X44.2494 Y1.6947
G01 X44.2028 Y1.6831
G01 X44.1498 Y1.6754
G01 X44.1000 Y1.6730
G01 X42.1268 Y1.6730
G01 X42.1268 Y1.3500
G01 X42.1264 Y1.3425
G01 X42.1257 Y1.3369
G01 X42.1229 Y1.3259
G01 X42.1210 Y1.3206
G01 X42.1177 Y1.3138
G01 X42.1139 Y1.3073
G01 X42.1105 Y1.3028
G01 X42.1030 Y1.2944
G01 X42.0972 Y1.2895
G01 X42.0927 Y1.2861
G01 X42.0828 Y1.2806
G01 X42.0759 Y1.2777
G01 X42.0705 Y1.2760
G01 X42.0594 Y1.2738
G01 X42.0500 Y1.2732
G01 X40.3481 Y1.2732
G01 X40.3406 Y1.2738
G01 X40.3332 Y1.2751
G01 X40.3259 Y1.2771
G01 X40.3189 Y1.2798
G01 X40.3121 Y1.2832
G01 X40.3058 Y1.2872
G01 X40.2998 Y1.2918
G01 X40.2944 Y1.2970
G01 X40.2895 Y1.3028
G01 X40.2851 Y1.3089
G01 X40.2814 Y1.3155
G01 X40.2783 Y1.3224
G01 X40.2760 Y1.3295
G01 X40.2743 Y1.3369
G01 X40.2736 Y1.3425
G01 X40.2732 Y1.3500
G01 X40.2732 Y3.0500
G01 X40.2738 Y3.0594
G01 X40.2760 Y3.0705
G01 X40.2798 Y3.0811
G01 X40.2841 Y3.0895
G01 X40.2895 Y3.0972
G01 X40.2970 Y3.1056
G01 X40.3058 Y3.1128
G01 X40.3138 Y3.1177
G01 X40.3224 Y3.1217
G01 X40.3313 Y3.1245
G01 X40.3406 Y3.1262
G01 X40.3500 Y3.1268
G01 X42.0500 Y3.1268
G01 X42.0575 Y3.1264
G01 X42.0631 Y3.1257
G01 X42.0705 Y3.1240
G01 X42.0811 Y3.1202
G01 X42.0911 Y3.1149
G01 X42.0972 Y3.1105
G01 X42.1016 Y3.1069
G01 X42.1056 Y3.1030
G01 X42.1105 Y3.0972
G01 X42.1168 Y3.0879
G01 X42.1194 Y3.0828
G01 X42.1223 Y3.0759
G01 X42.1245 Y3.0687
G01 X42.1257 Y3.0631
G01 X42.1264 Y3.0575
G01 X42.1268 Y3.0500
G01 X42.1268 Y2.7270
G01 X43.8817 Y2.7270
G01 X45.0730 Y3.9183
G01 X45.0730 Y7.0932
G01 X44.7500 Y7.0932
G01 X44.7387 Y7.0940
G01 X44.7277 Y7.0965
G01 X44.7172 Y7.1006
G01 X44.7073 Y7.1061
G01 X44.7028 Y7.1095
G01 X44.6970 Y7.1144
G01 X44.6895 Y7.1228
G01 X44.6832 Y7.1321
G01 X44.6783 Y7.1424
G01 X44.6760 Y7.1495
G01 X44.6747 Y7.1550
G01 X44.6736 Y7.1625
G01 X44.6732 Y7.1700
G01 X44.6732 Y8.8719
G01 X44.6738 Y8.8794
G01 X44.6755 Y8.8887
G01 X44.6777 Y8.8959
G01 X44.6806 Y8.9028
G01 X44.6841 Y8.9095
G01 X44.6895 Y8.9172
G01 X44.6944 Y8.9230
G01 X44.6998 Y8.9282
G01 X44.7058 Y8.9328
G01 X44.7105 Y8.9359
G01 X44.7172 Y8.9394
G01 X44.7241 Y8.9423
G01 X44.7295 Y8.9440
G01 X44.7369 Y8.9457
G01 X44.7444 Y8.9466
G01 X44.7500 Y8.9468
G01 X46.4500 Y8.9468
G01 X46.4575 Y8.9464
G01 X46.4668 Y8.9449
G01 X46.4741 Y8.9429
G01 X46.4811 Y8.9402
G01 X46.4895 Y8.9359
G01 X46.4957 Y8.9317
G01 X46.5030 Y8.9256
G01 X46.5082 Y8.9202
G01 X46.5128 Y8.9142
G01 X46.5168 Y8.9079
G01 X46.5194 Y8.9028
G01 X46.5223 Y8.8959
G01 X46.5240 Y8.8905
G01 X46.5257 Y8.8831
G01 X46.5264 Y8.8775
G01 X46.5268 Y8.8700
G01 X46.5268 Y7.1700
G01 X46.5264 Y7.1625
G01 X46.5249 Y7.1532
G01 X46.5223 Y7.1441
G01 X46.5194 Y7.1372
G01 X46.5149 Y7.1289
G01 X46.5105 Y7.1228
G01 X46.5043 Y7.1157
G01 X46.4972 Y7.1095
G01 X46.4911 Y7.1051
G01 X46.4811 Y7.0998
G01 X46.4723 Y7.0965
G01 X46.4613 Y7.0940
G01 X46.4500 Y7.0932
G01 X46.3162 Y7.0318
G01 X46.1885 Y7.0318
G01 X46.1885 Y6.9096
G01 X46.1963 Y6.9232
G01 X46.2045 Y6.9343
G01 X46.2535 Y6.9909
G01 X46.2619 Y6.9997
G01 X46.2682 Y7.0053
G01 X46.2750 Y7.0108
G01 X46.2878 Y7.0192
G01 X46.3017 Y7.0263
G01 X46.3162 Y7.0318
G00 Z2.0000
G00 X45.0115 Y6.9045
G01 F25.00
G01 Z-0.1000
G01 F120.00
G01 X45.0089 Y6.9120
G01 X45.0055 Y6.9201
G01 X44.9984 Y6.9335
G01 X44.9896 Y6.9465
G01 X44.9797 Y6.9581
G01 X44.9709 Y6.9665
G01 X44.9143 Y7.0155
G01 X44.9016 Y7.0247
G01 X44.8892 Y7.0318
G01 X45.0115 Y7.0318
G01 X45.0115 Y6.9045
G00 Z2.0000
G00 X53.1763 Y8.8871
G01 F25.00
G01 Z-0.1000
G01 F120.00
G01 X53.1864 Y8.9378
G01 X53.2248 Y8.9952
G01 X53.2822 Y9.0336
G01 X53.3329 Y9.0437
G01 X55.0671 Y9.0437
G01 X55.1178 Y9.0336
G01 X55.1752 Y8.9952
G01 X55.2136 Y8.9378
G01 X55.2237 Y8.8871
G01 X55.2237 Y7.1529
G01 X55.2136 Y7.1022
G01 X55.1752 Y7.0448
G01 X55.1178 Y7.0064
G01 X55.0671 Y6.9963
G01 X55.0227 Y6.9963
G01 X55.0154 Y6.9958
G01 X55.0100 Y6.9949
G01 X55.0029 Y6.9932
G01 X54.9358 Y6.9735
G01 X54.9304 Y6.9717
G01 X54.9234 Y6.9687
G01 X54.9167 Y6.9649
G01 X54.9105 Y6.9606
G01 X54.9047 Y6.9556
G01 X54.8994 Y6.9501
G01 X54.8512 Y6.8943
G01 X54.8448 Y6.8848
G01 X54.8399 Y6.8744
G01 X54.8371 Y6.8652
G01 X54.8255 Y6.8118
G01 X54.8242 Y6.8046
G01 X54.8237 Y6.7973
G01 X54.8237 Y6.1386
G01 X54.7997 Y6.0181
G01 X54.7527 Y5.9046
G01 X54.6845 Y5.8024
G01 X48.0576 Y-0.8245
G01 X47.9554 Y-0.8927
G01 X47.8419 Y-0.9397
G01 X47.7214 Y-0.9637
G01 X42.1017 Y-0.9639
G01 X42.0945 Y-0.9648
G01 X42.0873 Y-0.9663
G01 X42.0167 Y-0.9870
G01 X42.0063 Y-0.9913
G01 X41.9981 Y-0.9959
G01 X41.9920 Y-1.0004
G01 X41.9667 Y-1.0211
G01 X41.8669 Y-1.1208
G01 X41.7365 Y-1.2155
G01 X41.5930 Y-1.2887
G01 X41.4397 Y-1.3385
G01 X41.2806 Y-1.3637
G01 X41.1194 Y-1.3637
G01 X40.9603 Y-1.3385
G01 X40.8070 Y-1.2887
G01 X40.6635 Y-1.2155
G01 X40.5331 Y-1.1208
G01 X40.4192 Y-1.0069
G01 X40.3245 Y-0.8765
G01 X40.2513 Y-0.7330
G01 X40.2015 Y-0.5797
G01 X40.1763 Y-0.4206
G01 X40.1763 Y-0.2594
G01 X40.2015 Y-0.1003
G01 X40.2513 Y0.0530
G01 X40.3245 Y0.1965
G01 X40.4192 Y0.3269
G01 X40.5331 Y0.4408
G01 X40.6635 Y0.5355
G01 X40.8070 Y0.6087
G01 X40.9603 Y0.6585
G01 X41.1194 Y0.6837
G01 X41.2806 Y0.6837
G01 X41.4397 Y0.6585
G01 X41.5930 Y0.6087
G01 X41.7365 Y0.5355
G01 X41.8669 Y0.4408
G01 X41.9652 Y0.3425
G01 X41.9720 Y0.3364
G01 X41.9780 Y0.3322
G01 X42.0440 Y0.2959
G01 X42.0526 Y0.2919
G01 X42.0597 Y0.2895
G01 X42.0689 Y0.2875
G01 X42.1031 Y0.2838
G01 X47.3185 Y0.2837
G01 X47.3294 Y0.2845
G01 X47.3384 Y0.2863
G01 X47.4090 Y0.3070
G01 X47.4160 Y0.3097
G01 X47.4211 Y0.3121
G01 X47.4276 Y0.3159
G01 X47.4322 Y0.3192
G01 X47.4544 Y0.3370
G01 X47.4605 Y0.3425
G01 X53.5175 Y6.3995
G01 X53.5224 Y6.4049
G01 X53.5268 Y6.4108
G01 X53.5306 Y6.4170
G01 X53.5641 Y6.4784
G01 X53.5681 Y6.4869
G01 X53.5705 Y6.4940
G01 X53.5725 Y6.5032
G01 X53.5762 Y6.5374
G01 X53.5761 Y6.8010
G01 X53.5749 Y6.8100
G01 X53.5732 Y6.8171
G01 X53.5535 Y6.8842
G01 X53.5495 Y6.8949
G01 X53.5459 Y6.9016
G01 X53.5417 Y6.9080
G01 X53.5369 Y6.9139
G01 X53.5315 Y6.9193
G01 X53.4758 Y6.9676
G01 X53.4681 Y6.9732
G01 X53.4597 Y6.9778
G01 X53.4526 Y6.9807
G01 X53.4452 Y6.9829
G01 X53.3882 Y6.9952
G01 X53.3773 Y6.9963
G01 X53.3329 Y6.9963
G01 X53.2822 Y7.0064
G01 X53.2248 Y7.0448
G01 X53.1864 Y7.1022
G01 X53.1763 Y7.1529
G01 X53.1763 Y8.8871
G00 Z2.0000
G00 X53.4142 Y9.9623
G01 F25.00
G01 Z-0.1000
G01 F120.00
G01 X53.3972 Y9.9715
G01 X53.4073 Y9.9715
G01 X53.4142 Y9.9623
G00 Z2.0000
G00 X53.4018 Y11.1485
G01 F25.00
G01 Z-0.1000
G01 F120.00
G01 X53.4060 Y11.1499
G01 X53.4093 Y11.1511
G01 X53.4073 Y11.1485
G01 X53.4018 Y11.1485
G00 Z2.0000
G00 X53.6115 Y6.9045
G01 F25.00
G01 Z-0.1000
G01 F120.00
G01 X53.6089 Y6.9120
G01 X53.6055 Y6.9201
G01 X53.5984 Y6.9335
G01 X53.5896 Y6.9465
G01 X53.5797 Y6.9581
G01 X53.5709 Y6.9665
G01 X53.5143 Y7.0155
G01 X53.5016 Y7.0247
G01 X53.4892 Y7.0318
G01 X53.6115 Y7.0318
G01 X53.6115 Y6.9045
G00 Z2.0000
G00 X54.9162 Y7.0318
G01 F25.00
G01 Z-0.1000
G01 F120.00
G01 X54.9017 Y7.0263
G01 X54.8878 Y7.0192
G01 X54.8750 Y7.0108
G01 X54.8682 Y7.0053
G01 X54.8619 Y6.9997
G01 X54.8535 Y6.9909
G01 X54.8045 Y6.9343
G01 X54.7963 Y6.9232
G01 X54.7885 Y6.9096
G01 X54.7885 Y7.0318
G01 X54.9162 Y7.0318
G00 Z2.0000
G00 X55.3515 Y21.5845
G01 F25.00
G01 Z-0.1000
G01 F120.00
G01 X55.3489 Y21.5920
G01 X55.3455 Y21.6001
G01 X55.3384 Y21.6135
G01 X55.3296 Y21.6265
G01 X55.3197 Y21.6381
G01 X55.3109 Y21.6465
G01 X55.2543 Y21.6955
G01 X55.2416 Y21.7047
G01 X55.2292 Y21.7118
G01 X55.3515 Y21.7118
G01 X55.3515 Y21.5845
G00 Z2.0000
G00 X56.6562 Y21.7118
G01 F25.00
G01 Z-0.1000
G01 F120.00
G01 X56.6417 Y21.7063
G01 X56.6278 Y21.6992
G01 X56.6150 Y21.6908
G01 X56.6082 Y21.6853
G01 X56.6019 Y21.6797
G01 X56.5935 Y21.6709
G01 X56.5445 Y21.6143
G01 X56.5363 Y21.6032
G01 X56.5285 Y21.5896
G01 X56.5285 Y21.7118
G01 X56.6562 Y21.7118
G00 Z2.0000
G00 X54.1808 Y23.3669
G01 F25.00
G01 Z-0.1000
G01 F120.00
G01 X54.2755 Y23.2365
G01 X54.3487 Y23.0930
G01 X54.3985 Y22.9397
G01 X54.4237 Y22.7806
G01 X54.4237 Y22.6194
G01 X54.3985 Y22.4603
G01 X54.3487 Y22.3070
G01 X54.2755 Y22.1635
G01 X54.1808 Y22.0331
G01 X54.0669 Y21.9192
G01 X53.9365 Y21.8245
G01 X53.7930 Y21.7513
G01 X53.6397 Y21.7015
G01 X53.4806 Y21.6763
G01 X53.3194 Y21.6763
G01 X53.1603 Y21.7015
G01 X53.0070 Y21.7513
G01 X52.8635 Y21.8245
G01 X52.7331 Y21.9192
G01 X52.6348 Y22.0175
G01 X52.6280 Y22.0236
G01 X52.6220 Y22.0278
G01 X52.5560 Y22.0641
G01 X52.5457 Y22.0687
G01 X52.5385 Y22.0710
G01 X52.5311 Y22.0725
G01 X52.4949 Y22.0763
G01 X36.7072 Y22.0763
G01 X36.6963 Y22.0755
G01 X36.6856 Y22.0732
G01 X36.6167 Y22.0530
G01 X36.6080 Y22.0495
G01 X36.5997 Y22.0451
G01 X36.5920 Y22.0396
G01 X36.5667 Y22.0189
G01 X36.4669 Y21.9192
G01 X36.3365 Y21.8245
G01 X36.1930 Y21.7513
G01 X36.0397 Y21.7015
G01 X35.8806 Y21.6763
G01 X35.7194 Y21.6763
G01 X35.5603 Y21.7015
G01 X35.4070 Y21.7513
G01 X35.2635 Y21.8245
G01 X35.1331 Y21.9192
G01 X35.0192 Y22.0331
G01 X34.9245 Y22.1635
G01 X34.8513 Y22.3070
G01 X34.8015 Y22.4603
G01 X34.7763 Y22.6194
G01 X34.7763 Y22.7806
G01 X34.8015 Y22.9397
G01 X34.8513 Y23.0930
G01 X34.9245 Y23.2365
G01 X35.0192 Y23.3669
G01 X35.1331 Y23.4808
G01 X35.2635 Y23.5755
G01 X35.4070 Y23.6487
G01 X35.5603 Y23.6985
G01 X35.7194 Y23.7237
G01 X35.8806 Y23.7237
G01 X36.0397 Y23.6985
G01 X36.1930 Y23.6487
G01 X36.3365 Y23.5755
G01 X36.4669 Y23.4808
G01 X36.5652 Y23.3825
G01 X36.5706 Y23.3776
G01 X36.5780 Y23.3722
G01 X36.6440 Y23.3359
G01 X36.6543 Y23.3313
G01 X36.6615 Y23.3290
G01 X36.6689 Y23.3275
G01 X36.7051 Y23.3237
G01 X52.4946 Y23.3237
G01 X52.5037 Y23.3245
G01 X52.5127 Y23.3263
G01 X52.5815 Y23.3465
G01 X52.5920 Y23.3505
G01 X52.6003 Y23.3549
G01 X52.6080 Y23.3604
G01 X52.6333 Y23.3811
G01 X52.7331 Y23.4808
G01 X52.8635 Y23.5755
G01 X53.0070 Y23.6487
G01 X53.1603 Y23.6985
G01 X53.3194 Y23.7237
G01 X53.4806 Y23.7237
G01 X53.6397 Y23.6985
G01 X53.7930 Y23.6487
G01 X53.9365 Y23.5755
G01 X54.0669 Y23.4808
G01 X54.1808 Y23.3669
G00 Z2.0000
G00 X52.6018 Y23.2885
G01 F25.00
G01 Z-0.1000
G01 F120.00
G01 X52.6060 Y23.2899
G01 X52.6093 Y23.2911
G01 X52.6073 Y23.2885
G01 X52.6018 Y23.2885
G00 Z2.0000
G00 X52.6142 Y22.1023
G01 F25.00
G01 Z-0.1000
G01 F120.00
G01 X52.5972 Y22.1115
G01 X52.6073 Y22.1115
G01 X52.6142 Y22.1023
G00 Z2.0000
G00 X36.5982 Y22.1115
G01 F25.00
G01 Z-0.1000
G01 F120.00
G01 X36.5927 Y22.1115
G01 X36.5907 Y22.1089
G01 X36.5982 Y22.1115
G01 X36.5617 Y22.1730
G01 X36.5164 Y22.1120
G01 X36.4579 Y22.0474
G01 X36.4526 Y22.0421
G01 X36.3908 Y21.9860
G01 X36.3850 Y21.9813
G01 X36.3149 Y21.9294
G01 X36.2402 Y21.8845
G01 X36.2335 Y21.8809
G01 X36.1547 Y21.8437
G01 X36.0690 Y21.8131
G01 X35.9808 Y21.7910
G01 X35.8946 Y21.7781
G01 X35.8871 Y21.7774
G01 X35.8000 Y21.7732
G01 X35.7129 Y21.7774
G01 X35.7054 Y21.7781
G01 X35.6229 Y21.7904
G01 X35.6155 Y21.7918
G01 X35.5310 Y21.8131
G01 X35.4453 Y21.8437
G01 X35.3631 Y21.8826
G01 X35.2835 Y21.9305
G01 X35.2120 Y21.9836
G01 X35.1447 Y22.0447
G01 X35.0836 Y22.1120
G01 X35.0294 Y22.1851
G01 X34.9826 Y22.2631
G01 X34.9437 Y22.3453
G01 X34.9131 Y22.4310
G01 X34.8910 Y22.5192
G01 X34.8777 Y22.6092
G01 X34.8732 Y22.7000
G01 X34.8777 Y22.7908
G01 X34.8910 Y22.8808
G01 X34.9131 Y22.9690
G01 X34.9437 Y23.0547
G01 X34.9826 Y23.1369
G01 X35.0305 Y23.2165
G01 X35.0813 Y23.2850
G01 X35.0860 Y23.2908
G01 X35.1447 Y23.3553
G01 X35.2092 Y23.4140
G01 X35.2150 Y23.4187
G01 X35.2851 Y23.4706
G01 X35.3631 Y23.5174
G01 X35.4453 Y23.5563
G01 X35.5274 Y23.5857
G01 X35.5346 Y23.5879
G01 X35.6192 Y23.6090
G01 X35.7054 Y23.6219
G01 X35.7129 Y23.6226
G01 X35.7981 Y23.6268
G01 X35.8908 Y23.6223
G01 X35.9771 Y23.6096
G01 X35.9845 Y23.6082
G01 X36.0690 Y23.5869
G01 X36.1512 Y23.5576
G01 X36.1581 Y23.5547
G01 X36.2369 Y23.5174
G01 X36.3149 Y23.4706
G01 X36.3850 Y23.4187
G01 X36.3908 Y23.4140
G01 X36.4526 Y23.3579
G01 X36.4579 Y23.3526
G01 X36.5164 Y23.2880
G01 X36.5617 Y23.2270
G01 X52.6383 Y23.2270
G01 X52.6836 Y23.2880
G01 X52.7421 Y23.3526
G01 X52.7474 Y23.3579
G01 X52.8092 Y23.4140
G01 X52.8150 Y23.4187
G01 X52.8851 Y23.4706
G01 X52.9631 Y23.5174
G01 X53.0419 Y23.5547
G01 X53.0488 Y23.5576
G01 X53.1310 Y23.5869
G01 X53.2155 Y23.6082
G01 X53.2229 Y23.6096
G01 X53.3092 Y23.6223
G01 X53.4019 Y23.6268
G01 X53.4908 Y23.6223
G01 X53.5808 Y23.6090
G01 X53.6690 Y23.5869
G01 X53.7547 Y23.5563
G01 X53.8369 Y23.5174
G01 X53.9149 Y23.4706
G01 X53.9880 Y23.4164
G01 X54.0553 Y23.3553
G01 X54.1164 Y23.2880
G01 X54.1706 Y23.2149
G01 X54.2174 Y23.1369
G01 X54.2563 Y23.0547
G01 X54.2869 Y22.9690
G01 X54.3090 Y22.8808
G01 X54.3223 Y22.7908
G01 X54.3268 Y22.7019
G01 X54.3223 Y22.6092
G01 X54.3090 Y22.5192
G01 X54.2869 Y22.4310
G01 X54.2563 Y22.3453
G01 X54.2174 Y22.2631
G01 X54.1706 Y22.1851
G01 X54.1164 Y22.1120
G01 X54.0553 Y22.0447
G01 X53.9880 Y21.9836
G01 X53.9149 Y21.9294
G01 X53.8369 Y21.8826
G01 X53.7547 Y21.8437
G01 X53.6690 Y21.8131
G01 X53.5808 Y21.7910
G01 X53.4908 Y21.7777
G01 X53.4019 Y21.7732
G01 X53.3092 Y21.7777
G01 X53.2229 Y21.7904
G01 X53.2155 Y21.7918
G01 X53.1310 Y21.8131
G01 X53.0488 Y21.8424
G01 X53.0419 Y21.8453
G01 X52.9631 Y21.8826
G01 X52.8851 Y21.9294
G01 X52.8150 Y21.9813
G01 X52.8092 Y21.9860
G01 X52.7474 Y22.0421
G01 X52.7421 Y22.0474
G01 X52.6836 Y22.1120
G01 X52.6383 Y22.1730
G01 X36.5617 Y22.1730
G00 Z2.0000
G00 X36.5858 Y23.2977
G01 F25.00
G01 Z-0.1000
G01 F120.00
G01 X36.6028 Y23.2885
G01 X36.5927 Y23.2885
G01 X36.5858 Y23.2977
G00 Z2.0000
G00 X34.7763 Y21.0271
G01 F25.00
G01 Z-0.1000
G01 F120.00
G01 X34.7864 Y21.0778
G01 X34.8248 Y21.1352
G01 X34.8822 Y21.1736
G01 X34.9329 Y21.1837
G01 X36.6671 Y21.1837
G01 X36.7178 Y21.1736
G01 X36.7752 Y21.1352
G01 X36.8136 Y21.0778
G01 X36.8237 Y21.0271
G01 X36.8237 Y19.2929
G01 X36.8136 Y19.2422
G01 X36.7752 Y19.1848
G01 X36.7178 Y19.1464
G01 X36.6671 Y19.1363
G01 X34.9329 Y19.1363
G01 X34.8822 Y19.1464
G01 X34.8248 Y19.1848
G01 X34.7864 Y19.2422
G01 X34.7763 Y19.2929
G01 X34.7763 Y19.3373
G01 X34.7758 Y19.3446
G01 X34.7741 Y19.3536
G01 X34.7517 Y19.4296
G01 X34.7487 Y19.4366
G01 X34.7459 Y19.4416
G01 X34.7417 Y19.4480
G01 X34.7369 Y19.4539
G01 X34.7301 Y19.4606
G01 X34.6758 Y19.5076
G01 X34.6697 Y19.5122
G01 X34.6631 Y19.5161
G01 X34.6544 Y19.5201
G01 X34.6452 Y19.5229
G01 X34.5918 Y19.5345
G01 X34.5810 Y19.5361
G01 X31.0672 Y19.5363
G01 X31.0563 Y19.5355
G01 X31.0456 Y19.5332
G01 X30.9767 Y19.5130
G01 X30.9679 Y19.5095
G01 X30.9613 Y19.5060
G01 X30.9535 Y19.5008
G01 X30.9282 Y19.4803
G01 X30.8669 Y19.4192
G01 X30.7365 Y19.3245
G01 X30.5930 Y19.2513
G01 X30.4397 Y19.2015
G01 X30.2806 Y19.1763
G01 X30.1194 Y19.1763
G01 X29.9603 Y19.2015
G01 X29.8070 Y19.2513
G01 X29.6635 Y19.3245
G01 X29.5331 Y19.4192
G01 X29.4192 Y19.5331
G01 X29.3245 Y19.6635
G01 X29.2513 Y19.8070
G01 X29.2015 Y19.9603
G01 X29.1763 Y20.1194
G01 X29.1763 Y20.2806
G01 X29.2015 Y20.4397
G01 X29.2513 Y20.5930
G01 X29.3245 Y20.7365
G01 X29.4192 Y20.8669
G01 X29.5331 Y20.9808
G01 X29.6635 Y21.0755
G01 X29.8070 Y21.1487
G01 X29.9603 Y21.1985
G01 X30.1194 Y21.2237
G01 X30.2806 Y21.2237
G01 X30.4397 Y21.1985
G01 X30.5930 Y21.1487
G01 X30.7365 Y21.0755
G01 X30.8669 Y20.9808
G01 X30.9808 Y20.8669
G01 X30.9857 Y20.8608
G01 X30.9908 Y20.8555
G01 X30.9964 Y20.8508
G01 X31.0564 Y20.8048
G01 X31.0629 Y20.8009
G01 X31.0681 Y20.7985
G01 X31.0752 Y20.7958
G01 X31.0807 Y20.7943
G01 X31.1294 Y20.7850
G01 X31.1400 Y20.7838
G01 X34.5810 Y20.7839
G01 X34.5882 Y20.7848
G01 X34.5954 Y20.7863
G01 X34.6642 Y20.8065
G01 X34.6731 Y20.8097
G01 X34.6816 Y20.8141
G01 X34.6895 Y20.8194
G01 X34.6980 Y20.8271
G01 X34.7476 Y20.8842
G01 X34.7511 Y20.8887
G01 X34.7552 Y20.8952
G01 X34.7586 Y20.9021
G01 X34.7613 Y20.9093
G01 X34.7633 Y20.9167
G01 X34.7749 Y20.9700
G01 X34.7760 Y20.9772
G01 X34.7763 Y20.9827
G01 X34.7763 Y21.0271
G00 Z2.0000
G00 X34.6845 Y20.7485
G01 F25.00
G01 Z-0.1000
G01 F120.00
G01 X34.6920 Y20.7511
G01 X34.7001 Y20.7545
G01 X34.7135 Y20.7616
G01 X34.7265 Y20.7704
G01 X34.7381 Y20.7803
G01 X34.7465 Y20.7891
G01 X34.7955 Y20.8457
G01 X34.8047 Y20.8584
G01 X34.8118 Y20.8708
G01 X34.8118 Y20.7485
G01 X34.6845 Y20.7485
G00 Z2.0000
G00 X34.8118 Y19.4438
G01 F25.00
G01 Z-0.1000
G01 F120.00
G01 X34.8063 Y19.4583
G01 X34.7992 Y19.4722
G01 X34.7947 Y19.4793
G01 X34.7896 Y19.4865
G01 X34.7797 Y19.4981
G01 X34.7709 Y19.5065
G01 X34.7143 Y19.5555
G01 X34.7032 Y19.5637
G01 X34.6896 Y19.5715
G01 X34.8118 Y19.5715
G01 X34.8118 Y19.4438
G00 Z2.0000
G00 X36.6500 Y19.2332
G01 F25.00
G01 Z-0.1000
G01 F120.00
G01 X36.6575 Y19.2336
G01 X36.6650 Y19.2347
G01 X36.6723 Y19.2365
G01 X36.6794 Y19.2390
G01 X36.6862 Y19.2423
G01 X36.6927 Y19.2461
G01 X36.6987 Y19.2506
G01 X36.7043 Y19.2557
G01 X36.7094 Y19.2613
G01 X36.7139 Y19.2673
G01 X36.7177 Y19.2738
G01 X36.7210 Y19.2806
G01 X36.7235 Y19.2877
G01 X36.7253 Y19.2950
G01 X36.7264 Y19.3025
G01 X36.7268 Y19.3100
G01 X36.7267 Y21.0138
G01 X36.7262 Y21.0194
G01 X36.7249 Y21.0268
G01 X36.7235 Y21.0323
G01 X36.7210 Y21.0394
G01 X36.7177 Y21.0462
G01 X36.7149 Y21.0511
G01 X36.7117 Y21.0557
G01 X36.7069 Y21.0616
G01 X36.7016 Y21.0669
G01 X36.6972 Y21.0705
G01 X36.6911 Y21.0749
G01 X36.6862 Y21.0777
G01 X36.6794 Y21.0810
G01 X36.6741 Y21.0829
G01 X36.6668 Y21.0849
G01 X36.6613 Y21.0860
G01 X36.6500 Y21.0868
G01 X34.9500 Y21.0868
G01 X34.9406 Y21.0862
G01 X34.9332 Y21.0849
G01 X34.9224 Y21.0817
G01 X34.9121 Y21.0768
G01 X34.9058 Y21.0728
G01 X34.9013 Y21.0694
G01 X34.8931 Y21.0616
G01 X34.8861 Y21.0527
G01 X34.8806 Y21.0428
G01 X34.8765 Y21.0323
G01 X34.8740 Y21.0213
G01 X34.8732 Y21.0100
G01 X34.8732 Y20.6870
G01 X30.9874 Y20.6870
G01 X30.9695 Y20.7165
G01 X30.9176 Y20.7865
G01 X30.8540 Y20.8567
G01 X30.7880 Y20.9164
G01 X30.7180 Y20.9684
G01 X30.7117 Y20.9726
G01 X30.6352 Y21.0182
G01 X30.5547 Y21.0563
G01 X30.4726 Y21.0857
G01 X30.4654 Y21.0879
G01 X30.3808 Y21.1090
G01 X30.2946 Y21.1219
G01 X30.2871 Y21.1226
G01 X30.2000 Y21.1268
G01 X30.1092 Y21.1223
G01 X30.0192 Y21.1090
G01 X29.9346 Y21.0879
G01 X29.9274 Y21.0857
G01 X29.8488 Y21.0576
G01 X29.8419 Y21.0547
G01 X29.7631 Y21.0174
G01 X29.6851 Y20.9706
G01 X29.6120 Y20.9164
G01 X29.5474 Y20.8579
G01 X29.5421 Y20.8526
G01 X29.4860 Y20.7908
G01 X29.4813 Y20.7850
G01 X29.4294 Y20.7149
G01 X29.3826 Y20.6369
G01 X29.3437 Y20.5547
G01 X29.3143 Y20.4726
G01 X29.3121 Y20.4654
G01 X29.2918 Y20.3845
G01 X29.2904 Y20.3771
G01 X29.2777 Y20.2908
G01 X29.2732 Y20.2000
G01 X29.2777 Y20.1092
G01 X29.2910 Y20.0192
G01 X29.3131 Y19.9310
G01 X29.3437 Y19.8453
G01 X29.3826 Y19.7631
G01 X29.4294 Y19.6851
G01 X29.4836 Y19.6120
G01 X29.5447 Y19.5447
G01 X29.6120 Y19.4836
G01 X29.6851 Y19.4294
G01 X29.7631 Y19.3826
G01 X29.8453 Y19.3437
G01 X29.9310 Y19.3131
G01 X30.0155 Y19.2918
G01 X30.0229 Y19.2904
G01 X30.1092 Y19.2777
G01 X30.1962 Y19.2733
G01 X30.2038 Y19.2733
G01 X30.2908 Y19.2777
G01 X30.3771 Y19.2904
G01 X30.3845 Y19.2918
G01 X30.4690 Y19.3131
G01 X30.5529 Y19.3430
G01 X30.6335 Y19.3809
G01 X30.6402 Y19.3845
G01 X30.7149 Y19.4294
G01 X30.7865 Y19.4824
G01 X30.8567 Y19.5460
G01 X30.9152 Y19.6106
G01 X30.9321 Y19.6330
G01 X34.8732 Y19.6330
G01 X34.8732 Y19.3100
G01 X34.8740 Y19.2987
G01 X34.8765 Y19.2877
G01 X34.8806 Y19.2772
G01 X34.8832 Y19.2721
G01 X34.8872 Y19.2658
G01 X34.8944 Y19.2570
G01 X34.9028 Y19.2495
G01 X34.9121 Y19.2432
G01 X34.9224 Y19.2383
G01 X34.9332 Y19.2351
G01 X34.9425 Y19.2336
G01 X34.9500 Y19.2332
G01 X36.6500 Y19.2332
G00 Z2.0000
G00 X31.0141 Y20.7595
G01 F25.00
G01 Z-0.1000
G01 F120.00
G01 X31.0219 Y20.7539
G01 X31.0308 Y20.7485
G01 X31.0221 Y20.7485
G01 X31.0141 Y20.7595
G00 Z2.0000
G00 X29.1858 Y11.2577
G01 F25.00
G01 Z-0.1000
G01 F120.00
G01 X29.2028 Y11.2485
G01 X29.1927 Y11.2485
G01 X29.1858 Y11.2577
G00 Z2.0000
G00 X29.1982 Y10.0715
G01 F25.00
G01 Z-0.1000
G01 F120.00
G01 X29.1940 Y10.0701
G01 X29.1907 Y10.0689
G01 X29.1927 Y10.0715
G01 X29.1982 Y10.0715
G00 Z2.0000
G00 X27.6274 Y10.0445
G01 F25.00
G01 Z-0.1000
G01 F120.00
G01 X27.6033 Y10.0575
G01 X27.5957 Y10.0609
G01 X27.5860 Y10.0645
G01 X27.5761 Y10.0674
G01 X27.5661 Y10.0696
G01 X27.5559 Y10.0709
G01 X27.5460 Y10.0715
G01 X27.6073 Y10.0715
G01 X27.6274 Y10.0445
G01 X27.6383 Y10.1330
G01 X27.6836 Y10.0720
G01 X27.7421 Y10.0074
G01 X27.7474 Y10.0021
G01 X27.8092 Y9.9460
G01 X27.8150 Y9.9413
G01 X27.8851 Y9.8894
G01 X27.9631 Y9.8426
G01 X28.0453 Y9.8037
G01 X28.1274 Y9.7743
G01 X28.1346 Y9.7721
G01 X28.2192 Y9.7510
G01 X28.3054 Y9.7381
G01 X28.3129 Y9.7374
G01 X28.4000 Y9.7332
G01 X28.4908 Y9.7377
G01 X28.5771 Y9.7504
G01 X28.5845 Y9.7518
G01 X28.6690 Y9.7731
G01 X28.7512 Y9.8024
G01 X28.7581 Y9.8053
G01 X28.8369 Y9.8426
G01 X28.9149 Y9.8894
G01 X28.9850 Y9.9413
G01 X28.9908 Y9.9460
G01 X29.0526 Y10.0021
G01 X29.0579 Y10.0074
G01 X29.1164 Y10.0720
G01 X29.1617 Y10.1330
G01 X36.2383 Y10.1330
G01 X36.2836 Y10.0720
G01 X36.3421 Y10.0074
G01 X36.3474 Y10.0021
G01 X36.4092 Y9.9460
G01 X36.4150 Y9.9413
G01 X36.4851 Y9.8894
G01 X36.5631 Y9.8426
G01 X36.6453 Y9.8037
G01 X36.7274 Y9.7743
G01 X36.7346 Y9.7721
G01 X36.8192 Y9.7510
G01 X36.9054 Y9.7381
G01 X36.9129 Y9.7374
G01 X37.0000 Y9.7332
G01 X37.0908 Y9.7377
G01 X37.1808 Y9.7510
G01 X37.2690 Y9.7731
G01 X37.3564 Y9.8045
G01 X37.4369 Y9.8426
G01 X37.5165 Y9.8905
G01 X37.5894 Y9.9448
G01 X37.6540 Y10.0033
G01 X37.6811 Y10.0330
G01 X44.8383 Y10.0330
G01 X44.8836 Y9.9720
G01 X44.9421 Y9.9074
G01 X44.9474 Y9.9021
G01 X45.0092 Y9.8460
G01 X45.0150 Y9.8413
G01 X45.0851 Y9.7894
G01 X45.1631 Y9.7426
G01 X45.2453 Y9.7037
G01 X45.3274 Y9.6743
G01 X45.3346 Y9.6721
G01 X45.4192 Y9.6510
G01 X45.5054 Y9.6381
G01 X45.5129 Y9.6374
G01 X45.6000 Y9.6332
G01 X45.6908 Y9.6377
G01 X45.7771 Y9.6504
G01 X45.7845 Y9.6518
G01 X45.8690 Y9.6731
G01 X45.9512 Y9.7024
G01 X45.9581 Y9.7053
G01 X46.0369 Y9.7426
G01 X46.1149 Y9.7894
G01 X46.1850 Y9.8413
G01 X46.1908 Y9.8460
G01 X46.2526 Y9.9021
G01 X46.2579 Y9.9074
G01 X46.3164 Y9.9720
G01 X46.3617 Y10.0330
G01 X53.4383 Y10.0330
G01 X53.4836 Y9.9720
G01 X53.5447 Y9.9047
G01 X53.6120 Y9.8436
G01 X53.6820 Y9.7916
G01 X53.6883 Y9.7874
G01 X53.7598 Y9.7445
G01 X53.7665 Y9.7409
G01 X53.8453 Y9.7037
G01 X53.9310 Y9.6731
G01 X54.0192 Y9.6510
G01 X54.1092 Y9.6377
G01 X54.2000 Y9.6332
G01 X54.2871 Y9.6374
G01 X54.2946 Y9.6381
G01 X54.3771 Y9.6504
G01 X54.3845 Y9.6518
G01 X54.4690 Y9.6731
G01 X54.5512 Y9.7024
G01 X54.5581 Y9.7053
G01 X54.6369 Y9.7426
G01 X54.7117 Y9.7874
G01 X54.7180 Y9.7916
G01 X54.7850 Y9.8413
G01 X54.7908 Y9.8460
G01 X54.8553 Y9.9047
G01 X54.9164 Y9.9720
G01 X54.9706 Y10.0451
G01 X55.0155 Y10.1198
G01 X55.0191 Y10.1265
G01 X55.0547 Y10.2019
G01 X55.0576 Y10.2088
G01 X55.0869 Y10.2910
G01 X55.1090 Y10.3792
G01 X55.1219 Y10.4654
G01 X55.1226 Y10.4729
G01 X55.1268 Y10.5600
G01 X55.1223 Y10.6508
G01 X55.1096 Y10.7371
G01 X55.1082 Y10.7445
G01 X55.0869 Y10.8290
G01 X55.0563 Y10.9147
G01 X55.0174 Y10.9969
G01 X54.9726 Y11.0717
G01 X54.9684 Y11.0780
G01 X54.9187 Y11.1450
G01 X54.9140 Y11.1508
G01 X54.8553 Y11.2153
G01 X54.7880 Y11.2764
G01 X54.7149 Y11.3306
G01 X54.6402 Y11.3755
G01 X54.6335 Y11.3791
G01 X54.5581 Y11.4147
G01 X54.5512 Y11.4176
G01 X54.4690 Y11.4469
G01 X54.3808 Y11.4690
G01 X54.2946 Y11.4819
G01 X54.2871 Y11.4826
G01 X54.2000 Y11.4868
G01 X54.1092 Y11.4823
G01 X54.0229 Y11.4696
G01 X54.0155 Y11.4682
G01 X53.9310 Y11.4469
G01 X53.8453 Y11.4163
G01 X53.7631 Y11.3774
G01 X53.6883 Y11.3326
G01 X53.6820 Y11.3284
G01 X53.6120 Y11.2764
G01 X53.5474 Y11.2179
G01 X53.5421 Y11.2126
G01 X53.4836 Y11.1480
G01 X53.4383 Y11.0870
G01 X47.9324 Y11.0870
G01 X56.3127 Y19.4673
G01 X56.3474 Y19.5057
G01 X56.3771 Y19.5456
G01 X56.4029 Y19.5883
G01 X56.4065 Y19.5949
G01 X56.4269 Y19.6383
G01 X56.4443 Y19.6870
G01 X56.4561 Y19.7335
G01 X56.4575 Y19.7409
G01 X56.4645 Y19.7883
G01 X56.4669 Y19.8362
G01 X56.4670 Y21.7732
G01 X56.7900 Y21.7732
G01 X56.7956 Y21.7734
G01 X56.8031 Y21.7743
G01 X56.8087 Y21.7755
G01 X56.8159 Y21.7777
G01 X56.8262 Y21.7823
G01 X56.8327 Y21.7861
G01 X56.8372 Y21.7895
G01 X56.8456 Y21.7970
G01 X56.8505 Y21.8028
G01 X56.8539 Y21.8073
G01 X56.8594 Y21.8172
G01 X56.8635 Y21.8277
G01 X56.8649 Y21.8332
G01 X56.8662 Y21.8406
G01 X56.8668 Y21.8500
G01 X56.8668 Y23.5500
G01 X56.8662 Y23.5594
G01 X56.8649 Y23.5668
G01 X56.8623 Y23.5759
G01 X56.8594 Y23.5828
G01 X56.8539 Y23.5927
G01 X56.8469 Y23.6016
G01 X56.8387 Y23.6094
G01 X56.8311 Y23.6149
G01 X56.8211 Y23.6202
G01 X56.8123 Y23.6235
G01 X56.8013 Y23.6260
G01 X56.7900 Y23.6268
G01 X55.0881 Y23.6268
G01 X55.0787 Y23.6260
G01 X55.0713 Y23.6245
G01 X55.0641 Y23.6223
G01 X55.0572 Y23.6194
G01 X55.0505 Y23.6159
G01 X55.0428 Y23.6105
G01 X55.0370 Y23.6056
G01 X55.0306 Y23.5987
G01 X55.0272 Y23.5942
G01 X55.0232 Y23.5879
G01 X55.0198 Y23.5811
G01 X55.0177 Y23.5759
G01 X55.0155 Y23.5687
G01 X55.0143 Y23.5631
G01 X55.0136 Y23.5575
G01 X55.0132 Y23.5500
G01 X55.0132 Y21.8500
G01 X55.0136 Y21.8425
G01 X55.0143 Y21.8369
G01 X55.0160 Y21.8295
G01 X55.0183 Y21.8224
G01 X55.0206 Y21.8172
G01 X55.0232 Y21.8121
G01 X55.0272 Y21.8058
G01 X55.0344 Y21.7970
G01 X55.0384 Y21.7931
G01 X55.0443 Y21.7883
G01 X55.0538 Y21.7823
G01 X55.0641 Y21.7777
G01 X55.0695 Y21.7760
G01 X55.0769 Y21.7743
G01 X55.0844 Y21.7734
G01 X55.0900 Y21.7732
G01 X55.4130 Y21.7732
G01 X55.4130 Y20.0583
G01 X46.4417 Y11.0870
G01 X46.3617 Y11.0870
G01 X46.3164 Y11.1480
G01 X46.2579 Y11.2126
G01 X46.2526 Y11.2179
G01 X46.1908 Y11.2740
G01 X46.1850 Y11.2787
G01 X46.1149 Y11.3306
G01 X46.0402 Y11.3755
G01 X46.0335 Y11.3791
G01 X45.9581 Y11.4147
G01 X45.9512 Y11.4176
G01 X45.8690 Y11.4469
G01 X45.7845 Y11.4682
G01 X45.7771 Y11.4696
G01 X45.6908 Y11.4823
G01 X45.6000 Y11.4868
G01 X45.5092 Y11.4823
G01 X45.4229 Y11.4696
G01 X45.4155 Y11.4682
G01 X45.3310 Y11.4469
G01 X45.2488 Y11.4176
G01 X45.2419 Y11.4147
G01 X45.1631 Y11.3774
G01 X45.0851 Y11.3306
G01 X45.0150 Y11.2787
G01 X45.0092 Y11.2740
G01 X44.9474 Y11.2179
G01 X44.9421 Y11.2126
G01 X44.8836 Y11.1480
G01 X44.8383 Y11.0870
G01 X37.8221 Y11.0870
G01 X37.8155 Y11.1002
G01 X37.7706 Y11.1749
G01 X37.7187 Y11.2450
G01 X37.7140 Y11.2508
G01 X37.6553 Y11.3153
G01 X37.5908 Y11.3740
G01 X37.5850 Y11.3787
G01 X37.5180 Y11.4284
G01 X37.5117 Y11.4326
G01 X37.4369 Y11.4774
G01 X37.3581 Y11.5147
G01 X37.3512 Y11.5176
G01 X37.2690 Y11.5469
G01 X37.1808 Y11.5690
G01 X37.0946 Y11.5819
G01 X37.0871 Y11.5826
G01 X37.0000 Y11.5868
G01 X36.9092 Y11.5823
G01 X36.8229 Y11.5696
G01 X36.8155 Y11.5682
G01 X36.7310 Y11.5469
G01 X36.6488 Y11.5176
G01 X36.6419 Y11.5147
G01 X36.5631 Y11.4774
G01 X36.4851 Y11.4306
G01 X36.4150 Y11.3787
G01 X36.4092 Y11.3740
G01 X36.3474 Y11.3179
G01 X36.3421 Y11.3126
G01 X36.2836 Y11.2480
G01 X36.2383 Y11.1870
G01 X29.1617 Y11.1870
G01 X29.1164 Y11.2480
G01 X29.0579 Y11.3126
G01 X29.0526 Y11.3179
G01 X28.9908 Y11.3740
G01 X28.9850 Y11.3787
G01 X28.9149 Y11.4306
G01 X28.8369 Y11.4774
G01 X28.7581 Y11.5147
G01 X28.7512 Y11.5176
G01 X28.6690 Y11.5469
G01 X28.5845 Y11.5682
G01 X28.5771 Y11.5696
G01 X28.4908 Y11.5823
G01 X28.4038 Y11.5867
G01 X28.3962 Y11.5867
G01 X28.3129 Y11.5826
G01 X28.3054 Y11.5819
G01 X28.2192 Y11.5690
G01 X28.1346 Y11.5479
G01 X28.1274 Y11.5457
G01 X28.0453 Y11.5163
G01 X27.9631 Y11.4774
G01 X27.8851 Y11.4306
G01 X27.8150 Y11.3787
G01 X27.8092 Y11.3740
G01 X27.7474 Y11.3179
G01 X27.7421 Y11.3126
G01 X27.6836 Y11.2480
G01 X27.6383 Y11.1870
G01 X27.1979 Y11.1870
G01 X27.1444 Y11.1843
G01 X27.0988 Y11.1775
G01 X27.0914 Y11.1761
G01 X27.0449 Y11.1643
G01 X26.9998 Y11.1483
G01 X26.9928 Y11.1454
G01 X26.9495 Y11.1248
G01 X26.9036 Y11.0971
G01 X26.8636 Y11.0674
G01 X26.8253 Y11.0327
G01 X25.6247 Y9.8320
G01 X25.5926 Y9.7964
G01 X25.5640 Y9.7580
G01 X25.5598 Y9.7517
G01 X25.5352 Y9.7105
G01 X25.5131 Y9.6638
G01 X25.4969 Y9.6186
G01 X25.4947 Y9.6114
G01 X25.4828 Y9.5630
G01 X25.4755 Y9.5137
G01 X25.4730 Y9.4621
G01 X25.4730 Y3.1268
G01 X25.1500 Y3.1268
G01 X25.1387 Y3.1260
G01 X25.1277 Y3.1235
G01 X25.1224 Y3.1217
G01 X25.1155 Y3.1186
G01 X25.1058 Y3.1128
G01 X25.1013 Y3.1094
G01 X25.0957 Y3.1043
G01 X25.0883 Y3.0957
G01 X25.0823 Y3.0862
G01 X25.0777 Y3.0759
G01 X25.0760 Y3.0705
G01 X25.0743 Y3.0631
G01 X25.0734 Y3.0556
G01 X25.0732 Y3.0500
G01 X25.0732 Y1.3481
G01 X25.0743 Y1.3369
G01 X25.0755 Y1.3313
G01 X25.0777 Y1.3241
G01 X25.0806 Y1.3172
G01 X25.0832 Y1.3121
G01 X25.0895 Y1.3028
G01 X25.0931 Y1.2984
G01 X25.0984 Y1.2931
G01 X25.1073 Y1.2861
G01 X25.1121 Y1.2832
G01 X25.1189 Y1.2798
G01 X25.1295 Y1.2760
G01 X25.1387 Y1.2740
G01 X25.1500 Y1.2732
G01 X26.8519 Y1.2732
G01 X26.8631 Y1.2743
G01 X26.8705 Y1.2760
G01 X26.8759 Y1.2777
G01 X26.8811 Y1.2798
G01 X26.8879 Y1.2832
G01 X26.8972 Y1.2895
G01 X26.9016 Y1.2931
G01 X26.9069 Y1.2984
G01 X26.9139 Y1.3073
G01 X26.9177 Y1.3138
G01 X26.9202 Y1.3189
G01 X26.9240 Y1.3295
G01 X26.9262 Y1.3406
G01 X26.9268 Y1.3500
G01 X26.9268 Y3.0500
G01 X26.9262 Y3.0594
G01 X26.9249 Y3.0668
G01 X26.9217 Y3.0776
G01 X26.9168 Y3.0879
G01 X26.9105 Y3.0972
G01 X26.9030 Y3.1056
G01 X26.8942 Y3.1128
G01 X26.8845 Y3.1186
G01 X26.8741 Y3.1229
G01 X26.8668 Y3.1249
G01 X26.8613 Y3.1260
G01 X26.8500 Y3.1268
G01 X26.5270 Y3.1268
G01 X26.5270 Y9.2438
G01 X27.4162 Y10.1330
G01 X27.6383 Y10.1330
G01 X27.5389 Y10.0715
G01 X27.4587 Y10.0659
G01 X27.4451 Y10.0638
G01 X27.4299 Y10.0598
G01 X27.4417 Y10.0715
G01 X27.5389 Y10.0715
G00 Z2.0000
G00 X27.6018 Y11.2485
G01 F25.00
G01 Z-0.1000
G01 F120.00
G01 X27.6060 Y11.2499
G01 X27.6093 Y11.2511
G01 X27.6073 Y11.2485
G01 X27.6018 Y11.2485
G00 Z2.0000
M05
G00 Z2.0000
G00 Z2.50
G00 X0.0 Y0.0


