(G-CODE GENERATED BY FLATCAM v8.994 - www.flatcam.org - Version Date: 2020/11/7)

(Name: Oscilatorio_1-B_Cu.gbr_panelized_ncc_cnc)
(Type: G-code from Geometry)
(Units: MM)

(Created on Saturday, 04 October 2025 at 22:40)

(This preprocessor is the default preprocessor used by FlatCAM.)
(It is made to work with MACH3 compatible motion controllers.)

(TOOL DIAMETER: 0.1536 mm)
(Feedrate_XY: 120.0 mm/min)
(Feedrate_Z: 25.0 mm/min)
(Feedrate rapids 1500.0 mm/min)

(Z_Cut: -0.1 mm)
(Z_Move: 2.0 mm)
(Z Start: None mm)
(Z End: 2.5 mm)
(X,Y End: 0.0000, 0.0000 mm)
(Steps per circle: 64)
(Preprocessor Geometry: default)

(X range:  -49.7237 ...   13.2737  mm)
(Y range:  -30.0237 ...   31.9737  mm)

(Spindle Speed: 10000.0 RPM)
G21
G90
G94

G01 F120.00

M5
G00 Z15.0000
G00 X0.0000 Y0.0000
T3
M6    
(MSG, Change to Tool Dia = 0.1536)
M0
G00 Z15.0000

M03 S10000.0
G01 F120.00
G00 X4.6134 Y-4.2956
G01 F25.00
G01 Z-0.1000
G01 F120.00
G01 X4.6056 Y-4.2920
G01 X4.5962 Y-4.2885
G01 X4.6063 Y-4.2885
G01 X4.6134 Y-4.2956
G00 Z2.0000
G00 X7.3216 Y-7.0138
G01 F25.00
G01 Z-0.1000
G01 F120.00
G01 X7.3180 Y-7.0044
G01 X7.3144 Y-6.9966
G01 X7.3216 Y-7.0038
G01 X7.3216 Y-7.0138
G00 Z2.0000
G00 X7.1223 Y-7.5118
G01 F25.00
G01 Z-0.1000
G01 F120.00
G01 X7.1304 Y-7.5069
G01 X7.1417 Y-7.4994
G01 X7.1617 Y-7.4907
G01 X7.1693 Y-7.4865
G01 X7.1778 Y-7.4810
G01 X7.1897 Y-7.4717
G01 X7.2043 Y-7.4576
G01 X7.2222 Y-7.4451
G01 X7.2300 Y-7.4385
G01 X7.2372 Y-7.4313
G01 X7.2472 Y-7.4195
G01 X7.2576 Y-7.4043
G01 X7.2727 Y-7.3886
G01 X7.2790 Y-7.3806
G01 X7.2839 Y-7.3734
G01 X7.2914 Y-7.3603
G01 X7.2995 Y-7.3417
G01 X7.3078 Y-7.3291
G01 X7.3137 Y-7.3186
G01 X7.3180 Y-7.3094
G01 X7.3216 Y-7.3000
G01 X7.3216 Y-7.5118
G01 X7.1223 Y-7.5118
G00 Z2.0000
G00 X6.9144 Y-8.6634
G01 F25.00
G01 Z-0.1000
G01 F120.00
G01 X6.9186 Y-8.6542
G01 X6.9218 Y-8.6455
G01 X6.9218 Y-8.6560
G01 X6.9144 Y-8.6634
G00 Z2.0000
G00 X7.7645 Y-9.4882
G01 F25.00
G01 Z-0.1000
G01 F120.00
G01 X7.7558 Y-9.4915
G01 X7.7466 Y-9.4956
G01 X7.7540 Y-9.4882
G01 X7.7645 Y-9.4882
G00 Z2.0000
G00 X8.9599 Y-8.8054
G01 F25.00
G01 Z-0.1000
G01 F120.00
G01 X8.9679 Y-8.7968
G01 X8.9755 Y-8.7894
G01 X8.9841 Y-8.7820
G01 X8.9924 Y-8.7756
G01 X9.0081 Y-8.7651
G01 X9.0237 Y-8.7567
G01 X9.0382 Y-8.7464
G01 X9.0528 Y-8.7378
G01 X9.0633 Y-8.7327
G01 X9.0723 Y-8.7288
G01 X9.0861 Y-8.7238
G01 X9.1027 Y-8.7191
G01 X9.1175 Y-8.7121
G01 X9.1298 Y-8.7071
G01 X9.1459 Y-8.7020
G01 X9.1621 Y-8.6983
G01 X9.1740 Y-8.6965
G01 X9.1868 Y-8.6953
G01 X9.1993 Y-8.6923
G01 X9.2112 Y-8.6902
G01 X9.2300 Y-8.6884
G01 X9.2398 Y-8.6881
G01 X9.2503 Y-8.6884
G01 X9.2742 Y-8.6908
G01 X9.2940 Y-8.6900
G01 X9.3109 Y-8.6906
G01 X9.3233 Y-8.6919
G01 X9.3352 Y-8.6940
G01 X9.3487 Y-8.6972
G01 X9.3610 Y-8.7011
G01 X9.3737 Y-8.7031
G01 X9.3855 Y-8.7057
G01 X9.3967 Y-8.7089
G01 X9.4060 Y-8.7120
G01 X9.4240 Y-8.7198
G01 X9.4212 Y-8.7081
G01 X9.4191 Y-8.6966
G01 X9.4056 Y-8.6044
G01 X9.4047 Y-8.5931
G01 X9.4003 Y-8.5008
G01 X9.4006 Y-8.4902
G01 X9.4047 Y-8.4069
G01 X9.4056 Y-8.3956
G01 X9.4191 Y-8.3034
G01 X9.4212 Y-8.2919
G01 X9.4237 Y-8.2814
G01 X9.4113 Y-8.2855
G01 X9.3971 Y-8.2892
G01 X9.2985 Y-8.3088
G01 X9.2873 Y-8.3107
G01 X9.2708 Y-8.3123
G01 X9.2554 Y-8.3126
G01 X9.2392 Y-8.3116
G01 X9.2239 Y-8.3094
G01 X9.1198 Y-8.2887
G01 X9.1030 Y-8.2841
G01 X9.0864 Y-8.2779
G01 X9.0714 Y-8.2708
G01 X9.0568 Y-8.2623
G01 X9.0533 Y-8.2600
G01 X8.9725 Y-8.2061
G01 X8.9722 Y-8.2058
G01 X8.9598 Y-8.1968
G01 X8.9599 Y-8.8054
G01 X9.0213 Y-8.6850
G01 X9.0405 Y-8.6755
G01 X9.0594 Y-8.6680
G01 X9.0809 Y-8.6614
G01 X9.0956 Y-8.6546
G01 X9.1078 Y-8.6497
G01 X9.1272 Y-8.6434
G01 X9.1392 Y-8.6403
G01 X9.1510 Y-8.6379
G01 X9.1637 Y-8.6359
G01 X9.1768 Y-8.6345
G01 X9.1900 Y-8.6315
G01 X9.2049 Y-8.6291
G01 X9.2218 Y-8.6273
G01 X9.2395 Y-8.6267
G01 X9.2572 Y-8.6273
G01 X9.2762 Y-8.6292
G01 X9.2900 Y-8.6286
G01 X9.3032 Y-8.6286
G01 X9.3254 Y-8.6302
G01 X9.3476 Y-8.6338
G01 X9.3449 Y-8.6145
G01 X9.3436 Y-8.6006
G01 X9.3392 Y-8.5122
G01 X9.3389 Y-8.4992
G01 X9.3392 Y-8.4874
G01 X9.3436 Y-8.3986
G01 X9.3451 Y-8.3836
G01 X9.3483 Y-8.3615
G01 X9.3034 Y-8.3704
G01 X9.2907 Y-8.3722
G01 X9.2795 Y-8.3733
G01 X9.2640 Y-8.3740
G01 X9.2490 Y-8.3739
G01 X9.2347 Y-8.3729
G01 X9.2205 Y-8.3711
G01 X9.2088 Y-8.3691
G01 X9.1126 Y-8.3500
G01 X9.1015 Y-8.3475
G01 X9.0902 Y-8.3444
G01 X9.0720 Y-8.3383
G01 X9.0633 Y-8.3348
G01 X9.0591 Y-8.3330
G01 X9.0567 Y-8.3320
G01 X9.0564 Y-8.3318
G01 X9.0546 Y-8.3310
G01 X9.0543 Y-8.3309
G01 X9.0372 Y-8.3221
G01 X9.0212 Y-8.3125
G01 X9.0213 Y-8.6850
G01 X9.0827 Y-8.5935
G01 X9.1052 Y-8.5859
G01 X9.1282 Y-8.5798
G01 X9.1444 Y-8.5767
G01 X9.1668 Y-8.5737
G01 X9.1820 Y-8.5705
G01 X9.1976 Y-8.5680
G01 X9.2171 Y-8.5661
G01 X9.2375 Y-8.5653
G01 X9.2557 Y-8.5656
G01 X9.2782 Y-8.5675
G01 X9.2804 Y-8.5674
G01 X9.2778 Y-8.5148
G01 X9.2775 Y-8.5008
G01 X9.2778 Y-8.4861
G01 X9.2803 Y-8.4348
G01 X9.2625 Y-8.4355
G01 X9.2461 Y-8.4352
G01 X9.2294 Y-8.4341
G01 X9.2131 Y-8.4322
G01 X9.1974 Y-8.4295
G01 X9.1012 Y-8.4103
G01 X9.0963 Y-8.4093
G01 X9.0945 Y-8.4089
G01 X9.0943 Y-8.4089
G01 X9.0928 Y-8.4086
G01 X9.0921 Y-8.4084
G01 X9.0827 Y-8.4061
G01 X9.0827 Y-8.5935
G01 X9.1441 Y-8.5145
G01 X9.1567 Y-8.5129
G01 X9.1716 Y-8.5099
G01 X9.1877 Y-8.5074
G01 X9.2020 Y-8.5057
G01 X9.2161 Y-8.5046
G01 X9.2161 Y-8.4945
G01 X9.1913 Y-8.4908
G01 X9.1441 Y-8.4815
G01 X9.1441 Y-8.5145
G01 X8.8983 Y-8.0027
G01 X8.8983 Y-8.9989
G01 X8.9099 Y-8.9776
G01 X8.9180 Y-8.9554
G01 X8.9216 Y-8.9476
G01 X8.9255 Y-8.9402
G01 X8.9300 Y-8.9328
G01 X8.9347 Y-8.9260
G01 X8.9401 Y-8.9193
G01 X8.9467 Y-8.9118
G01 X8.9526 Y-8.9016
G01 X8.9583 Y-8.8931
G01 X8.9656 Y-8.8840
G01 X8.9725 Y-8.8765
G01 X8.9814 Y-8.8684
G01 X8.9972 Y-8.8558
G01 X9.0107 Y-8.8409
G01 X9.0194 Y-8.8326
G01 X9.0273 Y-8.8261
G01 X9.0357 Y-8.8203
G01 X9.0457 Y-8.8144
G01 X9.0564 Y-8.8092
G01 X9.0642 Y-8.8031
G01 X9.0713 Y-8.7982
G01 X9.0784 Y-8.7939
G01 X9.0861 Y-8.7898
G01 X9.0937 Y-8.7864
G01 X9.1018 Y-8.7834
G01 X9.1244 Y-8.7768
G01 X9.1412 Y-8.7688
G01 X9.1506 Y-8.7649
G01 X9.1603 Y-8.7618
G01 X9.1702 Y-8.7593
G01 X9.1836 Y-8.7572
G01 X9.1969 Y-8.7563
G01 X9.2065 Y-8.7537
G01 X9.2149 Y-8.7519
G01 X9.2231 Y-8.7506
G01 X9.2318 Y-8.7498
G01 X9.2401 Y-8.7496
G01 X9.2487 Y-8.7498
G01 X9.2721 Y-8.7524
G01 X9.2908 Y-8.7515
G01 X9.3009 Y-8.7515
G01 X9.3126 Y-8.7525
G01 X9.3226 Y-8.7541
G01 X9.3343 Y-8.7570
G01 X9.3470 Y-8.7613
G01 X9.3620 Y-8.7634
G01 X9.3752 Y-8.7665
G01 X9.3831 Y-8.7691
G01 X9.3926 Y-8.7729
G01 X9.4017 Y-8.7773
G01 X9.4180 Y-8.7864
G01 X9.4419 Y-8.7952
G01 X9.4510 Y-8.7996
G01 X9.4599 Y-8.8047
G01 X9.4722 Y-8.8133
G01 X9.4837 Y-8.8233
G01 X9.4968 Y-8.8310
G01 X9.5090 Y-8.8399
G01 X9.5204 Y-8.8503
G01 X9.5315 Y-8.8633
G01 X9.5041 Y-8.7861
G01 X9.4806 Y-8.6921
G01 X9.4665 Y-8.5961
G01 X9.4618 Y-8.5008
G01 X9.4665 Y-8.4039
G01 X9.4806 Y-8.3079
G01 X9.5041 Y-8.2139
G01 X9.5300 Y-8.1411
G01 X9.5230 Y-8.1471
G01 X9.5146 Y-8.1534
G01 X9.4265 Y-8.2122
G01 X9.4163 Y-8.2178
G01 X9.4053 Y-8.2227
G01 X9.3957 Y-8.2261
G01 X9.3844 Y-8.2290
G01 X9.2839 Y-8.2490
G01 X9.2704 Y-8.2508
G01 X9.2588 Y-8.2512
G01 X9.2467 Y-8.2506
G01 X9.2351 Y-8.2490
G01 X9.1347 Y-8.2290
G01 X9.1234 Y-8.2261
G01 X9.1138 Y-8.2227
G01 X9.1028 Y-8.2178
G01 X9.0925 Y-8.2122
G01 X9.0045 Y-8.1535
G01 X8.9952 Y-8.1464
G01 X8.9876 Y-8.1396
G01 X8.9783 Y-8.1297
G01 X8.9709 Y-8.1202
G01 X8.9141 Y-8.0354
G01 X8.9131 Y-8.0338
G01 X8.9123 Y-8.0326
G01 X8.9096 Y-8.0280
G01 X8.9048 Y-8.0190
G01 X8.9015 Y-8.0115
G01 X8.8983 Y-8.0027
G00 Z2.0000
G00 X9.8402 Y-9.2768
G01 F25.00
G01 Z-0.1000
G01 F120.00
G01 X9.8616 Y-9.2927
G01 X9.8616 Y-9.3195
G01 X9.8579 Y-9.3100
G01 X9.8543 Y-9.3021
G01 X9.8402 Y-9.2768
G00 Z2.0000
G00 X11.0385 Y-9.3195
G01 F25.00
G01 Z-0.1000
G01 F120.00
G01 X11.0385 Y-9.2927
G01 X11.0627 Y-9.2747
G01 X11.0531 Y-9.2891
G01 X11.0479 Y-9.2979
G01 X11.0428 Y-9.3084
G01 X11.0385 Y-9.3195
G00 Z2.0000
G00 X8.4985 Y-7.3000
G01 F25.00
G01 Z-0.1000
G01 F120.00
G01 X8.5015 Y-7.3080
G01 X8.5048 Y-7.3156
G01 X8.5088 Y-7.3233
G01 X8.5131 Y-7.3304
G01 X8.5700 Y-7.4156
G01 X8.5761 Y-7.4237
G01 X8.5828 Y-7.4313
G01 X8.5937 Y-7.4417
G01 X8.6045 Y-7.4500
G01 X8.6874 Y-7.5055
G01 X8.6978 Y-7.5118
G01 X8.4985 Y-7.5118
G01 X8.4985 Y-7.3000
G00 Z2.0000
G00 X2.4000 Y-9.6468
G01 F25.00
G01 Z-0.1000
G01 F120.00
G01 X0.6981 Y-9.6468
G01 X0.6906 Y-9.6462
G01 X0.6832 Y-9.6449
G01 X0.6759 Y-9.6429
G01 X0.6689 Y-9.6402
G01 X0.6622 Y-9.6368
G01 X0.6558 Y-9.6328
G01 X0.6499 Y-9.6282
G01 X0.6444 Y-9.6230
G01 X0.6395 Y-9.6172
G01 X0.6351 Y-9.6111
G01 X0.6314 Y-9.6045
G01 X0.6284 Y-9.5976
G01 X0.6260 Y-9.5905
G01 X0.6247 Y-9.5850
G01 X0.6236 Y-9.5775
G01 X0.6232 Y-9.5700
G01 X0.6232 Y-7.8700
G01 X0.6236 Y-7.8625
G01 X0.6247 Y-7.8550
G01 X0.6265 Y-7.8477
G01 X0.6291 Y-7.8406
G01 X0.6323 Y-7.8338
G01 X0.6362 Y-7.8273
G01 X0.6407 Y-7.8213
G01 X0.6471 Y-7.8144
G01 X0.6513 Y-7.8106
G01 X0.6574 Y-7.8061
G01 X0.6638 Y-7.8023
G01 X0.6706 Y-7.7990
G01 X0.6777 Y-7.7965
G01 X0.6850 Y-7.7947
G01 X0.6925 Y-7.7936
G01 X0.7000 Y-7.7932
G01 X2.4000 Y-7.7932
G01 X2.4113 Y-7.7940
G01 X2.4205 Y-7.7960
G01 X2.4294 Y-7.7990
G01 X2.4395 Y-7.8041
G01 X2.4487 Y-7.8106
G01 X2.4556 Y-7.8170
G01 X2.4628 Y-7.8258
G01 X2.4686 Y-7.8355
G01 X2.4723 Y-7.8441
G01 X2.4745 Y-7.8513
G01 X2.4762 Y-7.8606
G01 X2.4768 Y-7.8700
G01 X2.4768 Y-9.5700
G01 X2.4760 Y-9.5813
G01 X2.4750 Y-9.5868
G01 X2.4729 Y-9.5941
G01 X2.4686 Y-9.6045
G01 X2.4649 Y-9.6111
G01 X2.4617 Y-9.6157
G01 X2.4569 Y-9.6216
G01 X2.4516 Y-9.6269
G01 X2.4458 Y-9.6317
G01 X2.4395 Y-9.6359
G01 X2.4329 Y-9.6394
G01 X2.4259 Y-9.6423
G01 X2.4169 Y-9.6449
G01 X2.4094 Y-9.6462
G01 X2.4000 Y-9.6468
G01 X1.2430 Y-9.7699
G01 X1.2977 Y-9.8395
G01 X1.3074 Y-9.8543
G01 X1.3163 Y-9.8709
G01 X1.3221 Y-9.8844
G01 X1.3271 Y-9.8990
G01 X1.3547 Y-9.9969
G01 X1.3585 Y-10.0134
G01 X1.3604 Y-10.0253
G01 X1.3615 Y-10.0377
G01 X1.3619 Y-10.0497
G01 X1.3615 Y-10.0622
G01 X1.3605 Y-10.0734
G01 X1.3489 Y-10.1714
G01 X1.3462 Y-10.1878
G01 X1.3419 Y-10.2042
G01 X1.3369 Y-10.2188
G01 X1.3303 Y-10.2340
G01 X1.3419 Y-10.2312
G01 X1.3534 Y-10.2290
G01 X1.4456 Y-10.2155
G01 X1.4569 Y-10.2147
G01 X1.5493 Y-10.2103
G01 X1.5598 Y-10.2106
G01 X1.6431 Y-10.2147
G01 X1.6544 Y-10.2155
G01 X1.7466 Y-10.2290
G01 X1.7581 Y-10.2312
G01 X1.7686 Y-10.2337
G01 X1.7645 Y-10.2213
G01 X1.7609 Y-10.2071
G01 X1.7602 Y-10.2037
G01 X1.7412 Y-10.1085
G01 X1.7393 Y-10.0973
G01 X1.7377 Y-10.0808
G01 X1.7374 Y-10.0654
G01 X1.7384 Y-10.0492
G01 X1.7406 Y-10.0339
G01 X1.7614 Y-9.9297
G01 X1.7660 Y-9.9130
G01 X1.7721 Y-9.8964
G01 X1.7792 Y-9.8814
G01 X1.7877 Y-9.8668
G01 X1.8442 Y-9.7822
G01 X1.8533 Y-9.7697
G01 X1.2430 Y-9.7699
G01 X1.3650 Y-9.8313
G01 X1.3750 Y-9.8515
G01 X1.3809 Y-9.8662
G01 X1.3857 Y-9.8805
G01 X1.4137 Y-9.9796
G01 X1.4183 Y-9.9989
G01 X1.4214 Y-10.0186
G01 X1.4226 Y-10.0306
G01 X1.4232 Y-10.0430
G01 X1.4233 Y-10.0543
G01 X1.4228 Y-10.0668
G01 X1.4216 Y-10.0801
G01 X1.4124 Y-10.1582
G01 X1.4340 Y-10.1550
G01 X1.4494 Y-10.1536
G01 X1.5378 Y-10.1492
G01 X1.5508 Y-10.1489
G01 X1.5626 Y-10.1492
G01 X1.6514 Y-10.1536
G01 X1.6664 Y-10.1551
G01 X1.6885 Y-10.1583
G01 X1.6797 Y-10.1134
G01 X1.6787 Y-10.1071
G01 X1.6782 Y-10.1037
G01 X1.6781 Y-10.1026
G01 X1.6780 Y-10.1022
G01 X1.6778 Y-10.1007
G01 X1.6767 Y-10.0895
G01 X1.6760 Y-10.0740
G01 X1.6762 Y-10.0589
G01 X1.6771 Y-10.0447
G01 X1.6789 Y-10.0304
G01 X1.6809 Y-10.0187
G01 X1.7001 Y-9.9225
G01 X1.7025 Y-9.9115
G01 X1.7056 Y-9.9002
G01 X1.7117 Y-9.8820
G01 X1.7192 Y-9.8643
G01 X1.7279 Y-9.8472
G01 X1.7376 Y-9.8312
G01 X1.3650 Y-9.8313
G01 X1.4530 Y-9.8927
G01 X1.4745 Y-9.9693
G01 X1.4784 Y-9.9862
G01 X1.4813 Y-10.0026
G01 X1.4837 Y-10.0239
G01 X1.4848 Y-10.0461
G01 X1.4842 Y-10.0691
G01 X1.4822 Y-10.0904
G01 X1.5352 Y-10.0878
G01 X1.5493 Y-10.0874
G01 X1.5640 Y-10.0877
G01 X1.6152 Y-10.0903
G01 X1.6145 Y-10.0725
G01 X1.6148 Y-10.0561
G01 X1.6159 Y-10.0394
G01 X1.6160 Y-10.0386
G01 X1.6161 Y-10.0371
G01 X1.6162 Y-10.0369
G01 X1.6163 Y-10.0354
G01 X1.6168 Y-10.0313
G01 X1.6179 Y-10.0231
G01 X1.6205 Y-10.0074
G01 X1.6397 Y-9.9112
G01 X1.6439 Y-9.8927
G01 X1.4530 Y-9.8927
G01 X1.5341 Y-9.9541
G01 X1.5382 Y-9.9717
G01 X1.5415 Y-9.9900
G01 X1.5439 Y-10.0078
G01 X1.5455 Y-10.0260
G01 X1.5555 Y-10.0260
G01 X1.5592 Y-10.0013
G01 X1.5604 Y-9.9947
G01 X1.5604 Y-9.9946
G01 X1.5685 Y-9.9541
G01 X1.5341 Y-9.9541
G01 X1.9090 Y-10.3399
G01 X1.9029 Y-10.3330
G01 X1.8966 Y-10.3246
G01 X1.8378 Y-10.2365
G01 X1.8329 Y-10.2276
G01 X1.8280 Y-10.2170
G01 X1.8240 Y-10.2056
G01 X1.8210 Y-10.1943
G01 X1.8010 Y-10.0939
G01 X1.7993 Y-10.0804
G01 X1.7988 Y-10.0687
G01 X1.7994 Y-10.0567
G01 X1.8010 Y-10.0451
G01 X1.8210 Y-9.9447
G01 X1.8235 Y-9.9348
G01 X1.8273 Y-9.9238
G01 X1.8322 Y-9.9127
G01 X1.8378 Y-9.9025
G01 X1.8965 Y-9.8145
G01 X1.9036 Y-9.8052
G01 X1.9104 Y-9.7976
G01 X1.9191 Y-9.7892
G01 X1.9298 Y-9.7808
G01 X2.0146 Y-9.7241
G01 X2.0233 Y-9.7188
G01 X2.0310 Y-9.7148
G01 X2.0386 Y-9.7115
G01 X2.0473 Y-9.7082
G01 X1.0511 Y-9.7082
G01 X1.1455 Y-9.7609
G01 X1.1554 Y-9.7672
G01 X1.1649 Y-9.7746
G01 X1.1748 Y-9.7838
G01 X1.1826 Y-9.7925
G01 X1.2444 Y-9.8709
G01 X1.2508 Y-9.8797
G01 X1.2571 Y-9.8900
G01 X1.2616 Y-9.8991
G01 X1.2660 Y-9.9100
G01 X1.2689 Y-9.9189
G01 X1.2953 Y-10.0124
G01 X1.2975 Y-10.0216
G01 X1.2994 Y-10.0331
G01 X1.3003 Y-10.0433
G01 X1.3004 Y-10.0534
G01 X1.2998 Y-10.0636
G01 X1.2877 Y-10.1653
G01 X1.2852 Y-10.1786
G01 X1.2814 Y-10.1917
G01 X1.2777 Y-10.2012
G01 X1.2727 Y-10.2117
G01 X1.2201 Y-10.3052
G01 X1.2132 Y-10.3151
G01 X1.2057 Y-10.3241
G01 X1.1972 Y-10.3327
G01 X1.1868 Y-10.3415
G01 X1.2639 Y-10.3141
G01 X1.3580 Y-10.2906
G01 X1.4539 Y-10.2764
G01 X1.5493 Y-10.2718
G01 X1.6461 Y-10.2764
G01 X1.7421 Y-10.2906
G01 X1.8362 Y-10.3141
G01 X1.9090 Y-10.3399
G00 Z2.0000
G00 X1.5463 Y-12.1867
G01 F25.00
G01 Z-0.1000
G01 F120.00
G01 X1.5538 Y-12.1867
G01 X1.6409 Y-12.1823
G01 X1.7308 Y-12.1690
G01 X1.8191 Y-12.1469
G01 X1.9047 Y-12.1163
G01 X1.9869 Y-12.0774
G01 X2.0649 Y-12.0306
G01 X2.1380 Y-11.9764
G01 X2.2054 Y-11.9153
G01 X2.2665 Y-11.8480
G01 X2.3206 Y-11.7749
G01 X2.3674 Y-11.6969
G01 X2.4063 Y-11.6147
G01 X2.4369 Y-11.5290
G01 X2.4590 Y-11.4408
G01 X2.4724 Y-11.3508
G01 X2.4768 Y-11.2600
G01 X2.4724 Y-11.1692
G01 X2.4590 Y-11.0792
G01 X2.4369 Y-10.9910
G01 X2.4063 Y-10.9053
G01 X2.3674 Y-10.8231
G01 X2.3206 Y-10.7451
G01 X2.2665 Y-10.6720
G01 X2.2054 Y-10.6047
G01 X2.1380 Y-10.5436
G01 X2.0649 Y-10.4894
G01 X1.9869 Y-10.4426
G01 X1.9047 Y-10.4037
G01 X1.8191 Y-10.3731
G01 X1.7308 Y-10.3510
G01 X1.6409 Y-10.3377
G01 X1.5500 Y-10.3332
G01 X1.4592 Y-10.3377
G01 X1.3692 Y-10.3510
G01 X1.2810 Y-10.3731
G01 X1.1954 Y-10.4037
G01 X1.1131 Y-10.4426
G01 X1.0351 Y-10.4894
G01 X0.9621 Y-10.5436
G01 X0.8947 Y-10.6047
G01 X0.8336 Y-10.6720
G01 X0.7794 Y-10.7451
G01 X0.7327 Y-10.8231
G01 X0.6938 Y-10.9053
G01 X0.6631 Y-10.9910
G01 X0.6410 Y-11.0792
G01 X0.6277 Y-11.1692
G01 X0.6232 Y-11.2600
G01 X0.6277 Y-11.3508
G01 X0.6410 Y-11.4408
G01 X0.6631 Y-11.5290
G01 X0.6938 Y-11.6147
G01 X0.7327 Y-11.6969
G01 X0.7794 Y-11.7749
G01 X0.8336 Y-11.8480
G01 X0.8947 Y-11.9153
G01 X0.9621 Y-11.9764
G01 X1.0351 Y-12.0306
G01 X1.1131 Y-12.0774
G01 X1.1954 Y-12.1163
G01 X1.2810 Y-12.1469
G01 X1.3692 Y-12.1690
G01 X1.4592 Y-12.1823
G01 X1.5463 Y-12.1867
G00 Z2.0000
G00 X1.4798 Y-12.7535
G01 F25.00
G01 Z-0.1000
G01 F120.00
G01 X1.4884 Y-12.7394
G01 X1.4950 Y-12.7262
G01 X1.5006 Y-12.7127
G01 X1.5053 Y-12.6983
G01 X1.5320 Y-12.6037
G01 X1.5346 Y-12.5935
G01 X1.5370 Y-12.5813
G01 X1.5384 Y-12.5708
G01 X1.5393 Y-12.5588
G01 X1.5395 Y-12.5471
G01 X1.5383 Y-12.5276
G01 X1.5266 Y-12.4285
G01 X1.5243 Y-12.4143
G01 X1.5213 Y-12.4015
G01 X1.5153 Y-12.3828
G01 X1.5079 Y-12.3655
G01 X1.5028 Y-12.3558
G01 X1.4751 Y-12.3062
G01 X1.5493 Y-12.3097
G01 X1.6203 Y-12.3065
G01 X1.6117 Y-12.3206
G01 X1.6051 Y-12.3338
G01 X1.5994 Y-12.3474
G01 X1.5947 Y-12.3617
G01 X1.5680 Y-12.4563
G01 X1.5654 Y-12.4665
G01 X1.5634 Y-12.4768
G01 X1.5617 Y-12.4892
G01 X1.5607 Y-12.5012
G01 X1.5605 Y-12.5129
G01 X1.5617 Y-12.5324
G01 X1.5735 Y-12.6315
G01 X1.5757 Y-12.6457
G01 X1.5787 Y-12.6585
G01 X1.5847 Y-12.6772
G01 X1.5922 Y-12.6945
G01 X1.5972 Y-12.7042
G01 X1.6250 Y-12.7538
G01 X1.5508 Y-12.7503
G01 X1.4798 Y-12.7535
G01 X1.3217 Y-12.8395
G01 X1.3317 Y-12.8332
G01 X1.3411 Y-12.8262
G01 X1.3501 Y-12.8181
G01 X1.3580 Y-12.8096
G01 X1.4236 Y-12.7265
G01 X1.4303 Y-12.7169
G01 X1.4354 Y-12.7081
G01 X1.4412 Y-12.6959
G01 X1.4458 Y-12.6831
G01 X1.4736 Y-12.5845
G01 X1.4758 Y-12.5746
G01 X1.4770 Y-12.5664
G01 X1.4779 Y-12.5562
G01 X1.4781 Y-12.5476
G01 X1.4771 Y-12.5333
G01 X1.4649 Y-12.4308
G01 X1.4629 Y-12.4209
G01 X1.4601 Y-12.4111
G01 X1.4567 Y-12.4015
G01 X1.4519 Y-12.3908
G01 X1.4003 Y-12.2985
G01 X1.3948 Y-12.2899
G01 X1.3887 Y-12.2817
G01 X1.3797 Y-12.2716
G01 X1.3698 Y-12.2623
G01 X1.3145 Y-12.2187
G01 X1.3513 Y-12.2279
G01 X1.3598 Y-12.2297
G01 X1.4490 Y-12.2430
G01 X1.4599 Y-12.2440
G01 X1.5493 Y-12.2482
G01 X1.6401 Y-12.2440
G01 X1.6495 Y-12.2432
G01 X1.7402 Y-12.2297
G01 X1.7783 Y-12.2205
G01 X1.7683 Y-12.2268
G01 X1.7590 Y-12.2338
G01 X1.7500 Y-12.2419
G01 X1.7420 Y-12.2504
G01 X1.6764 Y-12.3335
G01 X1.6697 Y-12.3431
G01 X1.6646 Y-12.3519
G01 X1.6588 Y-12.3641
G01 X1.6543 Y-12.3769
G01 X1.6265 Y-12.4755
G01 X1.6246 Y-12.4836
G01 X1.6230 Y-12.4936
G01 X1.6222 Y-12.5023
G01 X1.6220 Y-12.5124
G01 X1.6229 Y-12.5267
G01 X1.6352 Y-12.6292
G01 X1.6376 Y-12.6406
G01 X1.6404 Y-12.6504
G01 X1.6439 Y-12.6599
G01 X1.6482 Y-12.6692
G01 X1.6998 Y-12.7615
G01 X1.7053 Y-12.7701
G01 X1.7113 Y-12.7783
G01 X1.7203 Y-12.7884
G01 X1.7303 Y-12.7977
G01 X1.7855 Y-12.8413
G01 X1.7487 Y-12.8321
G01 X1.7402 Y-12.8303
G01 X1.6510 Y-12.8170
G01 X1.6401 Y-12.8160
G01 X1.5508 Y-12.8118
G01 X1.4599 Y-12.8160
G01 X1.4505 Y-12.8168
G01 X1.3598 Y-12.8303
G01 X1.3217 Y-12.8395
G00 Z2.0000
G00 X2.6600 Y-13.7710
G01 F25.00
G01 Z-0.1000
G01 F120.00
G01 X2.7496 Y-13.7888
G01 X2.7503 Y-13.7889
G01 X2.7675 Y-13.7917
G01 X2.7821 Y-13.7931
G01 X2.7964 Y-13.7938
G01 X2.8122 Y-13.7935
G01 X2.8273 Y-13.7924
G01 X2.8396 Y-13.7908
G01 X2.8513 Y-13.7888
G01 X2.9483 Y-13.7695
G01 X2.9673 Y-13.7649
G01 X2.9856 Y-13.7589
G01 X3.0037 Y-13.7515
G01 X3.0209 Y-13.7429
G01 X3.0386 Y-13.7323
G01 X3.0387 Y-13.8677
G01 X3.0209 Y-13.8571
G01 X3.0037 Y-13.8485
G01 X2.9856 Y-13.8411
G01 X2.9673 Y-13.8351
G01 X2.9482 Y-13.8305
G01 X2.8513 Y-13.8112
G01 X2.8396 Y-13.8092
G01 X2.8272 Y-13.8076
G01 X2.8122 Y-13.8065
G01 X2.7964 Y-13.8062
G01 X2.7821 Y-13.8069
G01 X2.7674 Y-13.8083
G01 X2.7503 Y-13.8111
G01 X2.7496 Y-13.8112
G01 X2.6600 Y-13.8290
G01 X2.6611 Y-13.8008
G01 X2.6600 Y-13.7710
G01 X2.5921 Y-13.6783
G01 X2.6082 Y-13.6882
G01 X2.6250 Y-13.6966
G01 X2.6433 Y-13.7036
G01 X2.6608 Y-13.7084
G01 X2.7616 Y-13.7285
G01 X2.7727 Y-13.7304
G01 X2.7851 Y-13.7317
G01 X2.7990 Y-13.7323
G01 X2.8119 Y-13.7320
G01 X2.8242 Y-13.7309
G01 X2.8391 Y-13.7286
G01 X2.9388 Y-13.7087
G01 X2.9552 Y-13.7043
G01 X2.9729 Y-13.6979
G01 X2.9886 Y-13.6905
G01 X3.0033 Y-13.6820
G01 X3.0879 Y-13.6255
G01 X3.1001 Y-13.6166
G01 X3.1001 Y-13.9834
G01 X3.0878 Y-13.9744
G01 X3.0033 Y-13.9180
G01 X2.9886 Y-13.9095
G01 X2.9729 Y-13.9021
G01 X2.9570 Y-13.8962
G01 X2.9388 Y-13.8913
G01 X2.8391 Y-13.8714
G01 X2.8242 Y-13.8691
G01 X2.8118 Y-13.8680
G01 X2.8088 Y-13.8678
G01 X2.8069 Y-13.8678
G01 X2.8062 Y-13.8677
G01 X2.7990 Y-13.8677
G01 X2.7866 Y-13.8681
G01 X2.7727 Y-13.8696
G01 X2.7616 Y-13.8715
G01 X2.6608 Y-13.8916
G01 X2.6419 Y-13.8969
G01 X2.6250 Y-13.9034
G01 X2.6081 Y-13.9118
G01 X2.5921 Y-13.9217
G01 X2.5942 Y-13.9070
G01 X2.5952 Y-13.8965
G01 X2.5995 Y-13.8098
G01 X2.5997 Y-13.7992
G01 X2.5952 Y-13.7035
G01 X2.5942 Y-13.6930
G01 X2.5921 Y-13.6783
G01 X3.1616 Y-14.1769
G01 X3.1586 Y-14.1688
G01 X3.1552 Y-14.1613
G01 X3.1478 Y-14.1477
G01 X3.0900 Y-14.0613
G01 X3.0830 Y-14.0520
G01 X3.0749 Y-14.0430
G01 X3.0663 Y-14.0351
G01 X3.0568 Y-14.0277
G01 X2.9704 Y-13.9699
G01 X2.9603 Y-13.9640
G01 X2.9480 Y-13.9583
G01 X2.9367 Y-13.9542
G01 X2.9254 Y-13.9512
G01 X2.9228 Y-13.9507
G01 X2.8275 Y-13.9317
G01 X2.8201 Y-13.9305
G01 X2.8081 Y-13.9293
G01 X2.7979 Y-13.9291
G01 X2.7862 Y-13.9298
G01 X2.7761 Y-13.9313
G01 X2.6742 Y-13.9516
G01 X2.6612 Y-13.9553
G01 X2.6468 Y-13.9610
G01 X2.6378 Y-13.9656
G01 X2.6291 Y-13.9709
G01 X2.5477 Y-14.0253
G01 X2.5373 Y-14.0329
G01 X2.5262 Y-14.0430
G01 X2.5171 Y-14.0531
G01 X2.5110 Y-14.0613
G01 X2.4971 Y-14.0821
G01 X2.5191 Y-13.9935
G01 X2.5327 Y-13.9036
G01 X2.5340 Y-13.8901
G01 X2.5383 Y-13.7992
G01 X2.5340 Y-13.7099
G01 X2.5327 Y-13.6964
G01 X2.5191 Y-13.6065
G01 X2.4971 Y-13.5179
G01 X2.5110 Y-13.5387
G01 X2.5171 Y-13.5469
G01 X2.5262 Y-13.5570
G01 X2.5374 Y-13.5671
G01 X2.5477 Y-13.5747
G01 X2.6291 Y-13.6291
G01 X2.6378 Y-13.6344
G01 X2.6468 Y-13.6390
G01 X2.6612 Y-13.6447
G01 X2.6742 Y-13.6484
G01 X2.7762 Y-13.6687
G01 X2.7877 Y-13.6703
G01 X2.7979 Y-13.6709
G01 X2.8100 Y-13.6706
G01 X2.8201 Y-13.6695
G01 X2.9254 Y-13.6488
G01 X2.9367 Y-13.6458
G01 X2.9480 Y-13.6417
G01 X2.9587 Y-13.6368
G01 X2.9704 Y-13.6301
G01 X3.0568 Y-13.5723
G01 X3.0663 Y-13.5649
G01 X3.0749 Y-13.5569
G01 X3.0830 Y-13.5480
G01 X3.0901 Y-13.5387
G01 X3.1478 Y-13.4523
G01 X3.1552 Y-13.4387
G01 X3.1586 Y-13.4311
G01 X3.1616 Y-13.4231
G01 X3.1616 Y-14.1769
G00 Z2.0000
G00 X2.0866 Y-14.6755
G01 F25.00
G01 Z-0.1000
G01 F120.00
G01 X2.2169 Y-14.5808
G01 X2.3309 Y-14.4669
G01 X2.4256 Y-14.3365
G01 X2.5077 Y-14.1755
G01 X2.5118 Y-14.1692
G01 X2.5175 Y-14.1621
G01 X2.5628 Y-14.0945
G01 X2.5701 Y-14.0860
G01 X2.5757 Y-14.0809
G01 X2.5802 Y-14.0775
G01 X2.6626 Y-14.0224
G01 X2.6707 Y-14.0177
G01 X2.6794 Y-14.0140
G01 X2.6903 Y-14.0110
G01 X2.7874 Y-13.9917
G01 X2.7930 Y-13.9909
G01 X2.8005 Y-13.9905
G01 X2.8081 Y-13.9909
G01 X2.8155 Y-13.9920
G01 X2.9108 Y-14.0110
G01 X2.9163 Y-14.0123
G01 X2.9235 Y-14.0146
G01 X2.9320 Y-14.0186
G01 X2.9385 Y-14.0224
G01 X3.0193 Y-14.0764
G01 X3.0238 Y-14.0797
G01 X3.0296 Y-14.0846
G01 X3.0347 Y-14.0901
G01 X3.0394 Y-14.0960
G01 X3.0964 Y-14.1816
G01 X3.1015 Y-14.1917
G01 X3.1035 Y-14.1970
G01 X3.1055 Y-14.2042
G01 X3.1248 Y-14.3013
G01 X3.1260 Y-14.3088
G01 X3.1263 Y-14.3144
G01 X3.1261 Y-15.8293
G01 X3.1248 Y-15.8386
G01 X3.1051 Y-15.9376
G01 X3.1035 Y-15.9430
G01 X3.1008 Y-15.9501
G01 X3.0974 Y-15.9568
G01 X3.0944 Y-15.9616
G01 X3.0394 Y-16.0439
G01 X3.0360 Y-16.0484
G01 X3.0309 Y-16.0540
G01 X3.0253 Y-16.0591
G01 X3.0193 Y-16.0636
G01 X2.9353 Y-16.1196
G01 X2.9304 Y-16.1223
G01 X2.9235 Y-16.1254
G01 X2.9181 Y-16.1272
G01 X2.9108 Y-16.1290
G01 X2.8137 Y-16.1483
G01 X2.8062 Y-16.1493
G01 X2.8005 Y-16.1495
G01 X2.7893 Y-16.1486
G01 X2.6903 Y-16.1290
G01 X2.6830 Y-16.1272
G01 X2.6759 Y-16.1247
G01 X2.6707 Y-16.1223
G01 X2.6642 Y-16.1186
G01 X2.5802 Y-16.0625
G01 X2.5743 Y-16.0579
G01 X2.5702 Y-16.0541
G01 X2.5628 Y-16.0455
G01 X2.5175 Y-15.9779
G01 X2.5129 Y-15.9723
G01 X2.5087 Y-15.9661
G01 X2.5019 Y-15.9535
G01 X2.4256 Y-15.8035
G01 X2.3309 Y-15.6731
G01 X2.2169 Y-15.5592
G01 X2.0866 Y-15.4645
G01 X1.9430 Y-15.3913
G01 X1.9040 Y-15.3785
G01 X1.8642 Y-15.3621
G01 X1.8541 Y-15.3566
G01 X1.8479 Y-15.3522
G01 X1.7701 Y-15.2908
G01 X1.7659 Y-15.2871
G01 X1.7607 Y-15.2816
G01 X1.7572 Y-15.2772
G01 X1.7530 Y-15.2709
G01 X1.7037 Y-15.1828
G01 X1.7005 Y-15.1760
G01 X1.6986 Y-15.1707
G01 X1.6966 Y-15.1634
G01 X1.6956 Y-15.1578
G01 X1.6837 Y-15.0576
G01 X1.6834 Y-15.0520
G01 X1.6836 Y-15.0444
G01 X1.6846 Y-15.0370
G01 X1.6858 Y-15.0314
G01 X1.7132 Y-14.9343
G01 X1.7158 Y-14.9272
G01 X1.7199 Y-14.9188
G01 X1.7263 Y-14.9094
G01 X1.7876 Y-14.8316
G01 X1.7954 Y-14.8235
G01 X1.8044 Y-14.8166
G01 X1.8973 Y-14.7644
G01 X1.9060 Y-14.7608
G01 X1.9430 Y-14.7487
G01 X2.0866 Y-14.6755
G01 X1.7783 Y-14.7605
G01 X1.7494 Y-14.7678
G01 X1.7361 Y-14.7704
G01 X1.6476 Y-14.7834
G01 X1.5508 Y-14.7882
G01 X1.5432 Y-14.7881
G01 X1.4599 Y-14.7840
G01 X1.4558 Y-14.7837
G01 X1.4464 Y-14.7827
G01 X1.3598 Y-14.7697
G01 X1.3513 Y-14.7679
G01 X1.3145 Y-14.7587
G01 X1.3698 Y-14.8023
G01 X1.3797 Y-14.8116
G01 X1.3887 Y-14.8217
G01 X1.3948 Y-14.8299
G01 X1.4003 Y-14.8385
G01 X1.4519 Y-14.9308
G01 X1.4567 Y-14.9415
G01 X1.4601 Y-14.9511
G01 X1.4629 Y-14.9609
G01 X1.4649 Y-14.9708
G01 X1.4771 Y-15.0733
G01 X1.4781 Y-15.0876
G01 X1.4779 Y-15.0962
G01 X1.4770 Y-15.1064
G01 X1.4758 Y-15.1146
G01 X1.4736 Y-15.1245
G01 X1.4458 Y-15.2231
G01 X1.4412 Y-15.2359
G01 X1.4354 Y-15.2481
G01 X1.4303 Y-15.2569
G01 X1.4236 Y-15.2665
G01 X1.3580 Y-15.3496
G01 X1.3501 Y-15.3581
G01 X1.3411 Y-15.3662
G01 X1.3317 Y-15.3732
G01 X1.3217 Y-15.3795
G01 X1.3598 Y-15.3703
G01 X1.4505 Y-15.3568
G01 X1.4599 Y-15.3560
G01 X1.5508 Y-15.3518
G01 X1.6401 Y-15.3560
G01 X1.6510 Y-15.3570
G01 X1.7402 Y-15.3703
G01 X1.7487 Y-15.3721
G01 X1.7855 Y-15.3813
G01 X1.7303 Y-15.3377
G01 X1.7203 Y-15.3284
G01 X1.7113 Y-15.3183
G01 X1.7053 Y-15.3101
G01 X1.6998 Y-15.3015
G01 X1.6482 Y-15.2092
G01 X1.6439 Y-15.1999
G01 X1.6399 Y-15.1889
G01 X1.6372 Y-15.1791
G01 X1.6352 Y-15.1692
G01 X1.6229 Y-15.0667
G01 X1.6220 Y-15.0524
G01 X1.6222 Y-15.0423
G01 X1.6230 Y-15.0336
G01 X1.6246 Y-15.0236
G01 X1.6265 Y-15.0155
G01 X1.6543 Y-14.9169
G01 X1.6588 Y-14.9041
G01 X1.6646 Y-14.8919
G01 X1.6697 Y-14.8831
G01 X1.6764 Y-14.8735
G01 X1.7420 Y-14.7904
G01 X1.7500 Y-14.7819
G01 X1.7590 Y-14.7738
G01 X1.7683 Y-14.7668
G01 X1.7783 Y-14.7605
G01 X1.5463 Y-14.7267
G01 X1.4592 Y-14.7223
G01 X1.3674 Y-14.7086
G01 X1.2846 Y-14.6879
G01 X1.2774 Y-14.6857
G01 X1.1954 Y-14.6563
G01 X1.1148 Y-14.6182
G01 X1.0383 Y-14.5726
G01 X1.0320 Y-14.5684
G01 X0.9621 Y-14.5164
G01 X0.8947 Y-14.4553
G01 X0.8336 Y-14.3880
G01 X0.7816 Y-14.3180
G01 X0.7774 Y-14.3117
G01 X0.7318 Y-14.2352
G01 X0.6938 Y-14.1547
G01 X0.6643 Y-14.0726
G01 X0.6621 Y-14.0654
G01 X0.6410 Y-13.9808
G01 X0.6281 Y-13.8946
G01 X0.6274 Y-13.8871
G01 X0.6233 Y-13.8038
G01 X0.6233 Y-13.7962
G01 X0.6277 Y-13.7092
G01 X0.6410 Y-13.6192
G01 X0.6631 Y-13.5310
G01 X0.6938 Y-13.4453
G01 X0.7327 Y-13.3631
G01 X0.7774 Y-13.2883
G01 X0.7816 Y-13.2820
G01 X0.8336 Y-13.2120
G01 X0.8921 Y-13.1474
G01 X0.8974 Y-13.1421
G01 X0.9592 Y-13.0860
G01 X0.9650 Y-13.0813
G01 X1.0351 Y-13.0294
G01 X1.1131 Y-12.9826
G01 X1.1954 Y-12.9437
G01 X1.2828 Y-12.9126
G01 X1.3692 Y-12.8910
G01 X1.4554 Y-12.8781
G01 X1.4629 Y-12.8774
G01 X1.5500 Y-12.8732
G01 X1.6371 Y-12.8774
G01 X1.6446 Y-12.8781
G01 X1.7271 Y-12.8904
G01 X1.7345 Y-12.8918
G01 X1.8191 Y-12.9131
G01 X1.9047 Y-12.9437
G01 X1.9869 Y-12.9826
G01 X2.0649 Y-13.0294
G01 X2.1380 Y-13.0836
G01 X2.2054 Y-13.1447
G01 X2.2665 Y-13.2120
G01 X2.3185 Y-13.2820
G01 X2.3226 Y-13.2883
G01 X2.3655 Y-13.3598
G01 X2.3691 Y-13.3665
G01 X2.4063 Y-13.4453
G01 X2.4357 Y-13.5274
G01 X2.4379 Y-13.5346
G01 X2.4590 Y-13.6192
G01 X2.4724 Y-13.7092
G01 X2.4768 Y-13.8000
G01 X2.4724 Y-13.8908
G01 X2.4590 Y-13.9808
G01 X2.4369 Y-14.0690
G01 X2.4063 Y-14.1547
G01 X2.3674 Y-14.2369
G01 X2.3206 Y-14.3149
G01 X2.2652 Y-14.3894
G01 X2.2054 Y-14.4553
G01 X2.1408 Y-14.5140
G01 X2.1350 Y-14.5187
G01 X2.0680 Y-14.5684
G01 X2.0617 Y-14.5726
G01 X1.9869 Y-14.6174
G01 X1.9081 Y-14.6547
G01 X1.9012 Y-14.6576
G01 X1.8191 Y-14.6869
G01 X1.7308 Y-14.7090
G01 X1.6409 Y-14.7223
G01 X1.5538 Y-14.7267
G01 X1.5463 Y-14.7267
G01 X1.4751 Y-14.8462
G01 X1.5028 Y-14.8958
G01 X1.5079 Y-14.9055
G01 X1.5153 Y-14.9228
G01 X1.5213 Y-14.9415
G01 X1.5243 Y-14.9543
G01 X1.5266 Y-14.9685
G01 X1.5383 Y-15.0676
G01 X1.5395 Y-15.0871
G01 X1.5393 Y-15.0988
G01 X1.5384 Y-15.1108
G01 X1.5367 Y-15.1232
G01 X1.5346 Y-15.1335
G01 X1.5320 Y-15.1437
G01 X1.5053 Y-15.2383
G01 X1.5006 Y-15.2527
G01 X1.4950 Y-15.2662
G01 X1.4884 Y-15.2794
G01 X1.4798 Y-15.2935
G01 X1.5508 Y-15.2903
G01 X1.6250 Y-15.2938
G01 X1.5972 Y-15.2442
G01 X1.5922 Y-15.2345
G01 X1.5847 Y-15.2172
G01 X1.5787 Y-15.1985
G01 X1.5757 Y-15.1857
G01 X1.5735 Y-15.1715
G01 X1.5617 Y-15.0724
G01 X1.5605 Y-15.0529
G01 X1.5607 Y-15.0412
G01 X1.5617 Y-15.0292
G01 X1.5634 Y-15.0168
G01 X1.5654 Y-15.0065
G01 X1.5680 Y-14.9963
G01 X1.5947 Y-14.9017
G01 X1.5994 Y-14.8874
G01 X1.6051 Y-14.8738
G01 X1.6117 Y-14.8606
G01 X1.6203 Y-14.8465
G01 X1.5493 Y-14.8497
G01 X1.4751 Y-14.8462
G00 Z2.0000
G00 X2.5921 Y-16.2183
G01 F25.00
G01 Z-0.1000
G01 F120.00
G01 X2.5942 Y-16.2330
G01 X2.5952 Y-16.2435
G01 X2.5997 Y-16.3392
G01 X2.5995 Y-16.3498
G01 X2.5952 Y-16.4365
G01 X2.5942 Y-16.4470
G01 X2.5921 Y-16.4617
G01 X2.6081 Y-16.4518
G01 X2.6250 Y-16.4434
G01 X2.6433 Y-16.4365
G01 X2.6608 Y-16.4316
G01 X2.7616 Y-16.4115
G01 X2.7727 Y-16.4096
G01 X2.7795 Y-16.4088
G01 X2.7802 Y-16.4087
G01 X2.7817 Y-16.4085
G01 X2.7825 Y-16.4085
G01 X2.7851 Y-16.4083
G01 X2.7990 Y-16.4077
G01 X2.8118 Y-16.4080
G01 X2.8242 Y-16.4091
G01 X2.8391 Y-16.4114
G01 X2.9388 Y-16.4313
G01 X2.9552 Y-16.4356
G01 X2.9729 Y-16.4421
G01 X2.9886 Y-16.4495
G01 X3.0033 Y-16.4580
G01 X3.0878 Y-16.5144
G01 X3.1001 Y-16.5234
G01 X3.1001 Y-16.1566
G01 X3.0879 Y-16.1655
G01 X3.0033 Y-16.2220
G01 X2.9886 Y-16.2305
G01 X2.9729 Y-16.2379
G01 X2.9552 Y-16.2443
G01 X2.9388 Y-16.2487
G01 X2.8391 Y-16.2686
G01 X2.8242 Y-16.2709
G01 X2.8119 Y-16.2720
G01 X2.7990 Y-16.2723
G01 X2.7866 Y-16.2719
G01 X2.7727 Y-16.2704
G01 X2.7616 Y-16.2685
G01 X2.6608 Y-16.2484
G01 X2.6419 Y-16.2431
G01 X2.6250 Y-16.2366
G01 X2.6082 Y-16.2282
G01 X2.5921 Y-16.2183
G01 X2.6600 Y-16.3110
G01 X2.6611 Y-16.3408
G01 X2.6600 Y-16.3690
G01 X2.7496 Y-16.3512
G01 X2.7503 Y-16.3511
G01 X2.7674 Y-16.3483
G01 X2.7824 Y-16.3468
G01 X2.7983 Y-16.3462
G01 X2.8126 Y-16.3465
G01 X2.8272 Y-16.3476
G01 X2.8396 Y-16.3492
G01 X2.8513 Y-16.3512
G01 X2.9482 Y-16.3705
G01 X2.9673 Y-16.3751
G01 X2.9856 Y-16.3811
G01 X3.0037 Y-16.3885
G01 X3.0209 Y-16.3971
G01 X3.0387 Y-16.4077
G01 X3.0386 Y-16.2723
G01 X3.0209 Y-16.2829
G01 X3.0037 Y-16.2915
G01 X2.9856 Y-16.2989
G01 X2.9673 Y-16.3049
G01 X2.9483 Y-16.3095
G01 X2.8513 Y-16.3288
G01 X2.8396 Y-16.3308
G01 X2.8273 Y-16.3324
G01 X2.8122 Y-16.3335
G01 X2.7964 Y-16.3338
G01 X2.7821 Y-16.3331
G01 X2.7675 Y-16.3317
G01 X2.7503 Y-16.3289
G01 X2.6600 Y-16.3110
G01 X3.1616 Y-16.7169
G01 X3.1616 Y-15.9631
G01 X3.1586 Y-15.9711
G01 X3.1552 Y-15.9787
G01 X3.1478 Y-15.9923
G01 X3.0901 Y-16.0787
G01 X3.0830 Y-16.0880
G01 X3.0749 Y-16.0969
G01 X3.0663 Y-16.1049
G01 X3.0568 Y-16.1123
G01 X2.9704 Y-16.1701
G01 X2.9603 Y-16.1760
G01 X2.9480 Y-16.1817
G01 X2.9367 Y-16.1858
G01 X2.9254 Y-16.1888
G01 X2.8201 Y-16.2095
G01 X2.8081 Y-16.2107
G01 X2.7979 Y-16.2109
G01 X2.7877 Y-16.2103
G01 X2.7762 Y-16.2087
G01 X2.6742 Y-16.1884
G01 X2.6612 Y-16.1847
G01 X2.6468 Y-16.1790
G01 X2.6378 Y-16.1744
G01 X2.6291 Y-16.1691
G01 X2.5477 Y-16.1147
G01 X2.5374 Y-16.1071
G01 X2.5262 Y-16.0970
G01 X2.5171 Y-16.0869
G01 X2.5110 Y-16.0787
G01 X2.4971 Y-16.0579
G01 X2.5191 Y-16.1465
G01 X2.5327 Y-16.2364
G01 X2.5340 Y-16.2499
G01 X2.5383 Y-16.3392
G01 X2.5340 Y-16.4301
G01 X2.5327 Y-16.4436
G01 X2.5191 Y-16.5335
G01 X2.4971 Y-16.6221
G01 X2.5110 Y-16.6013
G01 X2.5171 Y-16.5931
G01 X2.5262 Y-16.5830
G01 X2.5373 Y-16.5729
G01 X2.5477 Y-16.5653
G01 X2.6291 Y-16.5109
G01 X2.6378 Y-16.5056
G01 X2.6468 Y-16.5010
G01 X2.6612 Y-16.4953
G01 X2.6742 Y-16.4916
G01 X2.7761 Y-16.4713
G01 X2.7877 Y-16.4697
G01 X2.7979 Y-16.4691
G01 X2.8081 Y-16.4693
G01 X2.8201 Y-16.4705
G01 X2.8275 Y-16.4717
G01 X2.9228 Y-16.4907
G01 X2.9254 Y-16.4912
G01 X2.9367 Y-16.4942
G01 X2.9480 Y-16.4983
G01 X2.9603 Y-16.5040
G01 X2.9704 Y-16.5099
G01 X3.0568 Y-16.5677
G01 X3.0663 Y-16.5751
G01 X3.0749 Y-16.5830
G01 X3.0830 Y-16.5920
G01 X3.0900 Y-16.6013
G01 X3.1478 Y-16.6877
G01 X3.1552 Y-16.7013
G01 X3.1586 Y-16.7088
G01 X3.1616 Y-16.7169
G00 Z2.0000
G00 X2.0866 Y-17.2155
G01 F25.00
G01 Z-0.1000
G01 F120.00
G01 X1.9430 Y-17.2887
G01 X1.9060 Y-17.3008
G01 X1.8973 Y-17.3044
G01 X1.8044 Y-17.3566
G01 X1.7954 Y-17.3635
G01 X1.7876 Y-17.3716
G01 X1.7263 Y-17.4494
G01 X1.7199 Y-17.4588
G01 X1.7165 Y-17.4655
G01 X1.7132 Y-17.4743
G01 X1.6858 Y-17.5714
G01 X1.6846 Y-17.5770
G01 X1.6836 Y-17.5844
G01 X1.6834 Y-17.5920
G01 X1.6837 Y-17.5976
G01 X1.6956 Y-17.6978
G01 X1.6966 Y-17.7034
G01 X1.6986 Y-17.7107
G01 X1.7005 Y-17.7160
G01 X1.7037 Y-17.7228
G01 X1.7530 Y-17.8109
G01 X1.7572 Y-17.8172
G01 X1.7607 Y-17.8216
G01 X1.7659 Y-17.8271
G01 X1.7701 Y-17.8308
G01 X1.8479 Y-17.8922
G01 X1.8541 Y-17.8966
G01 X1.8642 Y-17.9021
G01 X1.9040 Y-17.9185
G01 X1.9430 Y-17.9313
G01 X2.0866 Y-18.0045
G01 X2.2169 Y-18.0992
G01 X2.3309 Y-18.2131
G01 X2.4256 Y-18.3435
G01 X2.5019 Y-18.4935
G01 X2.5087 Y-18.5061
G01 X2.5129 Y-18.5123
G01 X2.5175 Y-18.5179
G01 X2.5628 Y-18.5855
G01 X2.5676 Y-18.5913
G01 X2.5715 Y-18.5954
G01 X2.5802 Y-18.6025
G01 X2.6642 Y-18.6586
G01 X2.6707 Y-18.6623
G01 X2.6759 Y-18.6647
G01 X2.6830 Y-18.6672
G01 X2.6903 Y-18.6690
G01 X2.7893 Y-18.6886
G01 X2.8005 Y-18.6895
G01 X2.8081 Y-18.6891
G01 X2.8137 Y-18.6883
G01 X2.9108 Y-18.6690
G01 X2.9163 Y-18.6677
G01 X2.9235 Y-18.6654
G01 X2.9287 Y-18.6631
G01 X2.9353 Y-18.6596
G01 X3.0193 Y-18.6036
G01 X3.0253 Y-18.5991
G01 X3.0309 Y-18.5940
G01 X3.0360 Y-18.5884
G01 X3.0394 Y-18.5839
G01 X3.0944 Y-18.5016
G01 X3.0974 Y-18.4968
G01 X3.1008 Y-18.4901
G01 X3.1035 Y-18.4830
G01 X3.1051 Y-18.4776
G01 X3.1248 Y-18.3786
G01 X3.1261 Y-18.3693
G01 X3.1263 Y-16.8544
G01 X3.1260 Y-16.8488
G01 X3.1248 Y-16.8413
G01 X3.1055 Y-16.7442
G01 X3.1035 Y-16.7370
G01 X3.1015 Y-16.7317
G01 X3.0964 Y-16.7216
G01 X3.0394 Y-16.6360
G01 X3.0347 Y-16.6301
G01 X3.0296 Y-16.6246
G01 X3.0253 Y-16.6209
G01 X3.0193 Y-16.6164
G01 X2.9385 Y-16.5624
G01 X2.9320 Y-16.5586
G01 X2.9235 Y-16.5546
G01 X2.9181 Y-16.5528
G01 X2.9108 Y-16.5510
G01 X2.8155 Y-16.5320
G01 X2.8081 Y-16.5309
G01 X2.8005 Y-16.5305
G01 X2.7949 Y-16.5307
G01 X2.7874 Y-16.5317
G01 X2.6903 Y-16.5510
G01 X2.6811 Y-16.5534
G01 X2.6707 Y-16.5577
G01 X2.6626 Y-16.5624
G01 X2.5802 Y-16.6175
G01 X2.5757 Y-16.6209
G01 X2.5701 Y-16.6260
G01 X2.5628 Y-16.6345
G01 X2.5175 Y-16.7021
G01 X2.5118 Y-16.7092
G01 X2.5077 Y-16.7155
G01 X2.4256 Y-16.8765
G01 X2.3309 Y-17.0069
G01 X2.2169 Y-17.1208
G01 X2.0866 Y-17.2155
G00 Z2.0000
G00 X1.5463 Y-17.2667
G01 F25.00
G01 Z-0.1000
G01 F120.00
G01 X1.5538 Y-17.2667
G01 X1.6409 Y-17.2623
G01 X1.7308 Y-17.2490
G01 X1.8191 Y-17.2269
G01 X1.9047 Y-17.1963
G01 X1.9869 Y-17.1574
G01 X2.0649 Y-17.1106
G01 X2.1380 Y-17.0564
G01 X2.2054 Y-16.9953
G01 X2.2665 Y-16.9280
G01 X2.3206 Y-16.8549
G01 X2.3674 Y-16.7769
G01 X2.4063 Y-16.6947
G01 X2.4369 Y-16.6090
G01 X2.4590 Y-16.5208
G01 X2.4724 Y-16.4308
G01 X2.4768 Y-16.3400
G01 X2.4724 Y-16.2492
G01 X2.4590 Y-16.1592
G01 X2.4369 Y-16.0710
G01 X2.4063 Y-15.9853
G01 X2.3674 Y-15.9031
G01 X2.3206 Y-15.8251
G01 X2.2665 Y-15.7520
G01 X2.2054 Y-15.6847
G01 X2.1380 Y-15.6236
G01 X2.0649 Y-15.5694
G01 X1.9869 Y-15.5226
G01 X1.9047 Y-15.4837
G01 X1.8191 Y-15.4531
G01 X1.7308 Y-15.4310
G01 X1.6409 Y-15.4177
G01 X1.5500 Y-15.4132
G01 X1.4592 Y-15.4177
G01 X1.3692 Y-15.4310
G01 X1.2810 Y-15.4531
G01 X1.1989 Y-15.4824
G01 X1.1919 Y-15.4853
G01 X1.1131 Y-15.5226
G01 X1.0383 Y-15.5674
G01 X1.0320 Y-15.5716
G01 X0.9650 Y-15.6213
G01 X0.9592 Y-15.6260
G01 X0.8947 Y-15.6847
G01 X0.8336 Y-15.7520
G01 X0.7794 Y-15.8251
G01 X0.7327 Y-15.9031
G01 X0.6938 Y-15.9853
G01 X0.6631 Y-16.0710
G01 X0.6410 Y-16.1592
G01 X0.6277 Y-16.2492
G01 X0.6232 Y-16.3400
G01 X0.6277 Y-16.4308
G01 X0.6410 Y-16.5208
G01 X0.6631 Y-16.6090
G01 X0.6938 Y-16.6947
G01 X0.7327 Y-16.7769
G01 X0.7794 Y-16.8549
G01 X0.8313 Y-16.9250
G01 X0.8361 Y-16.9308
G01 X0.8947 Y-16.9953
G01 X0.9621 Y-17.0564
G01 X1.0351 Y-17.1106
G01 X1.1099 Y-17.1555
G01 X1.1165 Y-17.1591
G01 X1.1954 Y-17.1963
G01 X1.2774 Y-17.2257
G01 X1.2846 Y-17.2279
G01 X1.3692 Y-17.2490
G01 X1.4554 Y-17.2619
G01 X1.4629 Y-17.2626
G01 X1.5463 Y-17.2667
G01 X1.4798 Y-17.8335
G01 X1.4884 Y-17.8194
G01 X1.4950 Y-17.8062
G01 X1.5006 Y-17.7927
G01 X1.5053 Y-17.7783
G01 X1.5320 Y-17.6837
G01 X1.5346 Y-17.6735
G01 X1.5370 Y-17.6613
G01 X1.5384 Y-17.6508
G01 X1.5393 Y-17.6388
G01 X1.5395 Y-17.6271
G01 X1.5383 Y-17.6076
G01 X1.5266 Y-17.5085
G01 X1.5243 Y-17.4943
G01 X1.5213 Y-17.4815
G01 X1.5209 Y-17.4800
G01 X1.5207 Y-17.4793
G01 X1.5200 Y-17.4768
G01 X1.5186 Y-17.4721
G01 X1.5153 Y-17.4628
G01 X1.5079 Y-17.4455
G01 X1.5028 Y-17.4358
G01 X1.4751 Y-17.3862
G01 X1.5402 Y-17.3894
G01 X1.5493 Y-17.3897
G01 X1.6203 Y-17.3865
G01 X1.6117 Y-17.4006
G01 X1.6051 Y-17.4138
G01 X1.5994 Y-17.4274
G01 X1.5947 Y-17.4417
G01 X1.5680 Y-17.5363
G01 X1.5654 Y-17.5465
G01 X1.5631 Y-17.5587
G01 X1.5617 Y-17.5692
G01 X1.5607 Y-17.5812
G01 X1.5605 Y-17.5929
G01 X1.5617 Y-17.6124
G01 X1.5735 Y-17.7115
G01 X1.5757 Y-17.7257
G01 X1.5787 Y-17.7385
G01 X1.5847 Y-17.7572
G01 X1.5922 Y-17.7745
G01 X1.5972 Y-17.7842
G01 X1.6250 Y-17.8338
G01 X1.5508 Y-17.8303
G01 X1.4798 Y-17.8335
G01 X1.3217 Y-17.9195
G01 X1.3317 Y-17.9132
G01 X1.3411 Y-17.9062
G01 X1.3501 Y-17.8981
G01 X1.3580 Y-17.8896
G01 X1.4236 Y-17.8065
G01 X1.4303 Y-17.7969
G01 X1.4354 Y-17.7881
G01 X1.4412 Y-17.7759
G01 X1.4458 Y-17.7631
G01 X1.4736 Y-17.6645
G01 X1.4754 Y-17.6564
G01 X1.4770 Y-17.6464
G01 X1.4778 Y-17.6378
G01 X1.4781 Y-17.6276
G01 X1.4771 Y-17.6133
G01 X1.4649 Y-17.5108
G01 X1.4629 Y-17.5009
G01 X1.4601 Y-17.4911
G01 X1.4561 Y-17.4801
G01 X1.4519 Y-17.4708
G01 X1.4003 Y-17.3785
G01 X1.3948 Y-17.3699
G01 X1.3887 Y-17.3617
G01 X1.3797 Y-17.3516
G01 X1.3698 Y-17.3423
G01 X1.3145 Y-17.2987
G01 X1.3513 Y-17.3079
G01 X1.3598 Y-17.3097
G01 X1.4490 Y-17.3230
G01 X1.4599 Y-17.3240
G01 X1.5432 Y-17.3281
G01 X1.5493 Y-17.3282
G01 X1.6401 Y-17.3240
G01 X1.6495 Y-17.3232
G01 X1.7402 Y-17.3097
G01 X1.7783 Y-17.3005
G01 X1.7683 Y-17.3068
G01 X1.7590 Y-17.3138
G01 X1.7500 Y-17.3219
G01 X1.7420 Y-17.3304
G01 X1.6764 Y-17.4135
G01 X1.6706 Y-17.4218
G01 X1.6646 Y-17.4319
G01 X1.6588 Y-17.4441
G01 X1.6543 Y-17.4569
G01 X1.6265 Y-17.5555
G01 X1.6246 Y-17.5636
G01 X1.6230 Y-17.5736
G01 X1.6222 Y-17.5823
G01 X1.6220 Y-17.5924
G01 X1.6229 Y-17.6067
G01 X1.6352 Y-17.7092
G01 X1.6372 Y-17.7191
G01 X1.6399 Y-17.7289
G01 X1.6439 Y-17.7399
G01 X1.6482 Y-17.7492
G01 X1.6998 Y-17.8415
G01 X1.7053 Y-17.8501
G01 X1.7113 Y-17.8583
G01 X1.7203 Y-17.8684
G01 X1.7303 Y-17.8777
G01 X1.7855 Y-17.9213
G01 X1.7487 Y-17.9121
G01 X1.7402 Y-17.9103
G01 X1.6510 Y-17.8970
G01 X1.6401 Y-17.8960
G01 X1.5508 Y-17.8918
G01 X1.4599 Y-17.8960
G01 X1.4505 Y-17.8968
G01 X1.3598 Y-17.9103
G01 X1.3217 Y-17.9195
G00 Z2.0000
G00 X2.6600 Y-18.8510
G01 F25.00
G01 Z-0.1000
G01 F120.00
G01 X2.7496 Y-18.8688
G01 X2.7503 Y-18.8689
G01 X2.7675 Y-18.8717
G01 X2.7825 Y-18.8732
G01 X2.7983 Y-18.8738
G01 X2.8126 Y-18.8735
G01 X2.8273 Y-18.8724
G01 X2.8396 Y-18.8708
G01 X2.8513 Y-18.8688
G01 X2.9483 Y-18.8495
G01 X2.9673 Y-18.8449
G01 X2.9856 Y-18.8389
G01 X3.0037 Y-18.8315
G01 X3.0209 Y-18.8229
G01 X3.0386 Y-18.8123
G01 X3.0387 Y-18.9477
G01 X3.0209 Y-18.9371
G01 X3.0037 Y-18.9285
G01 X2.9856 Y-18.9211
G01 X2.9673 Y-18.9151
G01 X2.9482 Y-18.9105
G01 X2.8513 Y-18.8912
G01 X2.8396 Y-18.8892
G01 X2.8272 Y-18.8876
G01 X2.8126 Y-18.8865
G01 X2.7983 Y-18.8862
G01 X2.7824 Y-18.8868
G01 X2.7674 Y-18.8883
G01 X2.7503 Y-18.8911
G01 X2.7496 Y-18.8912
G01 X2.6600 Y-18.9090
G01 X2.6611 Y-18.8808
G01 X2.6600 Y-18.8510
G01 X2.5921 Y-18.7583
G01 X2.6082 Y-18.7682
G01 X2.6250 Y-18.7766
G01 X2.6419 Y-18.7831
G01 X2.6608 Y-18.7884
G01 X2.7616 Y-18.8085
G01 X2.7727 Y-18.8104
G01 X2.7851 Y-18.8117
G01 X2.7990 Y-18.8123
G01 X2.8119 Y-18.8120
G01 X2.8242 Y-18.8109
G01 X2.8391 Y-18.8086
G01 X2.9388 Y-18.7887
G01 X2.9552 Y-18.7843
G01 X2.9729 Y-18.7779
G01 X2.9886 Y-18.7705
G01 X3.0033 Y-18.7620
G01 X3.0879 Y-18.7055
G01 X3.1001 Y-18.6966
G01 X3.1001 Y-19.0634
G01 X3.0878 Y-19.0544
G01 X3.0033 Y-18.9980
G01 X2.9886 Y-18.9895
G01 X2.9729 Y-18.9821
G01 X2.9552 Y-18.9756
G01 X2.9388 Y-18.9713
G01 X2.8391 Y-18.9514
G01 X2.8242 Y-18.9491
G01 X2.8118 Y-18.9480
G01 X2.8088 Y-18.9478
G01 X2.8069 Y-18.9478
G01 X2.8047 Y-18.9477
G01 X2.7990 Y-18.9477
G01 X2.7866 Y-18.9481
G01 X2.7727 Y-18.9496
G01 X2.7616 Y-18.9515
G01 X2.6608 Y-18.9716
G01 X2.6419 Y-18.9769
G01 X2.6250 Y-18.9834
G01 X2.6081 Y-18.9918
G01 X2.5921 Y-19.0017
G01 X2.5942 Y-18.9870
G01 X2.5952 Y-18.9765
G01 X2.5995 Y-18.8898
G01 X2.5997 Y-18.8792
G01 X2.5952 Y-18.7835
G01 X2.5942 Y-18.7730
G01 X2.5921 Y-18.7583
G01 X3.1616 Y-19.2569
G01 X3.1586 Y-19.2488
G01 X3.1552 Y-19.2413
G01 X3.1478 Y-19.2277
G01 X3.0900 Y-19.1413
G01 X3.0830 Y-19.1320
G01 X3.0749 Y-19.1230
G01 X3.0663 Y-19.1151
G01 X3.0568 Y-19.1077
G01 X2.9704 Y-19.0499
G01 X2.9603 Y-19.0440
G01 X2.9480 Y-19.0383
G01 X2.9367 Y-19.0342
G01 X2.9254 Y-19.0312
G01 X2.9228 Y-19.0307
G01 X2.8275 Y-19.0117
G01 X2.8201 Y-19.0105
G01 X2.8099 Y-19.0094
G01 X2.7979 Y-19.0091
G01 X2.7862 Y-19.0098
G01 X2.7761 Y-19.0113
G01 X2.6742 Y-19.0316
G01 X2.6612 Y-19.0353
G01 X2.6468 Y-19.0410
G01 X2.6378 Y-19.0456
G01 X2.6291 Y-19.0509
G01 X2.5477 Y-19.1053
G01 X2.5373 Y-19.1129
G01 X2.5262 Y-19.1230
G01 X2.5171 Y-19.1331
G01 X2.5110 Y-19.1413
G01 X2.4971 Y-19.1621
G01 X2.5191 Y-19.0735
G01 X2.5327 Y-18.9836
G01 X2.5340 Y-18.9701
G01 X2.5383 Y-18.8792
G01 X2.5340 Y-18.7899
G01 X2.5327 Y-18.7764
G01 X2.5191 Y-18.6865
G01 X2.4971 Y-18.5979
G01 X2.5110 Y-18.6187
G01 X2.5171 Y-18.6269
G01 X2.5262 Y-18.6370
G01 X2.5374 Y-18.6471
G01 X2.5477 Y-18.6547
G01 X2.6291 Y-18.7091
G01 X2.6378 Y-18.7144
G01 X2.6468 Y-18.7190
G01 X2.6594 Y-18.7241
G01 X2.6742 Y-18.7284
G01 X2.7762 Y-18.7487
G01 X2.7862 Y-18.7502
G01 X2.7979 Y-18.7509
G01 X2.8081 Y-18.7507
G01 X2.8201 Y-18.7495
G01 X2.9254 Y-18.7288
G01 X2.9367 Y-18.7258
G01 X2.9480 Y-18.7217
G01 X2.9603 Y-18.7160
G01 X2.9704 Y-18.7101
G01 X3.0568 Y-18.6523
G01 X3.0663 Y-18.6449
G01 X3.0749 Y-18.6369
G01 X3.0830 Y-18.6280
G01 X3.0901 Y-18.6187
G01 X3.1478 Y-18.5323
G01 X3.1552 Y-18.5187
G01 X3.1586 Y-18.5111
G01 X3.1616 Y-18.5031
G01 X3.1616 Y-19.2569
G00 Z2.0000
G00 X4.3385 Y-20.0862
G01 F25.00
G01 Z-0.1000
G01 F120.00
G01 X4.3421 Y-20.0956
G01 X4.3456 Y-20.1034
G01 X4.3385 Y-20.0962
G01 X4.3385 Y-20.0862
G00 Z2.0000
G00 X1.7783 Y-19.8405
G01 F25.00
G01 Z-0.1000
G01 F120.00
G01 X1.7402 Y-19.8497
G01 X1.6495 Y-19.8632
G01 X1.6401 Y-19.8640
G01 X1.5493 Y-19.8682
G01 X1.5432 Y-19.8681
G01 X1.4599 Y-19.8640
G01 X1.4490 Y-19.8630
G01 X1.3598 Y-19.8497
G01 X1.3513 Y-19.8479
G01 X1.3145 Y-19.8387
G01 X1.3698 Y-19.8823
G01 X1.3797 Y-19.8916
G01 X1.3887 Y-19.9017
G01 X1.3948 Y-19.9099
G01 X1.4003 Y-19.9185
G01 X1.4519 Y-20.0108
G01 X1.4567 Y-20.0215
G01 X1.4601 Y-20.0311
G01 X1.4629 Y-20.0409
G01 X1.4649 Y-20.0508
G01 X1.4771 Y-20.1533
G01 X1.4781 Y-20.1676
G01 X1.4779 Y-20.1762
G01 X1.4770 Y-20.1864
G01 X1.4758 Y-20.1946
G01 X1.4736 Y-20.2045
G01 X1.4458 Y-20.3031
G01 X1.4412 Y-20.3159
G01 X1.4354 Y-20.3281
G01 X1.4303 Y-20.3369
G01 X1.4236 Y-20.3465
G01 X1.3580 Y-20.4296
G01 X1.3501 Y-20.4381
G01 X1.3411 Y-20.4462
G01 X1.3317 Y-20.4532
G01 X1.3217 Y-20.4595
G01 X1.3598 Y-20.4503
G01 X1.4505 Y-20.4368
G01 X1.4599 Y-20.4360
G01 X1.5508 Y-20.4318
G01 X1.6401 Y-20.4360
G01 X1.6510 Y-20.4370
G01 X1.7402 Y-20.4503
G01 X1.7487 Y-20.4521
G01 X1.7855 Y-20.4613
G01 X1.7303 Y-20.4177
G01 X1.7203 Y-20.4084
G01 X1.7113 Y-20.3983
G01 X1.7053 Y-20.3901
G01 X1.6998 Y-20.3815
G01 X1.6482 Y-20.2892
G01 X1.6439 Y-20.2799
G01 X1.6404 Y-20.2704
G01 X1.6372 Y-20.2591
G01 X1.6352 Y-20.2492
G01 X1.6229 Y-20.1467
G01 X1.6220 Y-20.1324
G01 X1.6221 Y-20.1238
G01 X1.6230 Y-20.1136
G01 X1.6243 Y-20.1054
G01 X1.6265 Y-20.0955
G01 X1.6543 Y-19.9969
G01 X1.6588 Y-19.9841
G01 X1.6646 Y-19.9719
G01 X1.6706 Y-19.9618
G01 X1.6764 Y-19.9535
G01 X1.7420 Y-19.8704
G01 X1.7500 Y-19.8619
G01 X1.7590 Y-19.8538
G01 X1.7683 Y-19.8468
G01 X1.7783 Y-19.8405
G01 X1.5463 Y-19.8067
G01 X1.4629 Y-19.8026
G01 X1.4554 Y-19.8019
G01 X1.3692 Y-19.7890
G01 X1.2846 Y-19.7679
G01 X1.2774 Y-19.7657
G01 X1.1989 Y-19.7376
G01 X1.1919 Y-19.7347
G01 X1.1131 Y-19.6974
G01 X1.0351 Y-19.6506
G01 X0.9621 Y-19.5964
G01 X0.8947 Y-19.5353
G01 X0.8336 Y-19.4680
G01 X0.7794 Y-19.3949
G01 X0.7327 Y-19.3169
G01 X0.6938 Y-19.2347
G01 X0.6631 Y-19.1490
G01 X0.6414 Y-19.0627
G01 X0.6277 Y-18.9708
G01 X0.6232 Y-18.8800
G01 X0.6277 Y-18.7892
G01 X0.6410 Y-18.6992
G01 X0.6631 Y-18.6110
G01 X0.6938 Y-18.5253
G01 X0.7327 Y-18.4431
G01 X0.7794 Y-18.3651
G01 X0.8336 Y-18.2920
G01 X0.8947 Y-18.2247
G01 X0.9621 Y-18.1636
G01 X1.0351 Y-18.1094
G01 X1.1131 Y-18.0626
G01 X1.1954 Y-18.0237
G01 X1.2810 Y-17.9931
G01 X1.3674 Y-17.9714
G01 X1.4592 Y-17.9577
G01 X1.5500 Y-17.9532
G01 X1.6409 Y-17.9577
G01 X1.7271 Y-17.9704
G01 X1.7345 Y-17.9718
G01 X1.8154 Y-17.9921
G01 X1.8226 Y-17.9943
G01 X1.9047 Y-18.0237
G01 X1.9835 Y-18.0609
G01 X1.9902 Y-18.0645
G01 X2.0649 Y-18.1094
G01 X2.1350 Y-18.1613
G01 X2.1408 Y-18.1660
G01 X2.2054 Y-18.2247
G01 X2.2665 Y-18.2920
G01 X2.3206 Y-18.3651
G01 X2.3674 Y-18.4431
G01 X2.4063 Y-18.5253
G01 X2.4369 Y-18.6110
G01 X2.4590 Y-18.6992
G01 X2.4719 Y-18.7854
G01 X2.4726 Y-18.7929
G01 X2.4768 Y-18.8800
G01 X2.4724 Y-18.9708
G01 X2.4590 Y-19.0608
G01 X2.4369 Y-19.1490
G01 X2.4063 Y-19.2347
G01 X2.3674 Y-19.3169
G01 X2.3206 Y-19.3949
G01 X2.2652 Y-19.4694
G01 X2.2054 Y-19.5353
G01 X2.1408 Y-19.5940
G01 X2.1350 Y-19.5987
G01 X2.0680 Y-19.6484
G01 X2.0617 Y-19.6526
G01 X1.9869 Y-19.6974
G01 X1.9081 Y-19.7347
G01 X1.9012 Y-19.7376
G01 X1.8191 Y-19.7669
G01 X1.7308 Y-19.7890
G01 X1.6409 Y-19.8023
G01 X1.5538 Y-19.8067
G01 X1.5463 Y-19.8067
G01 X1.4751 Y-19.9262
G01 X1.5028 Y-19.9758
G01 X1.5079 Y-19.9855
G01 X1.5153 Y-20.0028
G01 X1.5213 Y-20.0215
G01 X1.5243 Y-20.0343
G01 X1.5266 Y-20.0485
G01 X1.5383 Y-20.1476
G01 X1.5395 Y-20.1671
G01 X1.5393 Y-20.1788
G01 X1.5384 Y-20.1908
G01 X1.5370 Y-20.2013
G01 X1.5346 Y-20.2135
G01 X1.5320 Y-20.2237
G01 X1.5053 Y-20.3183
G01 X1.5006 Y-20.3327
G01 X1.4950 Y-20.3462
G01 X1.4884 Y-20.3594
G01 X1.4798 Y-20.3735
G01 X1.5508 Y-20.3703
G01 X1.6250 Y-20.3738
G01 X1.5972 Y-20.3242
G01 X1.5922 Y-20.3145
G01 X1.5847 Y-20.2972
G01 X1.5787 Y-20.2785
G01 X1.5757 Y-20.2657
G01 X1.5735 Y-20.2515
G01 X1.5617 Y-20.1524
G01 X1.5605 Y-20.1329
G01 X1.5607 Y-20.1212
G01 X1.5617 Y-20.1092
G01 X1.5634 Y-20.0968
G01 X1.5654 Y-20.0865
G01 X1.5680 Y-20.0763
G01 X1.5947 Y-19.9817
G01 X1.5994 Y-19.9674
G01 X1.6051 Y-19.9538
G01 X1.6117 Y-19.9406
G01 X1.6203 Y-19.9265
G01 X1.5493 Y-19.9297
G01 X1.4751 Y-19.9262
G00 Z2.0000
G00 X1.7783 Y-22.3805
G01 F25.00
G01 Z-0.1000
G01 F120.00
G01 X1.7402 Y-22.3897
G01 X1.6495 Y-22.4032
G01 X1.6401 Y-22.4040
G01 X1.5493 Y-22.4082
G01 X1.5432 Y-22.4081
G01 X1.4599 Y-22.4040
G01 X1.4490 Y-22.4030
G01 X1.3598 Y-22.3897
G01 X1.3513 Y-22.3879
G01 X1.3145 Y-22.3787
G01 X1.3698 Y-22.4223
G01 X1.3797 Y-22.4316
G01 X1.3887 Y-22.4417
G01 X1.3948 Y-22.4499
G01 X1.4003 Y-22.4585
G01 X1.4519 Y-22.5508
G01 X1.4561 Y-22.5601
G01 X1.4601 Y-22.5711
G01 X1.4629 Y-22.5809
G01 X1.4649 Y-22.5908
G01 X1.4771 Y-22.6933
G01 X1.4781 Y-22.7076
G01 X1.4779 Y-22.7162
G01 X1.4770 Y-22.7264
G01 X1.4758 Y-22.7346
G01 X1.4736 Y-22.7445
G01 X1.4458 Y-22.8431
G01 X1.4412 Y-22.8559
G01 X1.4354 Y-22.8681
G01 X1.4303 Y-22.8769
G01 X1.4236 Y-22.8865
G01 X1.3580 Y-22.9696
G01 X1.3501 Y-22.9781
G01 X1.3411 Y-22.9862
G01 X1.3317 Y-22.9932
G01 X1.3217 Y-22.9995
G01 X1.3598 Y-22.9903
G01 X1.4505 Y-22.9768
G01 X1.4599 Y-22.9760
G01 X1.5508 Y-22.9718
G01 X1.6401 Y-22.9760
G01 X1.6510 Y-22.9770
G01 X1.7402 Y-22.9903
G01 X1.7487 Y-22.9921
G01 X1.7855 Y-23.0013
G01 X1.7303 Y-22.9577
G01 X1.7203 Y-22.9484
G01 X1.7113 Y-22.9383
G01 X1.7053 Y-22.9301
G01 X1.6998 Y-22.9215
G01 X1.6482 Y-22.8292
G01 X1.6439 Y-22.8199
G01 X1.6404 Y-22.8104
G01 X1.6372 Y-22.7991
G01 X1.6352 Y-22.7892
G01 X1.6229 Y-22.6867
G01 X1.6220 Y-22.6724
G01 X1.6221 Y-22.6638
G01 X1.6230 Y-22.6536
G01 X1.6243 Y-22.6454
G01 X1.6265 Y-22.6355
G01 X1.6543 Y-22.5369
G01 X1.6588 Y-22.5241
G01 X1.6646 Y-22.5119
G01 X1.6706 Y-22.5018
G01 X1.6764 Y-22.4935
G01 X1.7420 Y-22.4104
G01 X1.7500 Y-22.4019
G01 X1.7590 Y-22.3938
G01 X1.7683 Y-22.3868
G01 X1.7783 Y-22.3805
G01 X1.5463 Y-22.3467
G01 X1.4629 Y-22.3426
G01 X1.4554 Y-22.3419
G01 X1.3692 Y-22.3290
G01 X1.2846 Y-22.3079
G01 X1.2774 Y-22.3057
G01 X1.1989 Y-22.2776
G01 X1.1919 Y-22.2747
G01 X1.1131 Y-22.2374
G01 X1.0351 Y-22.1906
G01 X0.9621 Y-22.1364
G01 X0.8947 Y-22.0753
G01 X0.8336 Y-22.0080
G01 X0.7794 Y-21.9349
G01 X0.7327 Y-21.8569
G01 X0.6938 Y-21.7747
G01 X0.6631 Y-21.6890
G01 X0.6414 Y-21.6027
G01 X0.6277 Y-21.5108
G01 X0.6232 Y-21.4200
G01 X0.6277 Y-21.3292
G01 X0.6410 Y-21.2392
G01 X0.6631 Y-21.1510
G01 X0.6938 Y-21.0653
G01 X0.7327 Y-20.9831
G01 X0.7794 Y-20.9051
G01 X0.8336 Y-20.8320
G01 X0.8947 Y-20.7647
G01 X0.9621 Y-20.7036
G01 X1.0351 Y-20.6494
G01 X1.1131 Y-20.6026
G01 X1.1954 Y-20.5637
G01 X1.2810 Y-20.5331
G01 X1.3674 Y-20.5114
G01 X1.4592 Y-20.4977
G01 X1.5500 Y-20.4932
G01 X1.6409 Y-20.4977
G01 X1.7271 Y-20.5104
G01 X1.7345 Y-20.5118
G01 X1.8154 Y-20.5321
G01 X1.8226 Y-20.5343
G01 X1.9047 Y-20.5637
G01 X1.9835 Y-20.6009
G01 X1.9902 Y-20.6045
G01 X2.0649 Y-20.6494
G01 X2.1350 Y-20.7013
G01 X2.1408 Y-20.7060
G01 X2.2054 Y-20.7647
G01 X2.2665 Y-20.8320
G01 X2.3206 Y-20.9051
G01 X2.3674 Y-20.9831
G01 X2.4063 Y-21.0653
G01 X2.4369 Y-21.1510
G01 X2.4590 Y-21.2392
G01 X2.4719 Y-21.3254
G01 X2.4726 Y-21.3329
G01 X2.4768 Y-21.4200
G01 X2.4724 Y-21.5108
G01 X2.4590 Y-21.6008
G01 X2.4369 Y-21.6890
G01 X2.4063 Y-21.7747
G01 X2.3674 Y-21.8569
G01 X2.3206 Y-21.9349
G01 X2.2652 Y-22.0094
G01 X2.2054 Y-22.0753
G01 X2.1408 Y-22.1340
G01 X2.1350 Y-22.1387
G01 X2.0680 Y-22.1884
G01 X2.0617 Y-22.1926
G01 X1.9869 Y-22.2374
G01 X1.9081 Y-22.2747
G01 X1.9012 Y-22.2776
G01 X1.8191 Y-22.3069
G01 X1.7308 Y-22.3290
G01 X1.6409 Y-22.3423
G01 X1.5538 Y-22.3467
G01 X1.5463 Y-22.3467
G01 X1.4751 Y-22.4662
G01 X1.5028 Y-22.5158
G01 X1.5079 Y-22.5255
G01 X1.5153 Y-22.5428
G01 X1.5213 Y-22.5615
G01 X1.5243 Y-22.5743
G01 X1.5266 Y-22.5885
G01 X1.5383 Y-22.6876
G01 X1.5395 Y-22.7071
G01 X1.5393 Y-22.7188
G01 X1.5384 Y-22.7308
G01 X1.5367 Y-22.7432
G01 X1.5346 Y-22.7535
G01 X1.5320 Y-22.7637
G01 X1.5053 Y-22.8583
G01 X1.5006 Y-22.8727
G01 X1.4950 Y-22.8862
G01 X1.4884 Y-22.8994
G01 X1.4798 Y-22.9135
G01 X1.5508 Y-22.9103
G01 X1.6250 Y-22.9138
G01 X1.5972 Y-22.8642
G01 X1.5922 Y-22.8545
G01 X1.5847 Y-22.8372
G01 X1.5787 Y-22.8185
G01 X1.5757 Y-22.8057
G01 X1.5735 Y-22.7915
G01 X1.5617 Y-22.6924
G01 X1.5605 Y-22.6729
G01 X1.5607 Y-22.6612
G01 X1.5617 Y-22.6492
G01 X1.5634 Y-22.6368
G01 X1.5654 Y-22.6265
G01 X1.5680 Y-22.6163
G01 X1.5947 Y-22.5217
G01 X1.5994 Y-22.5074
G01 X1.6051 Y-22.4938
G01 X1.6117 Y-22.4806
G01 X1.6203 Y-22.4665
G01 X1.5493 Y-22.4697
G01 X1.4751 Y-22.4662
G00 Z2.0000
G00 X1.7783 Y-24.9205
G01 F25.00
G01 Z-0.1000
G01 F120.00
G01 X1.7402 Y-24.9297
G01 X1.6495 Y-24.9432
G01 X1.6401 Y-24.9440
G01 X1.5493 Y-24.9482
G01 X1.5432 Y-24.9481
G01 X1.4599 Y-24.9440
G01 X1.4490 Y-24.9430
G01 X1.3598 Y-24.9297
G01 X1.3513 Y-24.9279
G01 X1.3145 Y-24.9187
G01 X1.3698 Y-24.9623
G01 X1.3797 Y-24.9716
G01 X1.3887 Y-24.9817
G01 X1.3948 Y-24.9899
G01 X1.4003 Y-24.9985
G01 X1.4519 Y-25.0908
G01 X1.4561 Y-25.1001
G01 X1.4597 Y-25.1096
G01 X1.4629 Y-25.1209
G01 X1.4649 Y-25.1308
G01 X1.4771 Y-25.2333
G01 X1.4781 Y-25.2476
G01 X1.4778 Y-25.2578
G01 X1.4770 Y-25.2664
G01 X1.4754 Y-25.2764
G01 X1.4736 Y-25.2845
G01 X1.4458 Y-25.3831
G01 X1.4412 Y-25.3959
G01 X1.4354 Y-25.4081
G01 X1.4303 Y-25.4169
G01 X1.4236 Y-25.4265
G01 X1.3580 Y-25.5096
G01 X1.3501 Y-25.5181
G01 X1.3411 Y-25.5262
G01 X1.3317 Y-25.5332
G01 X1.3217 Y-25.5395
G01 X1.3598 Y-25.5303
G01 X1.4505 Y-25.5168
G01 X1.4599 Y-25.5160
G01 X1.5508 Y-25.5118
G01 X1.6401 Y-25.5160
G01 X1.6510 Y-25.5170
G01 X1.7402 Y-25.5303
G01 X1.7487 Y-25.5321
G01 X1.7855 Y-25.5413
G01 X1.7303 Y-25.4977
G01 X1.7203 Y-25.4884
G01 X1.7113 Y-25.4783
G01 X1.7053 Y-25.4701
G01 X1.6998 Y-25.4615
G01 X1.6482 Y-25.3692
G01 X1.6439 Y-25.3599
G01 X1.6399 Y-25.3489
G01 X1.6372 Y-25.3391
G01 X1.6352 Y-25.3292
G01 X1.6229 Y-25.2267
G01 X1.6220 Y-25.2124
G01 X1.6222 Y-25.2023
G01 X1.6230 Y-25.1936
G01 X1.6246 Y-25.1836
G01 X1.6265 Y-25.1755
G01 X1.6543 Y-25.0769
G01 X1.6588 Y-25.0641
G01 X1.6646 Y-25.0519
G01 X1.6706 Y-25.0418
G01 X1.6764 Y-25.0335
G01 X1.7420 Y-24.9504
G01 X1.7500 Y-24.9419
G01 X1.7590 Y-24.9338
G01 X1.7683 Y-24.9268
G01 X1.7783 Y-24.9205
G01 X1.5463 Y-24.8867
G01 X1.4629 Y-24.8826
G01 X1.4554 Y-24.8819
G01 X1.3692 Y-24.8690
G01 X1.2846 Y-24.8479
G01 X1.2774 Y-24.8457
G01 X1.1989 Y-24.8176
G01 X1.1919 Y-24.8147
G01 X1.1131 Y-24.7774
G01 X1.0351 Y-24.7306
G01 X0.9621 Y-24.6764
G01 X0.8947 Y-24.6153
G01 X0.8336 Y-24.5480
G01 X0.7794 Y-24.4749
G01 X0.7327 Y-24.3969
G01 X0.6938 Y-24.3147
G01 X0.6631 Y-24.2290
G01 X0.6414 Y-24.1427
G01 X0.6277 Y-24.0508
G01 X0.6232 Y-23.9600
G01 X0.6277 Y-23.8692
G01 X0.6410 Y-23.7792
G01 X0.6631 Y-23.6910
G01 X0.6938 Y-23.6053
G01 X0.7327 Y-23.5231
G01 X0.7794 Y-23.4451
G01 X0.8336 Y-23.3720
G01 X0.8947 Y-23.3047
G01 X0.9621 Y-23.2436
G01 X1.0351 Y-23.1894
G01 X1.1131 Y-23.1426
G01 X1.1954 Y-23.1037
G01 X1.2810 Y-23.0731
G01 X1.3674 Y-23.0514
G01 X1.4592 Y-23.0377
G01 X1.5500 Y-23.0332
G01 X1.6409 Y-23.0377
G01 X1.7271 Y-23.0504
G01 X1.7345 Y-23.0518
G01 X1.8154 Y-23.0721
G01 X1.8226 Y-23.0743
G01 X1.9047 Y-23.1037
G01 X1.9835 Y-23.1409
G01 X1.9902 Y-23.1445
G01 X2.0649 Y-23.1894
G01 X2.1350 Y-23.2413
G01 X2.1408 Y-23.2460
G01 X2.2054 Y-23.3047
G01 X2.2665 Y-23.3720
G01 X2.3206 Y-23.4451
G01 X2.3674 Y-23.5231
G01 X2.4063 Y-23.6053
G01 X2.4369 Y-23.6910
G01 X2.4590 Y-23.7792
G01 X2.4719 Y-23.8654
G01 X2.4726 Y-23.8729
G01 X2.4768 Y-23.9600
G01 X2.4724 Y-24.0508
G01 X2.4590 Y-24.1408
G01 X2.4369 Y-24.2290
G01 X2.4063 Y-24.3147
G01 X2.3674 Y-24.3969
G01 X2.3206 Y-24.4749
G01 X2.2652 Y-24.5494
G01 X2.2054 Y-24.6153
G01 X2.1408 Y-24.6740
G01 X2.1350 Y-24.6787
G01 X2.0680 Y-24.7284
G01 X2.0617 Y-24.7326
G01 X1.9869 Y-24.7774
G01 X1.9081 Y-24.8147
G01 X1.9012 Y-24.8176
G01 X1.8191 Y-24.8469
G01 X1.7308 Y-24.8690
G01 X1.6409 Y-24.8823
G01 X1.5538 Y-24.8867
G01 X1.5463 Y-24.8867
G01 X1.4751 Y-25.0062
G01 X1.5028 Y-25.0558
G01 X1.5079 Y-25.0655
G01 X1.5153 Y-25.0828
G01 X1.5213 Y-25.1015
G01 X1.5243 Y-25.1143
G01 X1.5266 Y-25.1285
G01 X1.5383 Y-25.2276
G01 X1.5395 Y-25.2471
G01 X1.5393 Y-25.2588
G01 X1.5384 Y-25.2708
G01 X1.5367 Y-25.2832
G01 X1.5346 Y-25.2935
G01 X1.5320 Y-25.3037
G01 X1.5053 Y-25.3983
G01 X1.5006 Y-25.4127
G01 X1.4950 Y-25.4262
G01 X1.4884 Y-25.4394
G01 X1.4798 Y-25.4535
G01 X1.5508 Y-25.4503
G01 X1.6250 Y-25.4538
G01 X1.5972 Y-25.4042
G01 X1.5922 Y-25.3945
G01 X1.5847 Y-25.3772
G01 X1.5787 Y-25.3585
G01 X1.5757 Y-25.3457
G01 X1.5735 Y-25.3315
G01 X1.5617 Y-25.2324
G01 X1.5605 Y-25.2129
G01 X1.5607 Y-25.2012
G01 X1.5617 Y-25.1892
G01 X1.5631 Y-25.1787
G01 X1.5654 Y-25.1665
G01 X1.5680 Y-25.1563
G01 X1.5947 Y-25.0617
G01 X1.5994 Y-25.0474
G01 X1.6051 Y-25.0338
G01 X1.6117 Y-25.0206
G01 X1.6203 Y-25.0065
G01 X1.5493 Y-25.0097
G01 X1.4751 Y-25.0062
G00 Z2.0000
G00 X1.5463 Y-27.4267
G01 F25.00
G01 Z-0.1000
G01 F120.00
G01 X1.5538 Y-27.4267
G01 X1.6409 Y-27.4223
G01 X1.7308 Y-27.4090
G01 X1.8191 Y-27.3869
G01 X1.9047 Y-27.3563
G01 X1.9869 Y-27.3174
G01 X2.0649 Y-27.2706
G01 X2.1380 Y-27.2164
G01 X2.2054 Y-27.1553
G01 X2.2665 Y-27.0880
G01 X2.3206 Y-27.0149
G01 X2.3674 Y-26.9369
G01 X2.4063 Y-26.8547
G01 X2.4369 Y-26.7690
G01 X2.4590 Y-26.6808
G01 X2.4724 Y-26.5908
G01 X2.4768 Y-26.5000
G01 X2.4724 Y-26.4092
G01 X2.4590 Y-26.3192
G01 X2.4369 Y-26.2310
G01 X2.4063 Y-26.1453
G01 X2.3674 Y-26.0631
G01 X2.3206 Y-25.9851
G01 X2.2665 Y-25.9120
G01 X2.2054 Y-25.8447
G01 X2.1380 Y-25.7836
G01 X2.0649 Y-25.7294
G01 X1.9869 Y-25.6826
G01 X1.9047 Y-25.6437
G01 X1.8191 Y-25.6131
G01 X1.7308 Y-25.5910
G01 X1.6409 Y-25.5777
G01 X1.5500 Y-25.5732
G01 X1.4592 Y-25.5777
G01 X1.3692 Y-25.5910
G01 X1.2810 Y-25.6131
G01 X1.1954 Y-25.6437
G01 X1.1131 Y-25.6826
G01 X1.0351 Y-25.7294
G01 X0.9621 Y-25.7836
G01 X0.8947 Y-25.8447
G01 X0.8336 Y-25.9120
G01 X0.7794 Y-25.9851
G01 X0.7327 Y-26.0631
G01 X0.6938 Y-26.1453
G01 X0.6631 Y-26.2310
G01 X0.6410 Y-26.3192
G01 X0.6277 Y-26.4092
G01 X0.6232 Y-26.5000
G01 X0.6277 Y-26.5908
G01 X0.6410 Y-26.6808
G01 X0.6631 Y-26.7690
G01 X0.6938 Y-26.8547
G01 X0.7327 Y-26.9369
G01 X0.7794 Y-27.0149
G01 X0.8336 Y-27.0880
G01 X0.8947 Y-27.1553
G01 X0.9621 Y-27.2164
G01 X1.0351 Y-27.2706
G01 X1.1131 Y-27.3174
G01 X1.1954 Y-27.3563
G01 X1.2810 Y-27.3869
G01 X1.3692 Y-27.4090
G01 X1.4592 Y-27.4223
G01 X1.5463 Y-27.4267
G00 Z2.0000
G00 X8.7290 Y-26.1854
G01 F25.00
G01 Z-0.1000
G01 F120.00
G01 X8.7334 Y-26.1556
G01 X8.7144 Y-26.1366
G01 X8.7193 Y-26.1476
G01 X8.7231 Y-26.1586
G01 X8.7256 Y-26.1685
G01 X8.7290 Y-26.1854
G01 X8.7987 Y-26.1340
G01 X3.3774 Y-20.7127
G01 X3.3451 Y-20.6772
G01 X3.3403 Y-20.6714
G01 X3.3118 Y-20.6328
G01 X3.2852 Y-20.5884
G01 X3.2631 Y-20.5417
G01 X3.2469 Y-20.4966
G01 X3.2447 Y-20.4894
G01 X3.2331 Y-20.4428
G01 X3.2255 Y-20.3917
G01 X3.2230 Y-20.3400
G01 X3.2230 Y-12.6600
G01 X3.2255 Y-12.6083
G01 X3.2325 Y-12.5609
G01 X3.2340 Y-12.5535
G01 X3.2463 Y-12.5052
G01 X3.2618 Y-12.4618
G01 X3.2646 Y-12.4549
G01 X3.2852 Y-12.4116
G01 X3.3098 Y-12.3704
G01 X3.3140 Y-12.3641
G01 X3.3426 Y-12.3257
G01 X3.3774 Y-12.2873
G01 X6.9832 Y-8.6815
G01 X6.9832 Y-7.6500
G01 X6.9834 Y-7.6444
G01 X6.9844 Y-7.6369
G01 X6.9855 Y-7.6313
G01 X6.9877 Y-7.6241
G01 X6.9923 Y-7.6138
G01 X6.9983 Y-7.6043
G01 X7.0044 Y-7.5970
G01 X7.0128 Y-7.5895
G01 X7.0222 Y-7.5832
G01 X7.0306 Y-7.5790
G01 X7.0395 Y-7.5760
G01 X7.0506 Y-7.5738
G01 X7.0600 Y-7.5732
G01 X7.3830 Y-7.5732
G01 X7.3830 Y-6.9783
G01 X4.6317 Y-4.2270
G01 X-7.3317 Y-4.2270
G01 X-12.2383 Y-9.1337
G01 X-12.2738 Y-9.1659
G01 X-12.2796 Y-9.1707
G01 X-12.3182 Y-9.1992
G01 X-12.3609 Y-9.2249
G01 X-12.4093 Y-9.2479
G01 X-12.4580 Y-9.2653
G01 X-12.5082 Y-9.2779
G01 X-12.5574 Y-9.2853
G01 X-12.6110 Y-9.2880
G01 X-12.9187 Y-9.2880
G01 X-12.9348 Y-9.3094
G01 X-12.9960 Y-9.3767
G01 X-13.0620 Y-9.4364
G01 X-13.1367 Y-9.4916
G01 X-13.2131 Y-9.5374
G01 X-13.2953 Y-9.5763
G01 X-13.3809 Y-9.6069
G01 X-13.4710 Y-9.6293
G01 X-13.5591 Y-9.6423
G01 X-13.6500 Y-9.6468
G01 X-13.7408 Y-9.6423
G01 X-13.8271 Y-9.6296
G01 X-13.8345 Y-9.6282
G01 X-13.9154 Y-9.6079
G01 X-13.9226 Y-9.6057
G01 X-14.0046 Y-9.5763
G01 X-14.0869 Y-9.5374
G01 X-14.1649 Y-9.4906
G01 X-14.2350 Y-9.4387
G01 X-14.2408 Y-9.4340
G01 X-14.3053 Y-9.3753
G01 X-14.3639 Y-9.3108
G01 X-14.3687 Y-9.3050
G01 X-14.4184 Y-9.2380
G01 X-14.4226 Y-9.2317
G01 X-14.4673 Y-9.1569
G01 X-14.5062 Y-9.0747
G01 X-14.5369 Y-8.9890
G01 X-14.5590 Y-8.9008
G01 X-14.5723 Y-8.8108
G01 X-14.5768 Y-8.7200
G01 X-14.5723 Y-8.6292
G01 X-14.5596 Y-8.5429
G01 X-14.5581 Y-8.5355
G01 X-14.5379 Y-8.4546
G01 X-14.5357 Y-8.4474
G01 X-14.5062 Y-8.3653
G01 X-14.4690 Y-8.2865
G01 X-14.4655 Y-8.2798
G01 X-14.4206 Y-8.2051
G01 X-14.3676 Y-8.1335
G01 X-14.3053 Y-8.0647
G01 X-14.2408 Y-8.0060
G01 X-14.2350 Y-8.0013
G01 X-14.1649 Y-7.9494
G01 X-14.0901 Y-7.9045
G01 X-14.0835 Y-7.9009
G01 X-14.0046 Y-7.8637
G01 X-13.9190 Y-7.8331
G01 X-13.8345 Y-7.8118
G01 X-13.8271 Y-7.8104
G01 X-13.7408 Y-7.7977
G01 X-13.6537 Y-7.7933
G01 X-13.6462 Y-7.7933
G01 X-13.5610 Y-7.7975
G01 X-13.4692 Y-7.8110
G01 X-13.3809 Y-7.8331
G01 X-13.2953 Y-7.8637
G01 X-13.2165 Y-7.9009
G01 X-13.2098 Y-7.9045
G01 X-13.1351 Y-7.9494
G01 X-13.0606 Y-8.0048
G01 X-12.9946 Y-8.0647
G01 X-12.9348 Y-8.1306
G01 X-12.8804 Y-8.2035
G01 X-12.8620 Y-8.2340
G01 X-12.8293 Y-8.2340
G01 X-7.9226 Y-3.3273
G01 X-7.8872 Y-3.2951
G01 X-7.8813 Y-3.2903
G01 X-7.8428 Y-3.2618
G01 X-7.7984 Y-3.2352
G01 X-7.7551 Y-3.2146
G01 X-7.7481 Y-3.2117
G01 X-7.7030 Y-3.1957
G01 X-7.6565 Y-3.1839
G01 X-7.6491 Y-3.1825
G01 X-7.6016 Y-3.1755
G01 X-7.5500 Y-3.1730
G01 X4.8500 Y-3.1730
G01 X4.9017 Y-3.1755
G01 X4.9491 Y-3.1825
G01 X4.9565 Y-3.1839
G01 X4.9994 Y-3.1947
G01 X5.0066 Y-3.1969
G01 X5.0517 Y-3.2131
G01 X5.0985 Y-3.2352
G01 X5.1428 Y-3.2618
G01 X5.1829 Y-3.2914
G01 X5.2227 Y-3.3273
G01 X8.2827 Y-6.3873
G01 X8.3174 Y-6.4257
G01 X8.3461 Y-6.4641
G01 X8.3502 Y-6.4704
G01 X8.3730 Y-6.5083
G01 X8.3765 Y-6.5149
G01 X8.3969 Y-6.5583
G01 X8.4132 Y-6.6034
G01 X8.4154 Y-6.6106
G01 X8.4269 Y-6.6572
G01 X8.4347 Y-6.7102
G01 X8.4370 Y-6.7600
G01 X8.4370 Y-7.5732
G01 X8.7600 Y-7.5732
G01 X8.7713 Y-7.5740
G01 X8.7823 Y-7.5765
G01 X8.7894 Y-7.5790
G01 X8.7946 Y-7.5814
G01 X8.8042 Y-7.5872
G01 X8.8102 Y-7.5918
G01 X8.8143 Y-7.5957
G01 X8.8217 Y-7.6043
G01 X8.8278 Y-7.6138
G01 X8.8323 Y-7.6241
G01 X8.8345 Y-7.6313
G01 X8.8357 Y-7.6369
G01 X8.8366 Y-7.6444
G01 X8.8368 Y-7.6500
G01 X8.8367 Y-9.3538
G01 X8.8362 Y-9.3594
G01 X8.8350 Y-9.3668
G01 X8.8329 Y-9.3741
G01 X8.8310 Y-9.3794
G01 X8.8278 Y-9.3862
G01 X8.8249 Y-9.3911
G01 X8.8206 Y-9.3972
G01 X8.8156 Y-9.4030
G01 X8.8102 Y-9.4082
G01 X8.8058 Y-9.4117
G01 X8.7995 Y-9.4159
G01 X8.7929 Y-9.4194
G01 X8.7859 Y-9.4223
G01 X8.7787 Y-9.4245
G01 X8.7713 Y-9.4260
G01 X8.7657 Y-9.4266
G01 X7.7286 Y-9.4268
G01 X4.2770 Y-12.8783
G01 X4.2770 Y-20.1217
G01 X9.5441 Y-25.3887
G01 X9.6192 Y-25.3777
G01 X9.7063 Y-25.3733
G01 X9.7138 Y-25.3733
G01 X9.7971 Y-25.3774
G01 X9.8046 Y-25.3781
G01 X9.8908 Y-25.3910
G01 X9.9791 Y-25.4131
G01 X10.0612 Y-25.4424
G01 X10.0681 Y-25.4453
G01 X10.1469 Y-25.4826
G01 X10.2217 Y-25.5274
G01 X10.2280 Y-25.5316
G01 X10.2980 Y-25.5836
G01 X10.3654 Y-25.6447
G01 X10.4265 Y-25.7120
G01 X10.4785 Y-25.7820
G01 X10.4826 Y-25.7883
G01 X10.5274 Y-25.8631
G01 X10.5647 Y-25.9419
G01 X10.5676 Y-25.9488
G01 X10.5969 Y-26.0310
G01 X10.6190 Y-26.1192
G01 X10.6319 Y-26.2054
G01 X10.6326 Y-26.2129
G01 X10.6368 Y-26.3000
G01 X10.6326 Y-26.3871
G01 X10.6319 Y-26.3946
G01 X10.6190 Y-26.4808
G01 X10.5969 Y-26.5690
G01 X10.5663 Y-26.6547
G01 X10.5274 Y-26.7369
G01 X10.4806 Y-26.8149
G01 X10.4265 Y-26.8880
G01 X10.3654 Y-26.9553
G01 X10.2980 Y-27.0164
G01 X10.2249 Y-27.0706
G01 X10.1469 Y-27.1174
G01 X10.0647 Y-27.1563
G01 X9.9791 Y-27.1869
G01 X9.8908 Y-27.2090
G01 X9.8009 Y-27.2223
G01 X9.7100 Y-27.2268
G01 X9.6192 Y-27.2223
G01 X9.5292 Y-27.2090
G01 X9.4410 Y-27.1869
G01 X9.3554 Y-27.1563
G01 X9.2731 Y-27.1174
G01 X9.1951 Y-27.0706
G01 X9.1221 Y-27.0164
G01 X9.0547 Y-26.9553
G01 X8.9936 Y-26.8880
G01 X8.9394 Y-26.8149
G01 X8.8927 Y-26.7369
G01 X8.8538 Y-26.6547
G01 X8.8231 Y-26.5690
G01 X8.8010 Y-26.4808
G01 X8.7877 Y-26.3908
G01 X8.7832 Y-26.3000
G01 X8.7877 Y-26.2092
G01 X8.7987 Y-26.1340
G00 Z2.0000
G00 X9.5466 Y-25.3044
G01 F25.00
G01 Z-0.1000
G01 F120.00
G01 X9.5576 Y-25.3092
G01 X9.5686 Y-25.3130
G01 X9.5785 Y-25.3156
G01 X9.5954 Y-25.3190
G01 X9.5656 Y-25.3234
G01 X9.5466 Y-25.3044
G00 Z2.0000
G00 X10.7360 Y-26.0802
G01 F25.00
G01 Z-0.1000
G01 F120.00
G01 X10.7512 Y-26.0869
G01 X10.7658 Y-26.0919
G01 X10.7823 Y-26.0961
G01 X10.7986 Y-26.0989
G01 X10.8966 Y-26.1105
G01 X10.9079 Y-26.1115
G01 X10.9203 Y-26.1119
G01 X10.9323 Y-26.1115
G01 X10.9447 Y-26.1103
G01 X10.9566 Y-26.1085
G01 X10.9732 Y-26.1047
G01 X11.0710 Y-26.0770
G01 X11.0856 Y-26.0720
G01 X11.0877 Y-26.0712
G01 X11.0895 Y-26.0705
G01 X11.0923 Y-26.0693
G01 X11.0991 Y-26.0662
G01 X11.1158 Y-26.0574
G01 X11.1306 Y-26.0476
G01 X11.2003 Y-25.9928
G01 X11.2003 Y-26.6033
G01 X11.1878 Y-26.5942
G01 X11.1033 Y-26.5377
G01 X11.0886 Y-26.5292
G01 X11.0736 Y-26.5221
G01 X11.0570 Y-26.5159
G01 X11.0403 Y-26.5113
G01 X10.9361 Y-26.4906
G01 X10.9208 Y-26.4884
G01 X10.9047 Y-26.4874
G01 X10.8892 Y-26.4877
G01 X10.8727 Y-26.4893
G01 X10.8616 Y-26.4912
G01 X10.7630 Y-26.5108
G01 X10.7487 Y-26.5145
G01 X10.7363 Y-26.5186
G01 X10.7388 Y-26.5081
G01 X10.7410 Y-26.4966
G01 X10.7545 Y-26.4044
G01 X10.7554 Y-26.3931
G01 X10.7595 Y-26.3098
G01 X10.7597 Y-26.2992
G01 X10.7554 Y-26.2069
G01 X10.7545 Y-26.1956
G01 X10.7410 Y-26.1034
G01 X10.7388 Y-26.0919
G01 X10.7360 Y-26.0802
G01 X10.8118 Y-26.1623
G01 X10.8976 Y-26.1723
G01 X10.9191 Y-26.1733
G01 X10.9394 Y-26.1726
G01 X10.9604 Y-26.1702
G01 X10.9804 Y-26.1663
G01 X10.9909 Y-26.1635
G01 X11.0844 Y-26.1371
G01 X11.0846 Y-26.1371
G01 X11.0945 Y-26.1341
G01 X11.1049 Y-26.1305
G01 X11.1168 Y-26.1257
G01 X11.1281 Y-26.1205
G01 X11.1389 Y-26.1149
G01 X11.1389 Y-26.4876
G01 X11.1229 Y-26.4779
G01 X11.1057 Y-26.4691
G01 X11.0880 Y-26.4617
G01 X11.0698 Y-26.4556
G01 X11.0585 Y-26.4525
G01 X11.0475 Y-26.4500
G01 X10.9513 Y-26.4309
G01 X10.9396 Y-26.4289
G01 X10.9242 Y-26.4270
G01 X10.9092 Y-26.4261
G01 X10.8949 Y-26.4260
G01 X10.8806 Y-26.4267
G01 X10.8678 Y-26.4280
G01 X10.8566 Y-26.4296
G01 X10.8117 Y-26.4385
G01 X10.8149 Y-26.4164
G01 X10.8164 Y-26.4014
G01 X10.8208 Y-26.3126
G01 X10.8211 Y-26.3008
G01 X10.8209 Y-26.2878
G01 X10.8165 Y-26.1994
G01 X10.8150 Y-26.1840
G01 X10.8118 Y-26.1623
G01 X10.8796 Y-26.2322
G01 X10.9009 Y-26.2342
G01 X10.9239 Y-26.2347
G01 X10.9461 Y-26.2337
G01 X10.9675 Y-26.2312
G01 X10.9838 Y-26.2284
G01 X10.9873 Y-26.2277
G01 X10.9875 Y-26.2276
G01 X10.9893 Y-26.2272
G01 X10.9899 Y-26.2271
G01 X10.9915 Y-26.2267
G01 X11.0007 Y-26.2245
G01 X11.0771 Y-26.2030
G01 X11.0774 Y-26.3939
G01 X11.0588 Y-26.3897
G01 X10.9626 Y-26.3705
G01 X10.9469 Y-26.3678
G01 X10.9306 Y-26.3659
G01 X10.9139 Y-26.3648
G01 X10.8975 Y-26.3645
G01 X10.8798 Y-26.3652
G01 X10.8823 Y-26.3139
G01 X10.8826 Y-26.2992
G01 X10.8822 Y-26.2852
G01 X10.8796 Y-26.2322
G01 X10.9440 Y-26.2954
G01 X10.9622 Y-26.2939
G01 X10.9800 Y-26.2915
G01 X10.9983 Y-26.2881
G01 X11.0158 Y-26.2841
G01 X11.0158 Y-26.3185
G01 X10.9688 Y-26.3092
G01 X10.9440 Y-26.3055
G01 X10.9440 Y-26.2954
G01 X11.2618 Y-25.8011
G01 X11.2618 Y-26.7973
G01 X11.2586 Y-26.7885
G01 X11.2552 Y-26.7810
G01 X11.2512 Y-26.7733
G01 X11.2459 Y-26.7646
G01 X11.1892 Y-26.6798
G01 X11.1818 Y-26.6702
G01 X11.1725 Y-26.6604
G01 X11.1649 Y-26.6536
G01 X11.1556 Y-26.6465
G01 X11.0675 Y-26.5878
G01 X11.0586 Y-26.5829
G01 X11.0480 Y-26.5780
G01 X11.0367 Y-26.5739
G01 X11.0254 Y-26.5710
G01 X10.9249 Y-26.5510
G01 X10.9133 Y-26.5494
G01 X10.9013 Y-26.5488
G01 X10.8896 Y-26.5492
G01 X10.8761 Y-26.5510
G01 X10.7757 Y-26.5710
G01 X10.7644 Y-26.5739
G01 X10.7548 Y-26.5773
G01 X10.7438 Y-26.5822
G01 X10.7335 Y-26.5878
G01 X10.6454 Y-26.6466
G01 X10.6371 Y-26.6529
G01 X10.6301 Y-26.6589
G01 X10.6559 Y-26.5861
G01 X10.6794 Y-26.4921
G01 X10.6936 Y-26.3961
G01 X10.6983 Y-26.2992
G01 X10.6936 Y-26.2039
G01 X10.6794 Y-26.1079
G01 X10.6559 Y-26.0139
G01 X10.6286 Y-25.9367
G01 X10.6374 Y-25.9472
G01 X10.6459 Y-25.9557
G01 X10.6549 Y-25.9632
G01 X10.6648 Y-25.9700
G01 X10.7583 Y-26.0227
G01 X10.7675 Y-26.0271
G01 X10.7784 Y-26.0314
G01 X10.7914 Y-26.0352
G01 X10.8047 Y-26.0377
G01 X10.9064 Y-26.0498
G01 X10.9166 Y-26.0504
G01 X10.9283 Y-26.0502
G01 X10.9384 Y-26.0492
G01 X10.9484 Y-26.0475
G01 X10.9576 Y-26.0452
G01 X11.0511 Y-26.0189
G01 X11.0601 Y-26.0160
G01 X11.0695 Y-26.0122
G01 X11.0800 Y-26.0071
G01 X11.0903 Y-26.0008
G01 X11.0992 Y-25.9944
G01 X11.1754 Y-25.9342
G01 X11.1760 Y-25.9338
G01 X11.1775 Y-25.9326
G01 X11.1862 Y-25.9248
G01 X11.1955 Y-25.9149
G01 X11.2028 Y-25.9053
G01 X11.2092 Y-25.8955
G01 X11.2618 Y-25.8011
G00 Z2.0000
G00 X11.4623 Y-27.2882
G01 F25.00
G01 Z-0.1000
G01 F120.00
G01 X11.6616 Y-27.2882
G01 X11.6616 Y-27.5000
G01 X11.6586 Y-27.4920
G01 X11.6552 Y-27.4844
G01 X11.6512 Y-27.4767
G01 X11.6470 Y-27.4696
G01 X11.5900 Y-27.3844
G01 X11.5839 Y-27.3763
G01 X11.5772 Y-27.3687
G01 X11.5663 Y-27.3583
G01 X11.5556 Y-27.3500
G01 X11.4726 Y-27.2945
G01 X11.4623 Y-27.2882
G00 Z2.0000
G00 X11.6616 Y-28.1462
G01 F25.00
G01 Z-0.1000
G01 F120.00
G01 X11.6616 Y-28.1562
G01 X11.6544 Y-28.1634
G01 X11.6580 Y-28.1556
G01 X11.6616 Y-28.1462
G01 X11.0134 Y-28.8044
G01 X11.0063 Y-28.8115
G01 X10.9962 Y-28.8115
G01 X11.0056 Y-28.8080
G01 X11.0134 Y-28.8044
G00 Z2.0000
G00 X12.8385 Y-27.5117
G01 F25.00
G01 Z-0.1000
G01 F120.00
G01 X12.8385 Y-27.2882
G01 X13.0481 Y-27.2882
G01 X13.0083 Y-27.3047
G01 X13.0014 Y-27.3078
G01 X12.9895 Y-27.3143
G01 X12.9782 Y-27.3219
G01 X12.9703 Y-27.3283
G01 X12.9640 Y-27.3342
G01 X12.8919 Y-27.4064
G01 X12.8852 Y-27.4140
G01 X12.8790 Y-27.4222
G01 X12.8743 Y-27.4294
G01 X12.8694 Y-27.4383
G01 X12.8648 Y-27.4483
G01 X12.8385 Y-27.5117
G01 X13.1000 Y-27.2268
G01 X13.1076 Y-27.2264
G01 X13.1150 Y-27.2253
G01 X13.1223 Y-27.2235
G01 X13.1294 Y-27.2210
G01 X13.1362 Y-27.2177
G01 X13.1442 Y-27.2128
G01 X13.1502 Y-27.2082
G01 X13.1556 Y-27.2030
G01 X13.1606 Y-27.1972
G01 X13.1639 Y-27.1927
G01 X13.1695 Y-27.1828
G01 X13.1735 Y-27.1723
G01 X13.1760 Y-27.1613
G01 X13.1768 Y-27.1500
G01 X13.1768 Y-25.4500
G01 X13.1760 Y-25.4387
G01 X13.1735 Y-25.4277
G01 X13.1695 Y-25.4172
G01 X13.1639 Y-25.4073
G01 X13.1582 Y-25.3998
G01 X13.1516 Y-25.3931
G01 X13.1442 Y-25.3872
G01 X13.1362 Y-25.3823
G01 X13.1277 Y-25.3783
G01 X13.1187 Y-25.3755
G01 X13.1113 Y-25.3740
G01 X13.1019 Y-25.3732
G01 X11.3963 Y-25.3733
G01 X11.3888 Y-25.3740
G01 X11.3814 Y-25.3755
G01 X11.3742 Y-25.3777
G01 X11.3689 Y-25.3798
G01 X11.3622 Y-25.3832
G01 X11.3558 Y-25.3872
G01 X11.3513 Y-25.3906
G01 X11.3457 Y-25.3957
G01 X11.3407 Y-25.4013
G01 X11.3362 Y-25.4073
G01 X11.3323 Y-25.4138
G01 X11.3298 Y-25.4189
G01 X11.3271 Y-25.4259
G01 X11.3251 Y-25.4332
G01 X11.3238 Y-25.4406
G01 X11.3233 Y-25.4462
G01 X11.3232 Y-27.1500
G01 X11.3238 Y-27.1594
G01 X11.3260 Y-27.1705
G01 X11.3284 Y-27.1776
G01 X11.3306 Y-27.1828
G01 X11.3362 Y-27.1927
G01 X11.3395 Y-27.1972
G01 X11.3444 Y-27.2030
G01 X11.3528 Y-27.2105
G01 X11.3574 Y-27.2139
G01 X11.3638 Y-27.2177
G01 X11.3742 Y-27.2223
G01 X11.3795 Y-27.2240
G01 X11.3869 Y-27.2257
G01 X11.3925 Y-27.2264
G01 X11.4000 Y-27.2268
G01 X11.7230 Y-27.2268
G01 X11.7230 Y-28.1817
G01 X11.0317 Y-28.8730
G01 X-10.5317 Y-28.8730
G01 X-12.7232 Y-26.6815
G01 X-12.7232 Y-25.6481
G01 X-12.7240 Y-25.6387
G01 X-12.7255 Y-25.6313
G01 X-12.7283 Y-25.6224
G01 X-12.7314 Y-25.6155
G01 X-12.7361 Y-25.6073
G01 X-12.7406 Y-25.6013
G01 X-12.7470 Y-25.5944
G01 X-12.7527 Y-25.5895
G01 X-12.7573 Y-25.5861
G01 X-12.7638 Y-25.5823
G01 X-12.7741 Y-25.5777
G01 X-12.7813 Y-25.5755
G01 X-12.7868 Y-25.5743
G01 X-12.7943 Y-25.5734
G01 X-12.8000 Y-25.5732
G01 X-14.5019 Y-25.5732
G01 X-14.5075 Y-25.5736
G01 X-14.5150 Y-25.5747
G01 X-14.5223 Y-25.5765
G01 X-14.5294 Y-25.5790
G01 X-14.5345 Y-25.5814
G01 X-14.5411 Y-25.5851
G01 X-14.5472 Y-25.5895
G01 X-14.5529 Y-25.5944
G01 X-14.5581 Y-25.5998
G01 X-14.5628 Y-25.6058
G01 X-14.5658 Y-25.6105
G01 X-14.5694 Y-25.6172
G01 X-14.5723 Y-25.6241
G01 X-14.5745 Y-25.6313
G01 X-14.5759 Y-25.6387
G01 X-14.5766 Y-25.6444
G01 X-14.5768 Y-27.3500
G01 X-14.5764 Y-27.3575
G01 X-14.5753 Y-27.3650
G01 X-14.5735 Y-27.3723
G01 X-14.5716 Y-27.3776
G01 X-14.5694 Y-27.3828
G01 X-14.5658 Y-27.3895
G01 X-14.5628 Y-27.3942
G01 X-14.5581 Y-27.4002
G01 X-14.5516 Y-27.4069
G01 X-14.5457 Y-27.4117
G01 X-14.5395 Y-27.4159
G01 X-14.5328 Y-27.4194
G01 X-14.5258 Y-27.4223
G01 X-14.5186 Y-27.4245
G01 X-14.5112 Y-27.4260
G01 X-14.5019 Y-27.4268
G01 X-13.4685 Y-27.4268
G01 X-11.1213 Y-29.7740
G01 X-11.0843 Y-29.8074
G01 X-11.0428 Y-29.8382
G01 X-10.9984 Y-29.8648
G01 X-10.9551 Y-29.8854
G01 X-10.9481 Y-29.8883
G01 X-10.9065 Y-29.9031
G01 X-10.8993 Y-29.9053
G01 X-10.8528 Y-29.9169
G01 X-10.8054 Y-29.9240
G01 X-10.7979 Y-29.9248
G01 X-10.7500 Y-29.9270
G01 X11.2500 Y-29.9270
G01 X11.3036 Y-29.9243
G01 X11.3528 Y-29.9169
G01 X11.3994 Y-29.9053
G01 X11.4066 Y-29.9031
G01 X11.4517 Y-29.8869
G01 X11.4985 Y-29.8648
G01 X11.5396 Y-29.8402
G01 X11.5459 Y-29.8360
G01 X11.5814 Y-29.8097
G01 X11.5872 Y-29.8049
G01 X11.6227 Y-29.7727
G01 X12.6227 Y-28.7727
G01 X12.6574 Y-28.7343
G01 X12.6882 Y-28.6928
G01 X12.7130 Y-28.6517
G01 X12.7165 Y-28.6451
G01 X12.7369 Y-28.6017
G01 X12.7532 Y-28.5566
G01 X12.7554 Y-28.5494
G01 X12.7669 Y-28.5028
G01 X12.7741 Y-28.4554
G01 X12.7748 Y-28.4479
G01 X12.7770 Y-28.4000
G01 X12.7770 Y-27.2268
G01 X13.1000 Y-27.2268
G00 Z2.0000
G00 X11.2305 Y-17.1885
G01 F25.00
G01 Z-0.1000
G01 F120.00
G01 X11.2574 Y-17.1885
G01 X11.2753 Y-17.2126
G01 X11.2609 Y-17.2031
G01 X11.2522 Y-17.1979
G01 X11.2417 Y-17.1928
G01 X11.2305 Y-17.1885
G00 Z2.0000
G00 X10.0907 Y-15.9501
G01 F25.00
G01 Z-0.1000
G01 F120.00
G01 X10.0996 Y-15.9378
G01 X10.1561 Y-15.8532
G01 X10.1646 Y-15.8386
G01 X10.1720 Y-15.8229
G01 X10.1778 Y-15.8070
G01 X10.1804 Y-15.7983
G01 X10.1816 Y-15.7936
G01 X10.1823 Y-15.7910
G01 X10.1824 Y-15.7903
G01 X10.1828 Y-15.7888
G01 X10.2026 Y-15.6891
G01 X10.2050 Y-15.6741
G01 X10.4810 Y-15.9501
G01 X10.0907 Y-15.9501
G01 X10.2063 Y-15.8887
G01 X10.2127 Y-15.8784
G01 X10.2186 Y-15.8679
G01 X10.2241 Y-15.8567
G01 X10.2287 Y-15.8464
G01 X10.2332 Y-15.8348
G01 X10.2371 Y-15.8234
G01 X10.2406 Y-15.8111
G01 X10.2433 Y-15.7994
G01 X10.3326 Y-15.8887
G01 X10.2063 Y-15.8887
G01 X10.1116 Y-15.4938
G01 X10.6293 Y-16.0115
G01 X9.8972 Y-16.0115
G01 X9.9052 Y-16.0085
G01 X9.9128 Y-16.0052
G01 X9.9205 Y-16.0012
G01 X9.9276 Y-15.9969
G01 X10.0128 Y-15.9400
G01 X10.0221 Y-15.9329
G01 X10.0297 Y-15.9262
G01 X10.0402 Y-15.9148
G01 X10.0487 Y-15.9034
G01 X10.1042 Y-15.8204
G01 X10.1100 Y-15.8103
G01 X10.1152 Y-15.7994
G01 X10.1193 Y-15.7884
G01 X10.1228 Y-15.7753
G01 X10.1423 Y-15.6775
G01 X10.1444 Y-15.6633
G01 X10.1450 Y-15.6497
G01 X10.1444 Y-15.6377
G01 X10.1428 Y-15.6261
G01 X10.1423 Y-15.6235
G01 X10.1234 Y-15.5282
G01 X10.1228 Y-15.5257
G01 X10.1208 Y-15.5176
G01 X10.1182 Y-15.5094
G01 X10.1152 Y-15.5016
G01 X10.1116 Y-15.4938
G00 Z2.0000
G00 X11.0456 Y-14.7634
G01 F25.00
G01 Z-0.1000
G01 F120.00
G01 X11.0385 Y-14.7562
G01 X11.0385 Y-14.7462
G01 X11.0421 Y-14.7556
G01 X11.0456 Y-14.7634
G01 X11.9354 Y-15.6190
G01 X11.9056 Y-15.6234
G01 X11.8866 Y-15.6044
G01 X11.8976 Y-15.6092
G01 X11.9086 Y-15.6130
G01 X11.9185 Y-15.6156
G01 X11.9354 Y-15.6190
G00 Z2.0000
G00 X7.0695 Y-16.0115
G01 F25.00
G01 Z-0.1000
G01 F120.00
G01 X7.0427 Y-16.0115
G01 X7.0248 Y-15.9874
G01 X7.0391 Y-15.9969
G01 X7.0479 Y-16.0021
G01 X7.0584 Y-16.0072
G01 X7.0695 Y-16.0115
G00 Z2.0000
G00 X7.0118 Y-17.1270
G01 F25.00
G01 Z-0.1000
G01 F120.00
G01 X11.2883 Y-17.1270
G01 X11.3336 Y-17.1880
G01 X11.3921 Y-17.2526
G01 X11.3974 Y-17.2579
G01 X11.4592 Y-17.3140
G01 X11.4650 Y-17.3187
G01 X11.5351 Y-17.3706
G01 X11.6131 Y-17.4174
G01 X11.6919 Y-17.4547
G01 X11.6989 Y-17.4576
G01 X11.7810 Y-17.4869
G01 X11.8655 Y-17.5082
G01 X11.8729 Y-17.5096
G01 X11.9592 Y-17.5223
G01 X12.0519 Y-17.5268
G01 X12.1409 Y-17.5223
G01 X12.2271 Y-17.5096
G01 X12.2345 Y-17.5082
G01 X12.3191 Y-17.4869
G01 X12.4047 Y-17.4563
G01 X12.4835 Y-17.4191
G01 X12.4902 Y-17.4155
G01 X12.5649 Y-17.3706
G01 X12.6350 Y-17.3187
G01 X12.6408 Y-17.3140
G01 X12.7054 Y-17.2553
G01 X12.7665 Y-17.1880
G01 X12.8206 Y-17.1149
G01 X12.8655 Y-17.0402
G01 X12.8691 Y-17.0335
G01 X12.9070 Y-16.9529
G01 X12.9369 Y-16.8690
G01 X12.9582 Y-16.7845
G01 X12.9597 Y-16.7771
G01 X12.9724 Y-16.6908
G01 X12.9767 Y-16.6038
G01 X12.9767 Y-16.5962
G01 X12.9724 Y-16.5092
G01 X12.9597 Y-16.4229
G01 X12.9582 Y-16.4155
G01 X12.9379 Y-16.3346
G01 X12.9357 Y-16.3274
G01 X12.9063 Y-16.2453
G01 X12.8691 Y-16.1665
G01 X12.8655 Y-16.1598
G01 X12.8206 Y-16.0851
G01 X12.7688 Y-16.0150
G01 X12.7640 Y-16.0092
G01 X12.7080 Y-15.9474
G01 X12.7026 Y-15.9421
G01 X12.6380 Y-15.8836
G01 X12.5680 Y-15.8316
G01 X12.5617 Y-15.8274
G01 X12.4869 Y-15.7826
G01 X12.4081 Y-15.7453
G01 X12.4012 Y-15.7424
G01 X12.3191 Y-15.7131
G01 X12.2345 Y-15.6918
G01 X12.2271 Y-15.6904
G01 X12.1409 Y-15.6777
G01 X12.0538 Y-15.6733
G01 X12.0463 Y-15.6733
G01 X11.9592 Y-15.6777
G01 X11.8841 Y-15.6887
G01 X10.9770 Y-14.7817
G01 X10.9770 Y-9.2617
G01 X11.0380 Y-9.2164
G01 X11.1026 Y-9.1579
G01 X11.1080 Y-9.1526
G01 X11.1640 Y-9.0908
G01 X11.1688 Y-9.0850
G01 X11.2206 Y-9.0149
G01 X11.2674 Y-8.9369
G01 X11.3047 Y-8.8581
G01 X11.3076 Y-8.8512
G01 X11.3369 Y-8.7690
G01 X11.3582 Y-8.6845
G01 X11.3597 Y-8.6771
G01 X11.3724 Y-8.5908
G01 X11.3768 Y-8.4981
G01 X11.3724 Y-8.4092
G01 X11.3597 Y-8.3229
G01 X11.3582 Y-8.3155
G01 X11.3369 Y-8.2310
G01 X11.3063 Y-8.1453
G01 X11.2691 Y-8.0665
G01 X11.2655 Y-8.0598
G01 X11.2206 Y-7.9851
G01 X11.1688 Y-7.9150
G01 X11.1640 Y-7.9092
G01 X11.1054 Y-7.8447
G01 X11.0380 Y-7.7836
G01 X10.9649 Y-7.7294
G01 X10.8902 Y-7.6845
G01 X10.8835 Y-7.6809
G01 X10.8029 Y-7.6430
G01 X10.7226 Y-7.6143
G01 X10.7154 Y-7.6121
G01 X10.6308 Y-7.5910
G01 X10.5446 Y-7.5781
G01 X10.5371 Y-7.5774
G01 X10.4500 Y-7.5732
G01 X10.3592 Y-7.5777
G01 X10.2692 Y-7.5910
G01 X10.1846 Y-7.6121
G01 X10.1774 Y-7.6143
G01 X10.0954 Y-7.6437
G01 X10.0165 Y-7.6809
G01 X10.0099 Y-7.6845
G01 X9.9351 Y-7.7294
G01 X9.8650 Y-7.7813
G01 X9.8592 Y-7.7860
G01 X9.7947 Y-7.8447
G01 X9.7361 Y-7.9092
G01 X9.7313 Y-7.9150
G01 X9.6794 Y-7.9851
G01 X9.6327 Y-8.0631
G01 X9.5938 Y-8.1453
G01 X9.5643 Y-8.2274
G01 X9.5621 Y-8.2346
G01 X9.5410 Y-8.3192
G01 X9.5281 Y-8.4054
G01 X9.5274 Y-8.4129
G01 X9.5232 Y-8.5000
G01 X9.5274 Y-8.5871
G01 X9.5281 Y-8.5946
G01 X9.5410 Y-8.6808
G01 X9.5621 Y-8.7654
G01 X9.5643 Y-8.7726
G01 X9.5938 Y-8.8547
G01 X9.6327 Y-8.9369
G01 X9.6794 Y-9.0149
G01 X9.7313 Y-9.0850
G01 X9.7361 Y-9.0908
G01 X9.7921 Y-9.1526
G01 X9.7974 Y-9.1579
G01 X9.8621 Y-9.2164
G01 X9.9230 Y-9.2617
G01 X9.9230 Y-15.0000
G01 X9.9255 Y-15.0517
G01 X9.9328 Y-15.1010
G01 X9.9447 Y-15.1494
G01 X9.9469 Y-15.1566
G01 X9.9631 Y-15.2017
G01 X9.9835 Y-15.2451
G01 X9.9871 Y-15.2517
G01 X10.0118 Y-15.2928
G01 X10.0438 Y-15.3358
G01 X10.0774 Y-15.3727
G01 X10.7777 Y-16.0730
G01 X7.0118 Y-16.0730
G01 X6.9665 Y-16.0120
G01 X6.9080 Y-15.9474
G01 X6.9026 Y-15.9421
G01 X6.8408 Y-15.8860
G01 X6.8350 Y-15.8813
G01 X6.7649 Y-15.8294
G01 X6.6869 Y-15.7826
G01 X6.6047 Y-15.7437
G01 X6.5226 Y-15.7143
G01 X6.5154 Y-15.7121
G01 X6.4308 Y-15.6910
G01 X6.3446 Y-15.6781
G01 X6.3371 Y-15.6774
G01 X6.2500 Y-15.6732
G01 X6.1592 Y-15.6777
G01 X6.0729 Y-15.6904
G01 X6.0655 Y-15.6918
G01 X5.9846 Y-15.7121
G01 X5.9774 Y-15.7143
G01 X5.8954 Y-15.7437
G01 X5.8165 Y-15.7809
G01 X5.8099 Y-15.7845
G01 X5.7351 Y-15.8294
G01 X5.6621 Y-15.8836
G01 X5.5947 Y-15.9447
G01 X5.5336 Y-16.0120
G01 X5.4794 Y-16.0851
G01 X5.4327 Y-16.1631
G01 X5.3938 Y-16.2453
G01 X5.3631 Y-16.3310
G01 X5.3410 Y-16.4192
G01 X5.3277 Y-16.5092
G01 X5.3232 Y-16.6000
G01 X5.3277 Y-16.6908
G01 X5.3410 Y-16.7808
G01 X5.3631 Y-16.8690
G01 X5.3938 Y-16.9547
G01 X5.4327 Y-17.0369
G01 X5.4794 Y-17.1149
G01 X5.5336 Y-17.1880
G01 X5.5947 Y-17.2553
G01 X5.6621 Y-17.3164
G01 X5.7351 Y-17.3706
G01 X5.8131 Y-17.4174
G01 X5.8954 Y-17.4563
G01 X5.9810 Y-17.4869
G01 X6.0692 Y-17.5090
G01 X6.1592 Y-17.5223
G01 X6.2500 Y-17.5268
G01 X6.3390 Y-17.5225
G01 X6.4308 Y-17.5090
G01 X6.5191 Y-17.4869
G01 X6.6047 Y-17.4563
G01 X6.6835 Y-17.4191
G01 X6.6902 Y-17.4155
G01 X6.7649 Y-17.3706
G01 X6.8350 Y-17.3187
G01 X6.8408 Y-17.3140
G01 X6.9026 Y-17.2579
G01 X6.9080 Y-17.2526
G01 X6.9665 Y-17.1880
G01 X7.0118 Y-17.1270
G01 X7.0248 Y-17.2126
G01 X7.0427 Y-17.1885
G01 X7.0695 Y-17.1885
G01 X7.0584 Y-17.1928
G01 X7.0479 Y-17.1979
G01 X7.0391 Y-17.2031
G01 X7.0248 Y-17.2126
G00 Z2.0000
G00 X4.3456 Y-12.8966
G01 F25.00
G01 Z-0.1000
G01 F120.00
G01 X4.3421 Y-12.9044
G01 X4.3385 Y-12.9138
G01 X4.3385 Y-12.9038
G01 X4.3456 Y-12.8966
G00 Z2.0000
G00 X-7.2961 Y-4.2885
G01 F25.00
G01 Z-0.1000
G01 F120.00
G01 X-7.3056 Y-4.2920
G01 X-7.3134 Y-4.2956
G01 X-7.3062 Y-4.2885
G01 X-7.2961 Y-4.2885
G00 Z2.0000
G00 X-12.9728 Y-8.0014
G01 F25.00
G01 Z-0.1000
G01 F120.00
G01 X-12.9496 Y-8.0120
G01 X-12.9402 Y-8.0158
G01 X-12.9272 Y-8.0196
G01 X-12.9139 Y-8.0222
G01 X-12.8996 Y-8.0235
G01 X-12.8025 Y-8.0273
G01 X-12.7916 Y-8.0273
G01 X-12.7829 Y-8.0267
G01 X-12.7729 Y-8.0253
G01 X-12.7648 Y-8.0236
G01 X-12.7564 Y-8.0213
G01 X-12.6729 Y-7.9908
G01 X-12.8388 Y-8.1566
G01 X-12.8819 Y-8.0984
G01 X-12.8887 Y-8.0899
G01 X-12.9483 Y-8.0242
G01 X-12.9542 Y-8.0183
G01 X-12.9728 Y-8.0014
G00 Z2.0000
G00 X-12.8715 Y-9.3495
G01 F25.00
G01 Z-0.1000
G01 F120.00
G01 X-12.8795 Y-9.3525
G01 X-12.8871 Y-9.3558
G01 X-12.9007 Y-9.3633
G01 X-12.8882 Y-9.3495
G01 X-12.8715 Y-9.3495
G00 Z2.0000
G00 X-13.6537 Y-14.7267
G01 F25.00
G01 Z-0.1000
G01 F120.00
G01 X-13.6462 Y-14.7267
G01 X-13.5591 Y-14.7223
G01 X-13.4692 Y-14.7090
G01 X-13.3809 Y-14.6869
G01 X-13.2953 Y-14.6563
G01 X-13.2131 Y-14.6174
G01 X-13.1351 Y-14.5706
G01 X-13.0620 Y-14.5164
G01 X-12.9946 Y-14.4553
G01 X-12.9335 Y-14.3880
G01 X-12.8794 Y-14.3149
G01 X-12.8326 Y-14.2369
G01 X-12.7937 Y-14.1547
G01 X-12.7631 Y-14.0690
G01 X-12.7410 Y-13.9808
G01 X-12.7276 Y-13.8908
G01 X-12.7232 Y-13.8000
G01 X-12.7276 Y-13.7092
G01 X-12.7410 Y-13.6192
G01 X-12.7631 Y-13.5310
G01 X-12.7937 Y-13.4453
G01 X-12.8326 Y-13.3631
G01 X-12.8794 Y-13.2851
G01 X-12.9335 Y-13.2120
G01 X-12.9946 Y-13.1447
G01 X-13.0620 Y-13.0836
G01 X-13.1351 Y-13.0294
G01 X-13.2131 Y-12.9826
G01 X-13.2953 Y-12.9437
G01 X-13.3809 Y-12.9131
G01 X-13.4692 Y-12.8910
G01 X-13.5591 Y-12.8777
G01 X-13.6500 Y-12.8732
G01 X-13.7408 Y-12.8777
G01 X-13.8308 Y-12.8910
G01 X-13.9190 Y-12.9131
G01 X-14.0011 Y-12.9424
G01 X-14.0081 Y-12.9453
G01 X-14.0869 Y-12.9826
G01 X-14.1617 Y-13.0274
G01 X-14.1680 Y-13.0316
G01 X-14.2350 Y-13.0813
G01 X-14.2408 Y-13.0860
G01 X-14.3053 Y-13.1447
G01 X-14.3639 Y-13.2092
G01 X-14.3687 Y-13.2150
G01 X-14.4206 Y-13.2851
G01 X-14.4673 Y-13.3631
G01 X-14.5062 Y-13.4453
G01 X-14.5369 Y-13.5310
G01 X-14.5590 Y-13.6192
G01 X-14.5723 Y-13.7092
G01 X-14.5768 Y-13.8000
G01 X-14.5723 Y-13.8908
G01 X-14.5590 Y-13.9808
G01 X-14.5369 Y-14.0690
G01 X-14.5062 Y-14.1547
G01 X-14.4690 Y-14.2335
G01 X-14.4655 Y-14.2402
G01 X-14.4226 Y-14.3117
G01 X-14.4184 Y-14.3180
G01 X-14.3664 Y-14.3880
G01 X-14.3040 Y-14.4567
G01 X-14.2379 Y-14.5164
G01 X-14.1649 Y-14.5706
G01 X-14.0869 Y-14.6174
G01 X-14.0046 Y-14.6563
G01 X-13.9190 Y-14.6869
G01 X-13.8308 Y-14.7090
G01 X-13.7408 Y-14.7223
G01 X-13.6537 Y-14.7267
G01 X-13.7249 Y-14.8462
G01 X-13.6507 Y-14.8497
G01 X-13.5797 Y-14.8465
G01 X-13.5883 Y-14.8606
G01 X-13.5949 Y-14.8738
G01 X-13.6006 Y-14.8874
G01 X-13.6053 Y-14.9017
G01 X-13.6320 Y-14.9963
G01 X-13.6334 Y-15.0017
G01 X-13.6336 Y-15.0025
G01 X-13.6341 Y-15.0043
G01 X-13.6346 Y-15.0065
G01 X-13.6369 Y-15.0187
G01 X-13.6383 Y-15.0292
G01 X-13.6393 Y-15.0412
G01 X-13.6395 Y-15.0529
G01 X-13.6383 Y-15.0724
G01 X-13.6265 Y-15.1715
G01 X-13.6243 Y-15.1857
G01 X-13.6213 Y-15.1985
G01 X-13.6153 Y-15.2172
G01 X-13.6078 Y-15.2345
G01 X-13.6028 Y-15.2442
G01 X-13.5750 Y-15.2938
G01 X-13.6492 Y-15.2903
G01 X-13.7202 Y-15.2935
G01 X-13.7116 Y-15.2794
G01 X-13.7050 Y-15.2662
G01 X-13.6994 Y-15.2527
G01 X-13.6947 Y-15.2383
G01 X-13.6680 Y-15.1437
G01 X-13.6654 Y-15.1335
G01 X-13.6633 Y-15.1232
G01 X-13.6616 Y-15.1108
G01 X-13.6607 Y-15.0988
G01 X-13.6605 Y-15.0871
G01 X-13.6617 Y-15.0676
G01 X-13.6734 Y-14.9685
G01 X-13.6757 Y-14.9543
G01 X-13.6787 Y-14.9415
G01 X-13.6847 Y-14.9228
G01 X-13.6921 Y-14.9055
G01 X-13.6972 Y-14.8958
G01 X-13.7249 Y-14.8462
G01 X-13.4145 Y-15.3813
G01 X-13.4513 Y-15.3721
G01 X-13.4598 Y-15.3703
G01 X-13.5490 Y-15.3570
G01 X-13.5599 Y-15.3560
G01 X-13.6492 Y-15.3518
G01 X-13.7401 Y-15.3560
G01 X-13.7495 Y-15.3568
G01 X-13.8402 Y-15.3703
G01 X-13.8783 Y-15.3795
G01 X-13.8683 Y-15.3732
G01 X-13.8589 Y-15.3662
G01 X-13.8499 Y-15.3581
G01 X-13.8420 Y-15.3496
G01 X-13.7764 Y-15.2665
G01 X-13.7697 Y-15.2569
G01 X-13.7646 Y-15.2481
G01 X-13.7588 Y-15.2359
G01 X-13.7542 Y-15.2231
G01 X-13.7264 Y-15.1245
G01 X-13.7242 Y-15.1146
G01 X-13.7230 Y-15.1064
G01 X-13.7222 Y-15.0978
G01 X-13.7219 Y-15.0876
G01 X-13.7229 Y-15.0733
G01 X-13.7351 Y-14.9708
G01 X-13.7375 Y-14.9594
G01 X-13.7403 Y-14.9496
G01 X-13.7439 Y-14.9401
G01 X-13.7481 Y-14.9308
G01 X-13.7997 Y-14.8385
G01 X-13.8052 Y-14.8299
G01 X-13.8113 Y-14.8217
G01 X-13.8203 Y-14.8116
G01 X-13.8302 Y-14.8023
G01 X-13.8855 Y-14.7587
G01 X-13.8487 Y-14.7679
G01 X-13.8402 Y-14.7697
G01 X-13.7510 Y-14.7830
G01 X-13.7401 Y-14.7840
G01 X-13.6568 Y-14.7881
G01 X-13.6507 Y-14.7882
G01 X-13.5599 Y-14.7840
G01 X-13.5505 Y-14.7832
G01 X-13.4598 Y-14.7697
G01 X-13.4217 Y-14.7605
G01 X-13.4317 Y-14.7668
G01 X-13.4410 Y-14.7738
G01 X-13.4500 Y-14.7819
G01 X-13.4580 Y-14.7904
G01 X-13.5236 Y-14.8735
G01 X-13.5294 Y-14.8818
G01 X-13.5354 Y-14.8919
G01 X-13.5412 Y-14.9041
G01 X-13.5457 Y-14.9169
G01 X-13.5735 Y-15.0155
G01 X-13.5757 Y-15.0254
G01 X-13.5770 Y-15.0336
G01 X-13.5778 Y-15.0423
G01 X-13.5780 Y-15.0524
G01 X-13.5771 Y-15.0667
G01 X-13.5657 Y-15.1632
G01 X-13.5648 Y-15.1692
G01 X-13.5628 Y-15.1791
G01 X-13.5601 Y-15.1889
G01 X-13.5566 Y-15.1985
G01 X-13.5518 Y-15.2092
G01 X-13.5002 Y-15.3015
G01 X-13.4947 Y-15.3101
G01 X-13.4887 Y-15.3183
G01 X-13.4797 Y-15.3284
G01 X-13.4697 Y-15.3377
G01 X-13.4145 Y-15.3813
G00 Z2.0000
G00 X-13.6537 Y-17.2667
G01 F25.00
G01 Z-0.1000
G01 F120.00
G01 X-13.6462 Y-17.2667
G01 X-13.5591 Y-17.2623
G01 X-13.4692 Y-17.2490
G01 X-13.3809 Y-17.2269
G01 X-13.2953 Y-17.1963
G01 X-13.2131 Y-17.1574
G01 X-13.1351 Y-17.1106
G01 X-13.0620 Y-17.0564
G01 X-12.9946 Y-16.9953
G01 X-12.9335 Y-16.9280
G01 X-12.8794 Y-16.8549
G01 X-12.8326 Y-16.7769
G01 X-12.7937 Y-16.6947
G01 X-12.7631 Y-16.6090
G01 X-12.7410 Y-16.5208
G01 X-12.7276 Y-16.4308
G01 X-12.7232 Y-16.3400
G01 X-12.7276 Y-16.2492
G01 X-12.7410 Y-16.1592
G01 X-12.7631 Y-16.0710
G01 X-12.7937 Y-15.9853
G01 X-12.8326 Y-15.9031
G01 X-12.8794 Y-15.8251
G01 X-12.9335 Y-15.7520
G01 X-12.9946 Y-15.6847
G01 X-13.0620 Y-15.6236
G01 X-13.1351 Y-15.5694
G01 X-13.2131 Y-15.5226
G01 X-13.2953 Y-15.4837
G01 X-13.3809 Y-15.4531
G01 X-13.4692 Y-15.4310
G01 X-13.5591 Y-15.4177
G01 X-13.6500 Y-15.4132
G01 X-13.7408 Y-15.4177
G01 X-13.8308 Y-15.4310
G01 X-13.9190 Y-15.4531
G01 X-14.0011 Y-15.4824
G01 X-14.0081 Y-15.4853
G01 X-14.0869 Y-15.5226
G01 X-14.1617 Y-15.5674
G01 X-14.1680 Y-15.5716
G01 X-14.2350 Y-15.6213
G01 X-14.2408 Y-15.6260
G01 X-14.3053 Y-15.6847
G01 X-14.3639 Y-15.7492
G01 X-14.3687 Y-15.7550
G01 X-14.4206 Y-15.8251
G01 X-14.4673 Y-15.9031
G01 X-14.5062 Y-15.9853
G01 X-14.5369 Y-16.0710
G01 X-14.5590 Y-16.1592
G01 X-14.5723 Y-16.2492
G01 X-14.5768 Y-16.3400
G01 X-14.5723 Y-16.4308
G01 X-14.5590 Y-16.5208
G01 X-14.5369 Y-16.6090
G01 X-14.5062 Y-16.6947
G01 X-14.4690 Y-16.7735
G01 X-14.4655 Y-16.7802
G01 X-14.4226 Y-16.8517
G01 X-14.4184 Y-16.8580
G01 X-14.3664 Y-16.9280
G01 X-14.3040 Y-16.9967
G01 X-14.2379 Y-17.0564
G01 X-14.1649 Y-17.1106
G01 X-14.0869 Y-17.1574
G01 X-14.0046 Y-17.1963
G01 X-13.9190 Y-17.2269
G01 X-13.8308 Y-17.2490
G01 X-13.7408 Y-17.2623
G01 X-13.6537 Y-17.2667
G01 X-13.7249 Y-17.3862
G01 X-13.6507 Y-17.3897
G01 X-13.5797 Y-17.3865
G01 X-13.5883 Y-17.4006
G01 X-13.5949 Y-17.4138
G01 X-13.6006 Y-17.4274
G01 X-13.6053 Y-17.4417
G01 X-13.6320 Y-17.5363
G01 X-13.6334 Y-17.5417
G01 X-13.6336 Y-17.5425
G01 X-13.6341 Y-17.5443
G01 X-13.6346 Y-17.5465
G01 X-13.6366 Y-17.5568
G01 X-13.6383 Y-17.5692
G01 X-13.6393 Y-17.5812
G01 X-13.6395 Y-17.5929
G01 X-13.6383 Y-17.6124
G01 X-13.6265 Y-17.7115
G01 X-13.6243 Y-17.7257
G01 X-13.6213 Y-17.7385
G01 X-13.6153 Y-17.7572
G01 X-13.6078 Y-17.7745
G01 X-13.6028 Y-17.7842
G01 X-13.5750 Y-17.8338
G01 X-13.6492 Y-17.8303
G01 X-13.7202 Y-17.8335
G01 X-13.7116 Y-17.8194
G01 X-13.7050 Y-17.8062
G01 X-13.6994 Y-17.7927
G01 X-13.6947 Y-17.7783
G01 X-13.6680 Y-17.6837
G01 X-13.6654 Y-17.6735
G01 X-13.6630 Y-17.6613
G01 X-13.6616 Y-17.6508
G01 X-13.6607 Y-17.6388
G01 X-13.6605 Y-17.6271
G01 X-13.6617 Y-17.6076
G01 X-13.6734 Y-17.5085
G01 X-13.6757 Y-17.4943
G01 X-13.6787 Y-17.4815
G01 X-13.6847 Y-17.4628
G01 X-13.6921 Y-17.4455
G01 X-13.6972 Y-17.4358
G01 X-13.7249 Y-17.3862
G01 X-13.4145 Y-17.9213
G01 X-13.4513 Y-17.9121
G01 X-13.4598 Y-17.9103
G01 X-13.5490 Y-17.8970
G01 X-13.5599 Y-17.8960
G01 X-13.6492 Y-17.8918
G01 X-13.7401 Y-17.8960
G01 X-13.7495 Y-17.8968
G01 X-13.8402 Y-17.9103
G01 X-13.8783 Y-17.9195
G01 X-13.8683 Y-17.9132
G01 X-13.8589 Y-17.9062
G01 X-13.8499 Y-17.8981
G01 X-13.8420 Y-17.8896
G01 X-13.7764 Y-17.8065
G01 X-13.7705 Y-17.7982
G01 X-13.7646 Y-17.7881
G01 X-13.7588 Y-17.7759
G01 X-13.7542 Y-17.7631
G01 X-13.7264 Y-17.6645
G01 X-13.7242 Y-17.6546
G01 X-13.7230 Y-17.6464
G01 X-13.7221 Y-17.6362
G01 X-13.7219 Y-17.6276
G01 X-13.7229 Y-17.6133
G01 X-13.7351 Y-17.5108
G01 X-13.7371 Y-17.5009
G01 X-13.7403 Y-17.4896
G01 X-13.7439 Y-17.4801
G01 X-13.7481 Y-17.4708
G01 X-13.7997 Y-17.3785
G01 X-13.8052 Y-17.3699
G01 X-13.8113 Y-17.3617
G01 X-13.8203 Y-17.3516
G01 X-13.8302 Y-17.3423
G01 X-13.8855 Y-17.2987
G01 X-13.8487 Y-17.3079
G01 X-13.8402 Y-17.3097
G01 X-13.7510 Y-17.3230
G01 X-13.7401 Y-17.3240
G01 X-13.6568 Y-17.3281
G01 X-13.6507 Y-17.3282
G01 X-13.5599 Y-17.3240
G01 X-13.5505 Y-17.3232
G01 X-13.4598 Y-17.3097
G01 X-13.4217 Y-17.3005
G01 X-13.4317 Y-17.3068
G01 X-13.4410 Y-17.3138
G01 X-13.4500 Y-17.3219
G01 X-13.4580 Y-17.3304
G01 X-13.5236 Y-17.4135
G01 X-13.5294 Y-17.4218
G01 X-13.5354 Y-17.4319
G01 X-13.5412 Y-17.4441
G01 X-13.5457 Y-17.4569
G01 X-13.5735 Y-17.5555
G01 X-13.5754 Y-17.5636
G01 X-13.5770 Y-17.5736
G01 X-13.5778 Y-17.5823
G01 X-13.5780 Y-17.5924
G01 X-13.5771 Y-17.6067
G01 X-13.5657 Y-17.7032
G01 X-13.5648 Y-17.7092
G01 X-13.5628 Y-17.7191
G01 X-13.5601 Y-17.7289
G01 X-13.5566 Y-17.7385
G01 X-13.5518 Y-17.7492
G01 X-13.5002 Y-17.8415
G01 X-13.4947 Y-17.8501
G01 X-13.4887 Y-17.8583
G01 X-13.4797 Y-17.8684
G01 X-13.4697 Y-17.8777
G01 X-13.4145 Y-17.9213
G00 Z2.0000
G00 X-13.6537 Y-19.8067
G01 F25.00
G01 Z-0.1000
G01 F120.00
G01 X-13.6462 Y-19.8067
G01 X-13.5591 Y-19.8023
G01 X-13.4692 Y-19.7890
G01 X-13.3809 Y-19.7669
G01 X-13.2953 Y-19.7363
G01 X-13.2131 Y-19.6974
G01 X-13.1351 Y-19.6506
G01 X-13.0620 Y-19.5964
G01 X-12.9946 Y-19.5353
G01 X-12.9335 Y-19.4680
G01 X-12.8794 Y-19.3949
G01 X-12.8326 Y-19.3169
G01 X-12.7937 Y-19.2347
G01 X-12.7631 Y-19.1490
G01 X-12.7410 Y-19.0608
G01 X-12.7276 Y-18.9708
G01 X-12.7232 Y-18.8800
G01 X-12.7276 Y-18.7892
G01 X-12.7410 Y-18.6992
G01 X-12.7631 Y-18.6110
G01 X-12.7937 Y-18.5253
G01 X-12.8326 Y-18.4431
G01 X-12.8794 Y-18.3651
G01 X-12.9335 Y-18.2920
G01 X-12.9946 Y-18.2247
G01 X-13.0620 Y-18.1636
G01 X-13.1351 Y-18.1094
G01 X-13.2131 Y-18.0626
G01 X-13.2953 Y-18.0237
G01 X-13.3809 Y-17.9931
G01 X-13.4692 Y-17.9710
G01 X-13.5591 Y-17.9577
G01 X-13.6500 Y-17.9532
G01 X-13.7408 Y-17.9577
G01 X-13.8308 Y-17.9710
G01 X-13.9190 Y-17.9931
G01 X-14.0011 Y-18.0224
G01 X-14.0081 Y-18.0253
G01 X-14.0869 Y-18.0626
G01 X-14.1617 Y-18.1074
G01 X-14.1680 Y-18.1116
G01 X-14.2350 Y-18.1613
G01 X-14.2408 Y-18.1660
G01 X-14.3053 Y-18.2247
G01 X-14.3639 Y-18.2892
G01 X-14.3687 Y-18.2950
G01 X-14.4206 Y-18.3651
G01 X-14.4673 Y-18.4431
G01 X-14.5062 Y-18.5253
G01 X-14.5369 Y-18.6110
G01 X-14.5590 Y-18.6992
G01 X-14.5723 Y-18.7892
G01 X-14.5768 Y-18.8800
G01 X-14.5723 Y-18.9708
G01 X-14.5590 Y-19.0608
G01 X-14.5369 Y-19.1490
G01 X-14.5062 Y-19.2347
G01 X-14.4690 Y-19.3135
G01 X-14.4655 Y-19.3202
G01 X-14.4226 Y-19.3917
G01 X-14.4184 Y-19.3980
G01 X-14.3664 Y-19.4680
G01 X-14.3040 Y-19.5367
G01 X-14.2379 Y-19.5964
G01 X-14.1649 Y-19.6506
G01 X-14.0869 Y-19.6974
G01 X-14.0046 Y-19.7363
G01 X-13.9190 Y-19.7669
G01 X-13.8308 Y-19.7890
G01 X-13.7408 Y-19.8023
G01 X-13.6537 Y-19.8067
G01 X-13.7249 Y-19.9262
G01 X-13.6507 Y-19.9297
G01 X-13.5797 Y-19.9265
G01 X-13.5883 Y-19.9406
G01 X-13.5949 Y-19.9538
G01 X-13.6006 Y-19.9674
G01 X-13.6053 Y-19.9817
G01 X-13.6320 Y-20.0763
G01 X-13.6334 Y-20.0817
G01 X-13.6336 Y-20.0825
G01 X-13.6341 Y-20.0843
G01 X-13.6346 Y-20.0865
G01 X-13.6369 Y-20.0987
G01 X-13.6383 Y-20.1092
G01 X-13.6393 Y-20.1212
G01 X-13.6395 Y-20.1329
G01 X-13.6383 Y-20.1524
G01 X-13.6265 Y-20.2515
G01 X-13.6243 Y-20.2657
G01 X-13.6213 Y-20.2785
G01 X-13.6153 Y-20.2972
G01 X-13.6078 Y-20.3145
G01 X-13.6028 Y-20.3242
G01 X-13.5750 Y-20.3738
G01 X-13.6492 Y-20.3703
G01 X-13.7202 Y-20.3735
G01 X-13.7116 Y-20.3594
G01 X-13.7050 Y-20.3462
G01 X-13.6994 Y-20.3327
G01 X-13.6947 Y-20.3183
G01 X-13.6680 Y-20.2237
G01 X-13.6654 Y-20.2135
G01 X-13.6633 Y-20.2032
G01 X-13.6616 Y-20.1908
G01 X-13.6607 Y-20.1788
G01 X-13.6605 Y-20.1671
G01 X-13.6617 Y-20.1476
G01 X-13.6734 Y-20.0485
G01 X-13.6757 Y-20.0343
G01 X-13.6787 Y-20.0215
G01 X-13.6847 Y-20.0028
G01 X-13.6921 Y-19.9855
G01 X-13.6972 Y-19.9758
G01 X-13.7249 Y-19.9262
G01 X-13.4145 Y-20.4613
G01 X-13.4513 Y-20.4521
G01 X-13.4598 Y-20.4503
G01 X-13.5490 Y-20.4370
G01 X-13.5599 Y-20.4360
G01 X-13.6492 Y-20.4318
G01 X-13.7401 Y-20.4360
G01 X-13.7495 Y-20.4368
G01 X-13.8402 Y-20.4503
G01 X-13.8783 Y-20.4595
G01 X-13.8683 Y-20.4532
G01 X-13.8589 Y-20.4462
G01 X-13.8499 Y-20.4381
G01 X-13.8420 Y-20.4296
G01 X-13.7764 Y-20.3465
G01 X-13.7697 Y-20.3369
G01 X-13.7646 Y-20.3281
G01 X-13.7588 Y-20.3159
G01 X-13.7542 Y-20.3031
G01 X-13.7264 Y-20.2045
G01 X-13.7246 Y-20.1964
G01 X-13.7230 Y-20.1864
G01 X-13.7221 Y-20.1762
G01 X-13.7219 Y-20.1676
G01 X-13.7229 Y-20.1533
G01 X-13.7351 Y-20.0508
G01 X-13.7371 Y-20.0409
G01 X-13.7403 Y-20.0296
G01 X-13.7439 Y-20.0201
G01 X-13.7481 Y-20.0108
G01 X-13.7997 Y-19.9185
G01 X-13.8052 Y-19.9099
G01 X-13.8113 Y-19.9017
G01 X-13.8203 Y-19.8916
G01 X-13.8302 Y-19.8823
G01 X-13.8855 Y-19.8387
G01 X-13.8487 Y-19.8479
G01 X-13.8402 Y-19.8497
G01 X-13.7510 Y-19.8630
G01 X-13.7401 Y-19.8640
G01 X-13.6568 Y-19.8681
G01 X-13.6507 Y-19.8682
G01 X-13.5599 Y-19.8640
G01 X-13.5505 Y-19.8632
G01 X-13.4598 Y-19.8497
G01 X-13.4217 Y-19.8405
G01 X-13.4317 Y-19.8468
G01 X-13.4410 Y-19.8538
G01 X-13.4500 Y-19.8619
G01 X-13.4580 Y-19.8704
G01 X-13.5236 Y-19.9535
G01 X-13.5294 Y-19.9618
G01 X-13.5354 Y-19.9719
G01 X-13.5412 Y-19.9841
G01 X-13.5457 Y-19.9969
G01 X-13.5735 Y-20.0955
G01 X-13.5754 Y-20.1036
G01 X-13.5770 Y-20.1136
G01 X-13.5778 Y-20.1223
G01 X-13.5780 Y-20.1324
G01 X-13.5771 Y-20.1467
G01 X-13.5657 Y-20.2432
G01 X-13.5648 Y-20.2492
G01 X-13.5628 Y-20.2591
G01 X-13.5596 Y-20.2704
G01 X-13.5561 Y-20.2799
G01 X-13.5518 Y-20.2892
G01 X-13.5002 Y-20.3815
G01 X-13.4947 Y-20.3901
G01 X-13.4887 Y-20.3983
G01 X-13.4797 Y-20.4084
G01 X-13.4697 Y-20.4177
G01 X-13.4145 Y-20.4613
G00 Z2.0000
G00 X-13.6537 Y-22.3467
G01 F25.00
G01 Z-0.1000
G01 F120.00
G01 X-13.6462 Y-22.3467
G01 X-13.5591 Y-22.3423
G01 X-13.4692 Y-22.3290
G01 X-13.3809 Y-22.3069
G01 X-13.2953 Y-22.2763
G01 X-13.2131 Y-22.2374
G01 X-13.1351 Y-22.1906
G01 X-13.0620 Y-22.1364
G01 X-12.9946 Y-22.0753
G01 X-12.9335 Y-22.0080
G01 X-12.8794 Y-21.9349
G01 X-12.8326 Y-21.8569
G01 X-12.7937 Y-21.7747
G01 X-12.7631 Y-21.6890
G01 X-12.7410 Y-21.6008
G01 X-12.7276 Y-21.5108
G01 X-12.7232 Y-21.4200
G01 X-12.7276 Y-21.3292
G01 X-12.7410 Y-21.2392
G01 X-12.7631 Y-21.1510
G01 X-12.7937 Y-21.0653
G01 X-12.8326 Y-20.9831
G01 X-12.8794 Y-20.9051
G01 X-12.9335 Y-20.8320
G01 X-12.9946 Y-20.7647
G01 X-13.0620 Y-20.7036
G01 X-13.1351 Y-20.6494
G01 X-13.2131 Y-20.6026
G01 X-13.2953 Y-20.5637
G01 X-13.3809 Y-20.5331
G01 X-13.4692 Y-20.5110
G01 X-13.5591 Y-20.4977
G01 X-13.6500 Y-20.4932
G01 X-13.7408 Y-20.4977
G01 X-13.8308 Y-20.5110
G01 X-13.9190 Y-20.5331
G01 X-14.0011 Y-20.5624
G01 X-14.0081 Y-20.5653
G01 X-14.0869 Y-20.6026
G01 X-14.1617 Y-20.6474
G01 X-14.1680 Y-20.6516
G01 X-14.2350 Y-20.7013
G01 X-14.2408 Y-20.7060
G01 X-14.3053 Y-20.7647
G01 X-14.3639 Y-20.8292
G01 X-14.3687 Y-20.8350
G01 X-14.4206 Y-20.9051
G01 X-14.4673 Y-20.9831
G01 X-14.5062 Y-21.0653
G01 X-14.5369 Y-21.1510
G01 X-14.5590 Y-21.2392
G01 X-14.5723 Y-21.3292
G01 X-14.5768 Y-21.4200
G01 X-14.5723 Y-21.5108
G01 X-14.5590 Y-21.6008
G01 X-14.5369 Y-21.6890
G01 X-14.5062 Y-21.7747
G01 X-14.4690 Y-21.8535
G01 X-14.4655 Y-21.8602
G01 X-14.4226 Y-21.9317
G01 X-14.4184 Y-21.9380
G01 X-14.3664 Y-22.0080
G01 X-14.3040 Y-22.0767
G01 X-14.2379 Y-22.1364
G01 X-14.1649 Y-22.1906
G01 X-14.0869 Y-22.2374
G01 X-14.0046 Y-22.2763
G01 X-13.9190 Y-22.3069
G01 X-13.8308 Y-22.3290
G01 X-13.7408 Y-22.3423
G01 X-13.6537 Y-22.3467
G01 X-13.7249 Y-22.4662
G01 X-13.6507 Y-22.4697
G01 X-13.5797 Y-22.4665
G01 X-13.5883 Y-22.4806
G01 X-13.5949 Y-22.4938
G01 X-13.6006 Y-22.5074
G01 X-13.6053 Y-22.5217
G01 X-13.6320 Y-22.6163
G01 X-13.6334 Y-22.6217
G01 X-13.6336 Y-22.6225
G01 X-13.6341 Y-22.6243
G01 X-13.6346 Y-22.6265
G01 X-13.6369 Y-22.6387
G01 X-13.6383 Y-22.6492
G01 X-13.6393 Y-22.6612
G01 X-13.6395 Y-22.6729
G01 X-13.6383 Y-22.6924
G01 X-13.6265 Y-22.7915
G01 X-13.6243 Y-22.8057
G01 X-13.6213 Y-22.8185
G01 X-13.6153 Y-22.8372
G01 X-13.6078 Y-22.8545
G01 X-13.6028 Y-22.8642
G01 X-13.5750 Y-22.9138
G01 X-13.6492 Y-22.9103
G01 X-13.7202 Y-22.9135
G01 X-13.7116 Y-22.8994
G01 X-13.7050 Y-22.8862
G01 X-13.6994 Y-22.8727
G01 X-13.6947 Y-22.8583
G01 X-13.6680 Y-22.7637
G01 X-13.6654 Y-22.7535
G01 X-13.6633 Y-22.7432
G01 X-13.6616 Y-22.7308
G01 X-13.6607 Y-22.7188
G01 X-13.6605 Y-22.7071
G01 X-13.6617 Y-22.6876
G01 X-13.6734 Y-22.5885
G01 X-13.6757 Y-22.5743
G01 X-13.6787 Y-22.5615
G01 X-13.6847 Y-22.5428
G01 X-13.6921 Y-22.5255
G01 X-13.6972 Y-22.5158
G01 X-13.7249 Y-22.4662
G01 X-13.4145 Y-23.0013
G01 X-13.4513 Y-22.9921
G01 X-13.4598 Y-22.9903
G01 X-13.5490 Y-22.9770
G01 X-13.5599 Y-22.9760
G01 X-13.6492 Y-22.9718
G01 X-13.7401 Y-22.9760
G01 X-13.7495 Y-22.9768
G01 X-13.8402 Y-22.9903
G01 X-13.8783 Y-22.9995
G01 X-13.8683 Y-22.9932
G01 X-13.8589 Y-22.9862
G01 X-13.8499 Y-22.9781
G01 X-13.8420 Y-22.9696
G01 X-13.7764 Y-22.8865
G01 X-13.7697 Y-22.8769
G01 X-13.7646 Y-22.8681
G01 X-13.7588 Y-22.8559
G01 X-13.7542 Y-22.8431
G01 X-13.7264 Y-22.7445
G01 X-13.7242 Y-22.7346
G01 X-13.7230 Y-22.7264
G01 X-13.7221 Y-22.7162
G01 X-13.7219 Y-22.7076
G01 X-13.7229 Y-22.6933
G01 X-13.7351 Y-22.5908
G01 X-13.7371 Y-22.5809
G01 X-13.7403 Y-22.5696
G01 X-13.7439 Y-22.5601
G01 X-13.7481 Y-22.5508
G01 X-13.7997 Y-22.4585
G01 X-13.8052 Y-22.4499
G01 X-13.8113 Y-22.4417
G01 X-13.8203 Y-22.4316
G01 X-13.8302 Y-22.4223
G01 X-13.8855 Y-22.3787
G01 X-13.8487 Y-22.3879
G01 X-13.8402 Y-22.3897
G01 X-13.7510 Y-22.4030
G01 X-13.7401 Y-22.4040
G01 X-13.6568 Y-22.4081
G01 X-13.6507 Y-22.4082
G01 X-13.5599 Y-22.4040
G01 X-13.5505 Y-22.4032
G01 X-13.4598 Y-22.3897
G01 X-13.4217 Y-22.3805
G01 X-13.4317 Y-22.3868
G01 X-13.4410 Y-22.3938
G01 X-13.4500 Y-22.4019
G01 X-13.4580 Y-22.4104
G01 X-13.5236 Y-22.4935
G01 X-13.5303 Y-22.5031
G01 X-13.5354 Y-22.5119
G01 X-13.5412 Y-22.5241
G01 X-13.5457 Y-22.5369
G01 X-13.5735 Y-22.6355
G01 X-13.5754 Y-22.6436
G01 X-13.5770 Y-22.6536
G01 X-13.5778 Y-22.6623
G01 X-13.5780 Y-22.6724
G01 X-13.5771 Y-22.6867
G01 X-13.5657 Y-22.7832
G01 X-13.5648 Y-22.7892
G01 X-13.5628 Y-22.7991
G01 X-13.5596 Y-22.8104
G01 X-13.5561 Y-22.8199
G01 X-13.5518 Y-22.8292
G01 X-13.5002 Y-22.9215
G01 X-13.4947 Y-22.9301
G01 X-13.4887 Y-22.9383
G01 X-13.4797 Y-22.9484
G01 X-13.4697 Y-22.9577
G01 X-13.4145 Y-23.0013
G00 Z2.0000
G00 X-13.6537 Y-24.8867
G01 F25.00
G01 Z-0.1000
G01 F120.00
G01 X-13.6462 Y-24.8867
G01 X-13.5591 Y-24.8823
G01 X-13.4692 Y-24.8690
G01 X-13.3809 Y-24.8469
G01 X-13.2953 Y-24.8163
G01 X-13.2131 Y-24.7774
G01 X-13.1351 Y-24.7306
G01 X-13.0620 Y-24.6764
G01 X-12.9946 Y-24.6153
G01 X-12.9335 Y-24.5480
G01 X-12.8794 Y-24.4749
G01 X-12.8326 Y-24.3969
G01 X-12.7937 Y-24.3147
G01 X-12.7631 Y-24.2290
G01 X-12.7410 Y-24.1408
G01 X-12.7276 Y-24.0508
G01 X-12.7232 Y-23.9600
G01 X-12.7276 Y-23.8692
G01 X-12.7410 Y-23.7792
G01 X-12.7631 Y-23.6910
G01 X-12.7937 Y-23.6053
G01 X-12.8326 Y-23.5231
G01 X-12.8794 Y-23.4451
G01 X-12.9335 Y-23.3720
G01 X-12.9946 Y-23.3047
G01 X-13.0620 Y-23.2436
G01 X-13.1351 Y-23.1894
G01 X-13.2131 Y-23.1426
G01 X-13.2953 Y-23.1037
G01 X-13.3809 Y-23.0731
G01 X-13.4692 Y-23.0510
G01 X-13.5591 Y-23.0377
G01 X-13.6500 Y-23.0332
G01 X-13.7408 Y-23.0377
G01 X-13.8308 Y-23.0510
G01 X-13.9190 Y-23.0731
G01 X-14.0011 Y-23.1024
G01 X-14.0081 Y-23.1053
G01 X-14.0869 Y-23.1426
G01 X-14.1617 Y-23.1874
G01 X-14.1680 Y-23.1916
G01 X-14.2350 Y-23.2413
G01 X-14.2408 Y-23.2460
G01 X-14.3053 Y-23.3047
G01 X-14.3639 Y-23.3692
G01 X-14.3687 Y-23.3750
G01 X-14.4206 Y-23.4451
G01 X-14.4673 Y-23.5231
G01 X-14.5062 Y-23.6053
G01 X-14.5369 Y-23.6910
G01 X-14.5590 Y-23.7792
G01 X-14.5723 Y-23.8692
G01 X-14.5768 Y-23.9600
G01 X-14.5721 Y-24.0527
G01 X-14.5590 Y-24.1408
G01 X-14.5369 Y-24.2290
G01 X-14.5062 Y-24.3147
G01 X-14.4690 Y-24.3935
G01 X-14.4655 Y-24.4002
G01 X-14.4226 Y-24.4717
G01 X-14.4184 Y-24.4780
G01 X-14.3664 Y-24.5480
G01 X-14.3079 Y-24.6126
G01 X-14.3026 Y-24.6179
G01 X-14.2379 Y-24.6764
G01 X-14.1649 Y-24.7306
G01 X-14.0869 Y-24.7774
G01 X-14.0046 Y-24.8163
G01 X-13.9190 Y-24.8469
G01 X-13.8308 Y-24.8690
G01 X-13.7408 Y-24.8823
G01 X-13.6537 Y-24.8867
G01 X-13.6684 Y-25.2658
G01 X-13.6591 Y-25.2187
G01 X-13.6555 Y-25.1940
G01 X-13.6454 Y-25.1940
G01 X-13.6438 Y-25.2122
G01 X-13.6415 Y-25.2300
G01 X-13.6381 Y-25.2483
G01 X-13.6340 Y-25.2657
G01 X-13.6684 Y-25.2658
G01 X-13.7439 Y-25.3273
G01 X-13.7396 Y-25.3088
G01 X-13.7205 Y-25.2126
G01 X-13.7178 Y-25.1969
G01 X-13.7159 Y-25.1806
G01 X-13.7147 Y-25.1639
G01 X-13.7145 Y-25.1475
G01 X-13.7151 Y-25.1297
G01 X-13.6639 Y-25.1323
G01 X-13.6635 Y-25.1323
G01 X-13.6632 Y-25.1323
G01 X-13.6631 Y-25.1323
G01 X-13.6628 Y-25.1323
G01 X-13.6602 Y-25.1324
G01 X-13.6566 Y-25.1325
G01 X-13.6492 Y-25.1326
G01 X-13.6352 Y-25.1322
G01 X-13.5822 Y-25.1296
G01 X-13.5842 Y-25.1509
G01 X-13.5847 Y-25.1739
G01 X-13.5837 Y-25.1961
G01 X-13.5812 Y-25.2174
G01 X-13.5784 Y-25.2338
G01 X-13.5745 Y-25.2507
G01 X-13.5530 Y-25.3271
G01 X-13.7439 Y-25.3273
G01 X-13.8376 Y-25.3889
G01 X-13.8279 Y-25.3728
G01 X-13.8191 Y-25.3557
G01 X-13.8117 Y-25.3380
G01 X-13.8056 Y-25.3198
G01 X-13.8025 Y-25.3085
G01 X-13.8000 Y-25.2975
G01 X-13.7809 Y-25.2013
G01 X-13.7788 Y-25.1896
G01 X-13.7771 Y-25.1753
G01 X-13.7761 Y-25.1611
G01 X-13.7759 Y-25.1460
G01 X-13.7767 Y-25.1305
G01 X-13.7780 Y-25.1178
G01 X-13.7796 Y-25.1066
G01 X-13.7884 Y-25.0617
G01 X-13.7664 Y-25.0649
G01 X-13.7514 Y-25.0664
G01 X-13.6626 Y-25.0708
G01 X-13.6613 Y-25.0709
G01 X-13.6611 Y-25.0709
G01 X-13.6607 Y-25.0709
G01 X-13.6605 Y-25.0709
