(G-CODE GENERATED BY FLATCAM v8.994 - www.flatcam.org - Version Date: 2020/11/7)

(Name: Oscilatorio_1-PTH.drl_1_cnc)
(Type: G-code from Geometry)
(Units: MM)

(Created on Saturday, 04 October 2025 at 22:43)

(This preprocessor is the default preprocessor used by FlatCAM.)
(It is made to work with MACH3 compatible motion controllers.)


(TOOLS DIAMETER: )
(Tool: 1 -> Dia: 1.0)

(FEEDRATE Z: )
(Tool: 1 -> Feedrate: 25.0)

(FEEDRATE RAPIDS: )
(Tool: 1 -> Feedrate Rapids: 1500.0)

(Z_CUT: )
(Tool: 1 -> Z_Cut: -2.5)

(Tools Offset: )
(Tool: 1 -> Offset Z: 0.0)

(Z_MOVE: )
(Tool: 1 -> Z_Move: 1.5)

(Z Toolchange: 15 mm)
(X,Y Toolchange: 0.0000, 0.0000 mm)
(Z Start: None mm)
(Z End: 2.5 mm)
(X,Y End: 0.0000, 0.0000 mm)
(Steps per circle: 64)
(Preprocessor Excellon: default)

(X range:  -14.1500 ...   12.7500  mm)
(Y range:  -27.0000 ...   -8.0000  mm)

(Spindle Speed: 10000 RPM)
G21
G90
G94

G01 F25.00

M5
G00 Z15.0000
T1
G00 X0.0000 Y0.0000                
M6
(MSG, Change to Tool Dia = 1.0000 ||| Total drills for tool T1 = 25)
M0
G00 Z15.0000

G01 F25.00
M03 S10000
G00 X12.2500 Y-26.3000
G01 Z-2.5000
G01 Z0
G00 Z1.5000
G00 X9.7100 Y-26.3000
G01 Z-2.5000
G01 Z0
G00 Z1.5000
G00 X7.1700 Y-26.3000
G01 Z-2.5000
G01 Z0
G00 Z1.5000
G00 X1.5500 Y-26.5000
G01 Z-2.5000
G01 Z0
G00 Z1.5000
G00 X-13.6500 Y-26.5000
G01 Z-2.5000
G01 Z0
G00 Z1.5000
G00 X-13.6500 Y-23.9600
G01 Z-2.5000
G01 Z0
G00 Z1.5000
G00 X-13.6500 Y-21.4200
G01 Z-2.5000
G01 Z0
G00 Z1.5000
G00 X-13.6500 Y-18.8800
G01 Z-2.5000
G01 Z0
G00 Z1.5000
G00 X-13.6500 Y-16.3400
G01 Z-2.5000
G01 Z0
G00 Z1.5000
G00 X-13.6500 Y-13.8000
G01 Z-2.5000
G01 Z0
G00 Z1.5000
G00 X-13.6500 Y-11.2600
G01 Z-2.5000
G01 Z0
G00 Z1.5000
G00 X-13.6500 Y-8.7200
G01 Z-2.5000
G01 Z0
G00 Z1.5000
G00 X1.5500 Y-11.2600
G01 Z-2.5000
G01 Z0
G00 Z1.5000
G00 X1.5500 Y-8.7200
G01 Z-2.5000
G01 Z0
G00 Z1.5000
G00 X7.9100 Y-8.5000
G01 Z-2.5000
G01 Z0
G00 Z1.5000
G00 X10.4500 Y-8.5000
G01 Z-2.5000
G01 Z0
G00 Z1.5000
G00 X12.0500 Y-16.6000
G01 Z-2.5000
G01 Z0
G00 Z1.5000
G00 X12.0500 Y-19.1400
G01 Z-2.5000
G01 Z0
G00 Z1.5000
G00 X6.2500 Y-19.1400
G01 Z-2.5000
G01 Z0
G00 Z1.5000
G00 X6.2500 Y-16.6000
G01 Z-2.5000
G01 Z0
G00 Z1.5000
G00 X1.5500 Y-13.8000
G01 Z-2.5000
G01 Z0
G00 Z1.5000
G00 X1.5500 Y-16.3400
G01 Z-2.5000
G01 Z0
G00 Z1.5000
G00 X1.5500 Y-18.8800
G01 Z-2.5000
G01 Z0
G00 Z1.5000
G00 X1.5500 Y-21.4200
G01 Z-2.5000
G01 Z0
G00 Z1.5000
G00 X1.5500 Y-23.9600
G01 Z-2.5000
G01 Z0
G00 Z1.5000
M05
G00 Z2.50
G00 X0.0 Y0.0


