(G-CODE GENERATED BY FLATCAM v8.994 - www.flatcam.org - Version Date: 2020/11/7)

(Name: M¾dulo Patas-Edge_Cuts.gbr_cutout_cnc)
(Type: G-code from Geometry)
(Units: MM)

(Created on Saturday, 04 October 2025 at 22:49)

(This preprocessor is the default preprocessor used by FlatCAM.)
(It is made to work with MACH3 compatible motion controllers.)

(TOOL DIAMETER: 2.1 mm)
(Feedrate_XY: 120.0 mm/min)
(Feedrate_Z: 60.0 mm/min)
(Feedrate rapids 1500.0 mm/min)

(Z_Cut: -2.4 mm)
(Z_Move: 2.0 mm)
(Z Start: None mm)
(Z End: 2.5 mm)
(X,Y End: 0.0000, 0.0000 mm)
(Steps per circle: 64)
(Preprocessor Geometry: default)

(X range:   18.8250 ...   61.1750  mm)
(Y range:  -24.1750 ...   28.1750  mm)

(Spindle Speed: 10000.0 RPM)
G21
G90
G94

G01 F120.00

M5
G00 Z15.0000
G00 X0.0000 Y0.0000
T1
M6    
(MSG, Change to Tool Dia = 2.1000)
M0
G00 Z15.0000

M03 S10000.0
G01 F120.00
G00 X38.0500 Y-24.1750
G01 F60.00
G01 Z-2.4000
G01 F120.00
G01 X19.9750 Y-24.1750
G01 X19.8623 Y-24.1695
G01 X19.7506 Y-24.1529
G01 X19.6412 Y-24.1255
G01 X19.5349 Y-24.0875
G01 X19.4329 Y-24.0392
G01 X19.3361 Y-23.9812
G01 X19.2454 Y-23.9140
G01 X19.1618 Y-23.8382
G01 X19.0860 Y-23.7546
G01 X19.0188 Y-23.6639
G01 X18.9608 Y-23.5671
G01 X18.9125 Y-23.4651
G01 X18.8745 Y-23.3588
G01 X18.8471 Y-23.2494
G01 X18.8305 Y-23.1377
G01 X18.8250 Y-23.0250
G01 X18.8250 Y27.0250
G01 X18.8305 Y27.1377
G01 X18.8471 Y27.2494
G01 X18.8745 Y27.3588
G01 X18.9125 Y27.4651
G01 X18.9608 Y27.5671
G01 X19.0188 Y27.6639
G01 X19.0860 Y27.7546
G01 X19.1618 Y27.8382
G01 X19.2454 Y27.9140
G01 X19.3361 Y27.9812
G01 X19.4329 Y28.0392
G01 X19.5349 Y28.0875
G01 X19.6412 Y28.1255
G01 X19.7506 Y28.1529
G01 X19.8623 Y28.1695
G01 X19.9750 Y28.1750
G01 X38.0500 Y28.1750
G00 Z2.0000
G00 X42.1500 Y28.1750
G01 F60.00
G01 Z-2.4000
G01 F120.00
G01 X60.0250 Y28.1750
G01 X60.1377 Y28.1695
G01 X60.2494 Y28.1529
G01 X60.3588 Y28.1255
G01 X60.4651 Y28.0875
G01 X60.5671 Y28.0392
G01 X60.6639 Y27.9812
G01 X60.7546 Y27.9140
G01 X60.8382 Y27.8382
G01 X60.9140 Y27.7546
G01 X60.9812 Y27.6639
G01 X61.0392 Y27.5671
G01 X61.0875 Y27.4651
G01 X61.1255 Y27.3588
G01 X61.1529 Y27.2494
G01 X61.1695 Y27.1377
G01 X61.1750 Y27.0250
G01 X61.1750 Y-23.0250
G01 X61.1695 Y-23.1377
G01 X61.1529 Y-23.2494
G01 X61.1255 Y-23.3588
G01 X61.0875 Y-23.4651
G01 X61.0392 Y-23.5671
G01 X60.9812 Y-23.6639
G01 X60.9140 Y-23.7546
G01 X60.8382 Y-23.8382
G01 X60.7546 Y-23.9140
G01 X60.6639 Y-23.9812
G01 X60.5671 Y-24.0392
G01 X60.4651 Y-24.0875
G01 X60.3588 Y-24.1255
G01 X60.2494 Y-24.1529
G01 X60.1377 Y-24.1695
G01 X60.0250 Y-24.1750
G01 X42.1500 Y-24.1750
G00 Z2.0000
M05
G00 Z2.0000
G00 Z2.50
G00 X0.0 Y0.0


