(G-CODE GENERATED BY FLATCAM v8.994 - www.flatcam.org - Version Date: 2020/11/7)

(Name: Oscilatorio_1-Edge_Cuts.gbr_panelized_cutout_1_cnc)
(Type: G-code from Geometry)
(Units: MM)

(Created on Sunday, 05 October 2025 at 01:18)

(This preprocessor is the default preprocessor used by FlatCAM.)
(It is made to work with MACH3 compatible motion controllers.)

(TOOL DIAMETER: 2.3 mm)
(Feedrate_XY: 25.0 mm/min)
(Feedrate_Z: 25.0 mm/min)
(Feedrate rapids 1500.0 mm/min)

(Z_Cut: -1.6 mm)
(Z_Move: 2.0 mm)
(Z Start: None mm)
(Z End: 5.0 mm)
(X,Y End: 0.0000, 0.0000 mm)
(Steps per circle: 64)
(Preprocessor Geometry: default)

(X range:  -52.1750 ...   17.2250  mm)
(Y range:  -34.1750 ...   35.2250  mm)

(Spindle Speed: 10000.0 RPM)
G21
G90
G94

G01 F25.00

M5
G00 Z15.0000
G00 X0.0000 Y0.0000
T1
M6    
(MSG, Change to Tool Dia = 2.3000)
M0
G00 Z15.0000

M03 S10000.0
G01 F25.00
G00 X-17.1250 Y-15.1000
G01 F25.00
G01 Z-1.6000
G01 F25.00
G01 X-17.1250 Y-0.9750
G01 X-17.1195 Y-0.8623
G01 X-17.1029 Y-0.7506
G01 X-17.0755 Y-0.6412
G01 X-17.0374 Y-0.5349
G01 X-16.9892 Y-0.4329
G01 X-16.9312 Y-0.3361
G01 X-16.8639 Y-0.2454
G01 X-16.7882 Y-0.1618
G01 X-16.7045 Y-0.0860
G01 X-16.6139 Y-0.0188
G01 X-16.5171 Y0.0392
G01 X-16.4151 Y0.0875
G01 X-16.3088 Y0.1255
G01 X-16.1993 Y0.1529
G01 X-16.0877 Y0.1695
G01 X-15.9750 Y0.1750
G01 X16.0750 Y0.1750
G01 X16.1878 Y0.1695
G01 X16.2994 Y0.1529
G01 X16.4089 Y0.1255
G01 X16.5151 Y0.0875
G01 X16.6171 Y0.0392
G01 X16.7139 Y-0.0188
G01 X16.8046 Y-0.0860
G01 X16.8882 Y-0.1618
G01 X16.9640 Y-0.2454
G01 X17.0312 Y-0.3361
G01 X17.0892 Y-0.4329
G01 X17.1375 Y-0.5349
G01 X17.1755 Y-0.6412
G01 X17.2029 Y-0.7506
G01 X17.2195 Y-0.8623
G01 X17.2250 Y-0.9750
G01 X17.2250 Y-15.1000
G00 Z2.0000
G00 X17.2250 Y-18.7000
G01 F25.00
G01 Z-1.6000
G01 F25.00
G01 X17.2250 Y-33.0250
G01 X17.2195 Y-33.1377
G01 X17.2029 Y-33.2494
G01 X17.1755 Y-33.3588
G01 X17.1375 Y-33.4651
G01 X17.0892 Y-33.5671
G01 X17.0312 Y-33.6639
G01 X16.9640 Y-33.7546
G01 X16.8882 Y-33.8382
G01 X16.8046 Y-33.9140
G01 X16.7139 Y-33.9812
G01 X16.6171 Y-34.0392
G01 X16.5151 Y-34.0875
G01 X16.4089 Y-34.1255
G01 X16.2994 Y-34.1529
G01 X16.1878 Y-34.1695
G01 X16.0750 Y-34.1750
G01 X-15.9750 Y-34.1750
G01 X-16.0877 Y-34.1695
G01 X-16.1993 Y-34.1529
G01 X-16.3088 Y-34.1255
G01 X-16.4151 Y-34.0875
G01 X-16.5171 Y-34.0392
G01 X-16.6139 Y-33.9812
G01 X-16.7045 Y-33.9140
G01 X-16.7882 Y-33.8382
G01 X-16.8639 Y-33.7546
G01 X-16.9312 Y-33.6639
G01 X-16.9892 Y-33.5671
G01 X-17.0374 Y-33.4651
G01 X-17.0755 Y-33.3588
G01 X-17.1029 Y-33.2494
G01 X-17.1195 Y-33.1377
G01 X-17.1250 Y-33.0250
G01 X-17.1250 Y-18.7000
G00 Z2.0000
G00 X-17.8250 Y-18.7000
G01 F25.00
G01 Z-1.6000
G01 F25.00
G01 X-17.8250 Y-33.0250
G01 X-17.8305 Y-33.1377
G01 X-17.8471 Y-33.2494
G01 X-17.8745 Y-33.3588
G01 X-17.9125 Y-33.4651
G01 X-17.9608 Y-33.5671
G01 X-18.0188 Y-33.6639
G01 X-18.0860 Y-33.7546
G01 X-18.1618 Y-33.8382
G01 X-18.2454 Y-33.9140
G01 X-18.3361 Y-33.9812
G01 X-18.4329 Y-34.0392
G01 X-18.5349 Y-34.0875
G01 X-18.6412 Y-34.1255
G01 X-18.7506 Y-34.1529
G01 X-18.8623 Y-34.1695
G01 X-18.9750 Y-34.1750
G01 X-51.0250 Y-34.1750
G01 X-51.1377 Y-34.1695
G01 X-51.2494 Y-34.1529
G01 X-51.3588 Y-34.1255
G01 X-51.4651 Y-34.0875
G01 X-51.5671 Y-34.0392
G01 X-51.6639 Y-33.9812
G01 X-51.7546 Y-33.9140
G01 X-51.8382 Y-33.8382
G01 X-51.9140 Y-33.7546
G01 X-51.9812 Y-33.6639
G01 X-52.0392 Y-33.5671
G01 X-52.0875 Y-33.4651
G01 X-52.1255 Y-33.3588
G01 X-52.1529 Y-33.2494
G01 X-52.1695 Y-33.1377
G01 X-52.1750 Y-33.0250
G01 X-52.1750 Y-18.7000
G00 Z2.0000
G00 X-52.1750 Y-15.1000
G01 F25.00
G01 Z-1.6000
G01 F25.00
G01 X-52.1750 Y-0.9750
G01 X-52.1695 Y-0.8623
G01 X-52.1529 Y-0.7506
G01 X-52.1255 Y-0.6412
G01 X-52.0875 Y-0.5349
G01 X-52.0392 Y-0.4329
G01 X-51.9812 Y-0.3361
G01 X-51.9140 Y-0.2454
G01 X-51.8382 Y-0.1618
G01 X-51.7546 Y-0.0860
G01 X-51.6639 Y-0.0188
G01 X-51.5671 Y0.0392
G01 X-51.4651 Y0.0875
G01 X-51.3588 Y0.1255
G01 X-51.2494 Y0.1529
G01 X-51.1377 Y0.1695
G01 X-51.0250 Y0.1750
G01 X-18.9750 Y0.1750
G01 X-18.8623 Y0.1695
G01 X-18.7506 Y0.1529
G01 X-18.6412 Y0.1255
G01 X-18.5349 Y0.0875
G01 X-18.4329 Y0.0392
G01 X-18.3361 Y-0.0188
G01 X-18.2454 Y-0.0860
G01 X-18.1618 Y-0.1618
G01 X-18.0860 Y-0.2454
G01 X-18.0188 Y-0.3361
G01 X-17.9608 Y-0.4329
G01 X-17.9125 Y-0.5349
G01 X-17.8745 Y-0.6412
G01 X-17.8471 Y-0.7506
G01 X-17.8305 Y-0.8623
G01 X-17.8250 Y-0.9750
G01 X-17.8250 Y-15.1000
G00 Z2.0000
G00 X-17.8250 Y16.3500
G01 F25.00
G01 Z-1.6000
G01 F25.00
G01 X-17.8250 Y2.0250
G01 X-17.8305 Y1.9123
G01 X-17.8471 Y1.8007
G01 X-17.8745 Y1.6912
G01 X-17.9125 Y1.5849
G01 X-17.9608 Y1.4829
G01 X-18.0188 Y1.3861
G01 X-18.0860 Y1.2955
G01 X-18.1618 Y1.2118
G01 X-18.2454 Y1.1361
G01 X-18.3361 Y1.0688
G01 X-18.4329 Y1.0108
G01 X-18.5349 Y0.9626
G01 X-18.6412 Y0.9245
G01 X-18.7506 Y0.8971
G01 X-18.8623 Y0.8805
G01 X-18.9750 Y0.8750
G01 X-51.0250 Y0.8750
G01 X-51.1377 Y0.8805
G01 X-51.2494 Y0.8971
G01 X-51.3588 Y0.9245
G01 X-51.4651 Y0.9626
G01 X-51.5671 Y1.0108
G01 X-51.6639 Y1.0688
G01 X-51.7546 Y1.1361
G01 X-51.8382 Y1.2118
G01 X-51.9140 Y1.2955
G01 X-51.9812 Y1.3861
G01 X-52.0392 Y1.4829
G01 X-52.0875 Y1.5849
G01 X-52.1255 Y1.6912
G01 X-52.1529 Y1.8007
G01 X-52.1695 Y1.9123
G01 X-52.1750 Y2.0250
G01 X-52.1750 Y16.3500
G00 Z2.0000
G00 X-52.1750 Y19.9500
G01 F25.00
G01 Z-1.6000
G01 F25.00
G01 X-52.1750 Y34.0750
G01 X-52.1695 Y34.1878
G01 X-52.1529 Y34.2994
G01 X-52.1255 Y34.4089
G01 X-52.0875 Y34.5151
G01 X-52.0392 Y34.6171
G01 X-51.9812 Y34.7139
G01 X-51.9140 Y34.8046
G01 X-51.8382 Y34.8882
G01 X-51.7546 Y34.9640
G01 X-51.6639 Y35.0312
G01 X-51.5671 Y35.0892
G01 X-51.4651 Y35.1375
G01 X-51.3588 Y35.1755
G01 X-51.2494 Y35.2029
G01 X-51.1377 Y35.2195
G01 X-51.0250 Y35.2250
G01 X-18.9750 Y35.2250
G01 X-18.8623 Y35.2195
G01 X-18.7506 Y35.2029
G01 X-18.6412 Y35.1755
G01 X-18.5349 Y35.1375
G01 X-18.4329 Y35.0892
G01 X-18.3361 Y35.0312
G01 X-18.2454 Y34.9640
G01 X-18.1618 Y34.8882
G01 X-18.0860 Y34.8046
G01 X-18.0188 Y34.7139
G01 X-17.9608 Y34.6171
G01 X-17.9125 Y34.5151
G01 X-17.8745 Y34.4089
G01 X-17.8471 Y34.2994
G01 X-17.8305 Y34.1878
G01 X-17.8250 Y34.0750
G01 X-17.8250 Y19.9500
G00 Z2.0000
G00 X-17.1250 Y19.9500
G01 F25.00
G01 Z-1.6000
G01 F25.00
G01 X-17.1250 Y34.0750
G01 X-17.1195 Y34.1878
G01 X-17.1029 Y34.2994
G01 X-17.0755 Y34.4089
G01 X-17.0374 Y34.5151
G01 X-16.9892 Y34.6171
G01 X-16.9312 Y34.7139
G01 X-16.8639 Y34.8046
G01 X-16.7882 Y34.8882
G01 X-16.7045 Y34.9640
G01 X-16.6139 Y35.0312
G01 X-16.5171 Y35.0892
G01 X-16.4151 Y35.1375
G01 X-16.3088 Y35.1755
G01 X-16.1993 Y35.2029
G01 X-16.0877 Y35.2195
G01 X-15.9750 Y35.2250
G01 X16.0750 Y35.2250
G01 X16.1878 Y35.2195
G01 X16.2994 Y35.2029
G01 X16.4089 Y35.1755
G01 X16.5151 Y35.1375
G01 X16.6171 Y35.0892
G01 X16.7139 Y35.0312
G01 X16.8046 Y34.9640
G01 X16.8882 Y34.8882
G01 X16.9640 Y34.8046
G01 X17.0312 Y34.7139
G01 X17.0892 Y34.6171
G01 X17.1375 Y34.5151
G01 X17.1755 Y34.4089
G01 X17.2029 Y34.2994
G01 X17.2195 Y34.1878
G01 X17.2250 Y34.0750
G01 X17.2250 Y19.9500
G00 Z2.0000
G00 X17.2250 Y16.3500
G01 F25.00
G01 Z-1.6000
G01 F25.00
G01 X17.2250 Y2.0250
G01 X17.2195 Y1.9123
G01 X17.2029 Y1.8007
G01 X17.1755 Y1.6912
G01 X17.1375 Y1.5849
G01 X17.0892 Y1.4829
G01 X17.0312 Y1.3861
G01 X16.9640 Y1.2955
G01 X16.8882 Y1.2118
G01 X16.8046 Y1.1361
G01 X16.7139 Y1.0688
G01 X16.6171 Y1.0108
G01 X16.5151 Y0.9626
G01 X16.4089 Y0.9245
G01 X16.2994 Y0.8971
G01 X16.1878 Y0.8805
G01 X16.0750 Y0.8750
G01 X-15.9750 Y0.8750
G01 X-16.0877 Y0.8805
G01 X-16.1993 Y0.8971
G01 X-16.3088 Y0.9245
G01 X-16.4151 Y0.9626
G01 X-16.5171 Y1.0108
G01 X-16.6139 Y1.0688
G01 X-16.7045 Y1.1361
G01 X-16.7882 Y1.2118
G01 X-16.8639 Y1.2955
G01 X-16.9312 Y1.3861
G01 X-16.9892 Y1.4829
G01 X-17.0374 Y1.5849
G01 X-17.0755 Y1.6912
G01 X-17.1029 Y1.8007
G01 X-17.1195 Y1.9123
G01 X-17.1250 Y2.0250
G01 X-17.1250 Y16.3500
G00 Z2.0000
M05
G00 Z2.0000
G00 Z5.00
G00 X0.0 Y0.0


